; generated by Slic3r 1.3.0-dev on 2018-08-25 at 11:53:02

; external perimeters extrusion width = 0.44mm (2.38mm^3/s)
; perimeters extrusion width = 0.56mm (3.62mm^3/s)
; infill extrusion width = 0.50mm (5.48mm^3/s)
; solid infill extrusion width = 0.56mm (6.20mm^3/s)
; top infill extrusion width = 0.56mm (5.17mm^3/s)

M107
M104 S210 ; set temperature
; -- START GCODE --
	G90                     ;set to absolute positioning
G28                     ;move to Home
G92 E0                  ;zero the extruded length
G1 F7200                ;set feedrate to travel_speed value
; -- end of START GCODE --
; Filament gcode

M109 S210 ; set temperature and wait for it to be reached
G21 ; set units to millimeters
G90 ; use absolute coordinates
M82 ; use absolute distances for extrusion
G92 E0
G1 Z0.200 F9000.000
G1 E-4.00000 F2400.00000
G92 E0
G1 X88.676 Y93.682 F9000.000
G1 E4.00000 F2400.00000
G1 F1800
G1 X89.148 Y93.236 E4.02794
G1 X89.850 Y92.638 E4.06758
G1 X90.586 Y92.079 E4.10732
G1 X91.586 Y91.422 E4.15876
G1 X92.389 Y90.967 E4.19844
G1 X92.970 Y90.676 E4.22638
G1 X94.068 Y90.202 E4.27782
G1 X94.678 Y89.980 E4.30572
G1 X95.561 Y89.707 E4.34545
G1 X96.725 Y89.431 E4.39689
G1 X97.365 Y89.319 E4.42483
G1 X98.281 Y89.203 E4.46452
G1 X99.201 Y89.142 E4.50416
G1 X99.800 Y89.129 E4.52993
G1 X115.799 Y89.142 E5.21783
G1 X116.719 Y89.203 E5.25747
G1 X117.365 Y89.279 E5.28541
G1 X118.543 Y89.487 E5.33684
G1 X119.175 Y89.637 E5.36478
G1 X120.062 Y89.894 E5.40447
G1 X121.186 Y90.303 E5.45591
G1 X122.030 Y90.676 E5.49560
G1 X122.611 Y90.967 E5.52354
G1 X123.414 Y91.422 E5.56323
G1 X124.190 Y91.922 E5.60290
G1 X124.935 Y92.467 E5.64261
G1 X125.647 Y93.054 E5.68227
G1 X126.518 Y93.876 E5.73373
G1 X126.964 Y94.348 E5.76167
G1 X127.562 Y95.050 E5.80132
G1 X128.277 Y96.010 E5.85280
G1 X128.634 Y96.553 E5.88074
G1 X129.103 Y97.348 E5.92042
G1 X129.524 Y98.170 E5.96012
G1 X129.897 Y99.014 E5.99981
G1 X130.306 Y100.138 E6.05124
G1 X130.563 Y101.025 E6.09093
G1 X130.715 Y101.666 E6.11926
G1 X130.881 Y102.565 E6.15855
G1 X130.996 Y103.481 E6.19825
G1 X131.066 Y104.675 E6.24969
G1 X131.058 Y105.598 E6.28938
G1 X131.020 Y106.254 E6.31764
G1 X130.921 Y107.165 E6.35700
G1 X130.769 Y108.075 E6.39670
G1 X130.493 Y109.239 E6.44814
G1 X130.220 Y110.121 E6.48782
G1 X129.897 Y110.986 E6.52751
G1 X129.524 Y111.830 E6.56720
G1 X129.103 Y112.652 E6.60689
G1 X128.634 Y113.447 E6.64658
G1 X128.121 Y114.214 E6.68627
G1 X127.563 Y114.950 E6.72596
G1 X126.964 Y115.652 E6.76565
G1 X126.324 Y116.318 E6.80534
G1 X125.647 Y116.945 E6.84503
G1 X124.935 Y117.533 E6.88472
G1 X124.190 Y118.077 E6.92441
G1 X123.414 Y118.578 E6.96410
G1 X122.611 Y119.033 E7.00379
G1 X121.783 Y119.440 E7.04348
G1 X120.932 Y119.798 E7.08317
G1 X120.062 Y120.106 E7.12286
G1 X119.175 Y120.363 E7.16255
G1 X118.275 Y120.569 E7.20224
G1 X117.365 Y120.721 E7.24193
G1 X116.447 Y120.820 E7.28162
G1 X115.525 Y120.866 E7.32130
G1 X99.475 Y120.866 E8.01137
G1 X98.281 Y120.797 E8.06281
G1 X97.365 Y120.681 E8.10250
G1 X96.725 Y120.569 E8.13044
G1 X95.825 Y120.364 E8.17010
G1 X94.938 Y120.106 E8.20982
G1 X93.814 Y119.697 E8.26125
G1 X92.970 Y119.324 E8.30095
G1 X92.148 Y118.903 E8.34064
G1 X91.353 Y118.434 E8.38032
G1 X90.586 Y117.921 E8.42001
G1 X89.850 Y117.363 E8.45970
G1 X89.148 Y116.764 E8.49939
G1 X88.482 Y116.124 E8.53908
G1 X88.036 Y115.652 E8.56702
G1 X87.437 Y114.950 E8.60670
G1 X86.879 Y114.214 E8.64640
G1 X86.366 Y113.447 E8.68609
G1 X85.897 Y112.652 E8.72578
G1 X85.476 Y111.830 E8.76547
G1 X85.103 Y110.986 E8.80515
G1 X84.780 Y110.122 E8.84481
G1 X84.507 Y109.239 E8.88454
G1 X84.231 Y108.075 E8.93597
G1 X84.079 Y107.165 E8.97567
G1 X83.980 Y106.245 E9.01542
G1 X83.934 Y105.334 E9.05465
G1 X83.934 Y104.676 E9.08292
G1 X83.980 Y103.753 E9.12267
G1 X84.079 Y102.835 E9.16236
G1 X84.231 Y101.925 E9.20205
G1 X84.437 Y101.025 E9.24174
G1 X84.694 Y100.138 E9.28143
G1 X85.002 Y99.268 E9.32112
G1 X85.360 Y98.418 E9.36078
G1 X85.767 Y97.589 E9.40050
G1 X86.221 Y96.786 E9.44015
G1 X86.723 Y96.010 E9.47988
G1 X87.267 Y95.265 E9.51957
G1 X87.854 Y94.553 E9.55923
G1 X88.633 Y93.725 E9.60812
G1 X89.041 Y94.048 F9000.000
G1 F1800
G1 X89.492 Y93.623 E9.63476
G1 X90.170 Y93.043 E9.67312
G1 X90.883 Y92.503 E9.71156
G1 X91.857 Y91.862 E9.76170
G1 X92.634 Y91.423 E9.80009
G1 X93.188 Y91.144 E9.82674
G1 X94.259 Y90.682 E9.87689
G1 X94.850 Y90.468 E9.90392
G1 X95.695 Y90.207 E9.94193
G1 X96.829 Y89.938 E9.99207
G1 X97.440 Y89.830 E10.01872
G1 X98.326 Y89.719 E10.05711
G1 X99.216 Y89.659 E10.09546
G1 X99.800 Y89.646 E10.12059
G1 X115.784 Y89.659 E10.80784
G1 X116.674 Y89.719 E10.84618
G1 X117.290 Y89.791 E10.87283
G1 X118.438 Y89.993 E10.92297
G1 X119.041 Y90.136 E10.94962
G1 X119.899 Y90.384 E10.98802
G1 X120.995 Y90.783 E11.03817
G1 X121.812 Y91.144 E11.07656
G1 X122.366 Y91.423 E11.10320
G1 X123.143 Y91.862 E11.14160
G1 X123.893 Y92.346 E11.17998
G1 X124.614 Y92.873 E11.21839
G1 X125.303 Y93.441 E11.25676
G1 X126.152 Y94.241 E11.30693
G1 X126.577 Y94.692 E11.33358
G1 X127.157 Y95.370 E11.37193
G1 X127.854 Y96.307 E11.42212
G1 X128.338 Y97.057 E11.46052
G1 X128.777 Y97.834 E11.49891
G1 X129.056 Y98.388 E11.52556
G1 X129.417 Y99.205 E11.56396
G1 X129.730 Y100.041 E11.60235
G1 X129.993 Y100.894 E11.64074
G1 X130.262 Y102.029 E11.69089
G1 X130.370 Y102.640 E11.71753
G1 X130.481 Y103.526 E11.75593
G1 X130.549 Y104.690 E11.80608
G1 X130.541 Y105.583 E11.84448
G1 X130.504 Y106.211 E11.87151
G1 X130.409 Y107.090 E11.90951
G1 X130.262 Y107.970 E11.94791
G1 X129.993 Y109.105 E11.99806
G1 X129.730 Y109.959 E12.03645
G1 X129.417 Y110.795 E12.07485
G1 X129.056 Y111.612 E12.11325
G1 X128.648 Y112.406 E12.15164
G1 X128.194 Y113.176 E12.19004
G1 X127.697 Y113.917 E12.22844
G1 X127.157 Y114.629 E12.26683
G1 X126.577 Y115.308 E12.30523
G1 X125.959 Y115.952 E12.34362
G1 X125.304 Y116.559 E12.38202
G1 X124.614 Y117.127 E12.42042
G1 X123.893 Y117.654 E12.45882
G1 X123.143 Y118.138 E12.49721
G1 X122.366 Y118.577 E12.53561
G1 X121.564 Y118.971 E12.57400
G1 X120.741 Y119.318 E12.61240
G1 X119.899 Y119.616 E12.65080
G1 X119.041 Y119.864 E12.68919
G1 X118.171 Y120.062 E12.72759
G1 X117.290 Y120.209 E12.76599
G1 X116.402 Y120.305 E12.80438
G1 X115.510 Y120.349 E12.84278
G1 X99.490 Y120.349 E13.53155
G1 X98.326 Y120.281 E13.58170
G1 X97.440 Y120.170 E13.62009
G1 X96.829 Y120.062 E13.64674
G1 X95.695 Y119.793 E13.69688
G1 X94.841 Y119.530 E13.73528
G1 X94.005 Y119.217 E13.77367
G1 X93.188 Y118.856 E13.81207
G1 X92.394 Y118.448 E13.85047
G1 X91.624 Y117.994 E13.88886
G1 X90.883 Y117.497 E13.92726
G1 X90.171 Y116.957 E13.96566
G1 X89.492 Y116.377 E14.00405
G1 X88.848 Y115.759 E14.04245
G1 X88.423 Y115.308 E14.06909
G1 X87.843 Y114.629 E14.10748
G1 X87.303 Y113.917 E14.14589
G1 X86.806 Y113.176 E14.18428
G1 X86.352 Y112.406 E14.22268
G1 X85.944 Y111.612 E14.26108
G1 X85.583 Y110.795 E14.29947
G1 X85.268 Y109.950 E14.33826
G1 X84.936 Y108.841 E14.38802
G1 X84.738 Y107.971 E14.42641
G1 X84.591 Y107.090 E14.46481
G1 X84.495 Y106.200 E14.50327
G1 X84.451 Y105.319 E14.54121
G1 X84.451 Y104.691 E14.56819
G1 X84.495 Y103.798 E14.60664
G1 X84.591 Y102.910 E14.64504
G1 X84.738 Y102.029 E14.68344
G1 X84.936 Y101.159 E14.72183
G1 X85.184 Y100.301 E14.76023
G1 X85.482 Y99.459 E14.79863
G1 X85.829 Y98.637 E14.83699
G1 X86.223 Y97.834 E14.87542
G1 X86.662 Y97.058 E14.91377
G1 X87.146 Y96.307 E14.95221
G1 X87.673 Y95.586 E14.99061
G1 X88.241 Y94.897 E15.02898
G1 X88.999 Y94.090 E15.07657
G1 X89.407 Y94.414 F9000.000
G1 F1800
G1 X89.836 Y94.009 E15.10192
G1 X90.491 Y93.449 E15.13898
G1 X91.179 Y92.927 E15.17613
G1 X92.129 Y92.302 E15.22498
G1 X92.639 Y92.007 E15.25033
G1 X93.407 Y91.613 E15.28744
G1 X94.450 Y91.163 E15.33629
G1 X95.012 Y90.959 E15.36200
G1 X95.828 Y90.706 E15.39874
G1 X96.934 Y90.444 E15.44759
G1 X97.515 Y90.342 E15.47295
G1 X98.371 Y90.234 E15.51005
G1 X99.231 Y90.176 E15.54711
G1 X99.800 Y90.163 E15.57158
G1 X115.769 Y90.176 E16.25818
G1 X116.629 Y90.234 E16.29524
G1 X117.215 Y90.302 E16.32059
G1 X118.334 Y90.499 E16.36944
G1 X118.907 Y90.635 E16.39479
G1 X119.736 Y90.875 E16.43190
G1 X120.804 Y91.264 E16.48075
G1 X121.593 Y91.613 E16.51785
G1 X122.120 Y91.878 E16.54321
G1 X122.872 Y92.302 E16.58031
G1 X123.597 Y92.770 E16.61740
G1 X124.294 Y93.279 E16.65452
G1 X124.959 Y93.827 E16.69159
G1 X125.786 Y94.607 E16.74047
G1 X126.191 Y95.036 E16.76582
G1 X126.751 Y95.691 E16.80288
G1 X127.430 Y96.603 E16.85178
G1 X127.898 Y97.329 E16.88888
G1 X128.322 Y98.080 E16.92598
G1 X128.587 Y98.607 E16.95133
G1 X128.936 Y99.396 E16.98844
G1 X129.325 Y100.464 E17.03729
G1 X129.565 Y101.293 E17.07439
G1 X129.702 Y101.875 E17.10014
G1 X129.858 Y102.715 E17.13684
G1 X129.966 Y103.571 E17.17395
G1 X130.032 Y104.705 E17.22280
G1 X130.024 Y105.568 E17.25991
G1 X129.989 Y106.166 E17.28565
G1 X129.898 Y107.015 E17.32236
G1 X129.756 Y107.866 E17.35946
G1 X129.494 Y108.972 E17.40832
G1 X129.239 Y109.796 E17.44542
G1 X128.936 Y110.604 E17.48252
G1 X128.587 Y111.393 E17.51963
G1 X128.193 Y112.161 E17.55673
G1 X127.754 Y112.904 E17.59383
G1 X127.273 Y113.621 E17.63094
G1 X126.752 Y114.308 E17.66804
G1 X126.191 Y114.964 E17.70514
G1 X125.593 Y115.586 E17.74224
G1 X124.960 Y116.173 E17.77935
G1 X124.294 Y116.721 E17.81645
G1 X123.597 Y117.230 E17.85356
G1 X122.872 Y117.698 E17.89066
G1 X122.120 Y118.122 E17.92776
G1 X121.346 Y118.503 E17.96486
G1 X120.550 Y118.837 E18.00197
G1 X119.996 Y119.039 E18.02732
G1 X119.172 Y119.294 E18.06441
G1 X118.334 Y119.500 E18.10152
G1 X117.485 Y119.658 E18.13862
G1 X116.630 Y119.766 E18.17570
G1 X115.495 Y119.832 E18.22458
G1 X99.232 Y119.824 E18.92381
G1 X98.634 Y119.789 E18.94956
G1 X97.785 Y119.698 E18.98627
G1 X96.666 Y119.501 E19.03512
G1 X96.084 Y119.362 E19.06084
G1 X95.264 Y119.125 E19.09758
G1 X94.196 Y118.736 E19.14643
G1 X93.407 Y118.387 E19.18353
G1 X92.639 Y117.993 E19.22063
G1 X91.896 Y117.554 E19.25774
G1 X91.179 Y117.073 E19.29484
G1 X90.492 Y116.552 E19.33194
G1 X89.836 Y115.991 E19.36905
G1 X89.214 Y115.393 E19.40615
G1 X88.809 Y114.964 E19.43150
G1 X88.248 Y114.308 E19.46859
G1 X87.727 Y113.621 E19.50571
G1 X87.246 Y112.904 E19.54281
G1 X86.807 Y112.161 E19.57991
G1 X86.413 Y111.393 E19.61702
G1 X86.064 Y110.604 E19.65412
G1 X85.762 Y109.797 E19.69119
G1 X85.506 Y108.972 E19.72833
G1 X85.244 Y107.866 E19.77718
G1 X85.102 Y107.015 E19.81428
G1 X85.010 Y106.155 E19.85144
G1 X84.968 Y105.304 E19.88810
G1 X84.968 Y104.706 E19.91379
G1 X85.010 Y103.843 E19.95094
G1 X85.102 Y102.985 E19.98805
G1 X85.244 Y102.134 E20.02515
G1 X85.435 Y101.293 E20.06225
G1 X85.675 Y100.464 E20.09936
G1 X85.963 Y99.650 E20.13646
G1 X86.297 Y98.855 E20.17353
G1 X86.678 Y98.080 E20.21067
G1 X87.102 Y97.329 E20.24773
G1 X87.570 Y96.603 E20.28487
G1 X88.079 Y95.906 E20.32198
G1 X88.627 Y95.240 E20.35906
G1 X89.365 Y94.456 E20.40535
G1 X89.773 Y94.779 F9000.000
G1 F1800
G1 X90.180 Y94.395 E20.42941
G1 X90.812 Y93.854 E20.46518
G1 X91.476 Y93.350 E20.50103
G1 X92.400 Y92.742 E20.54859
G1 X92.884 Y92.463 E20.57264
G1 X93.625 Y92.082 E20.60846
G1 X94.641 Y91.644 E20.65602
G1 X95.175 Y91.449 E20.68047
G1 X95.962 Y91.206 E20.71589
G1 X97.039 Y90.951 E20.76344
G1 X97.590 Y90.853 E20.78750
G1 X98.416 Y90.749 E20.82331
G1 X99.246 Y90.692 E20.85908
G1 X99.800 Y90.680 E20.88291
G1 X115.754 Y90.692 E21.56886
G1 X116.584 Y90.749 E21.60462
G1 X117.140 Y90.814 E21.62869
G1 X118.229 Y91.006 E21.67624
G1 X118.774 Y91.135 E21.70030
G1 X119.574 Y91.366 E21.73611
G1 X120.613 Y91.745 E21.78367
G1 X121.375 Y92.082 E21.81948
G1 X121.875 Y92.333 E21.84354
G1 X122.600 Y92.742 E21.87935
G1 X123.300 Y93.193 E21.91515
G1 X123.973 Y93.684 E21.95097
G1 X124.616 Y94.213 E21.98675
G1 X125.421 Y94.973 E22.03434
G1 X125.805 Y95.380 E22.05840
G1 X126.346 Y96.012 E22.09417
G1 X127.007 Y96.900 E22.14176
G1 X127.458 Y97.600 E22.17757
G1 X127.867 Y98.325 E22.21338
G1 X128.118 Y98.825 E22.23744
G1 X128.456 Y99.587 E22.27325
G1 X128.834 Y100.626 E22.32081
G1 X128.997 Y101.171 E22.34526
G1 X129.194 Y101.971 E22.38067
G1 X129.386 Y103.060 E22.42824
G1 X129.475 Y103.888 E22.46405
G1 X129.515 Y104.720 E22.49986
G1 X129.508 Y105.553 E22.53567
G1 X129.474 Y106.119 E22.56006
G1 X129.386 Y106.940 E22.59554
G1 X129.249 Y107.761 E22.63135
G1 X128.994 Y108.838 E22.67891
G1 X128.748 Y109.633 E22.71472
G1 X128.456 Y110.413 E22.75052
G1 X128.118 Y111.175 E22.78634
G1 X127.737 Y111.915 E22.82215
G1 X127.314 Y112.633 E22.85795
G1 X126.850 Y113.324 E22.89377
G1 X126.346 Y113.987 E22.92958
G1 X125.805 Y114.620 E22.96539
G1 X125.227 Y115.221 E23.00120
G1 X124.616 Y115.786 E23.03701
G1 X123.973 Y116.316 E23.07282
G1 X123.300 Y116.807 E23.10863
G1 X122.600 Y117.258 E23.14444
G1 X121.875 Y117.667 E23.18025
G1 X121.127 Y118.034 E23.21606
G1 X120.359 Y118.356 E23.25187
G1 X119.833 Y118.548 E23.27593
G1 X119.038 Y118.794 E23.31172
G1 X118.229 Y118.994 E23.34754
G1 X117.411 Y119.147 E23.38335
G1 X116.585 Y119.251 E23.41913
G1 X115.480 Y119.315 E23.46672
G1 X99.247 Y119.308 E24.16466
G1 X98.681 Y119.274 E24.18906
G1 X97.860 Y119.186 E24.22453
G1 X96.771 Y118.994 E24.27209
G1 X96.218 Y118.863 E24.29652
G1 X95.426 Y118.634 E24.33196
G1 X94.387 Y118.256 E24.37951
G1 X93.625 Y117.918 E24.41533
G1 X92.885 Y117.537 E24.45114
G1 X92.167 Y117.114 E24.48694
G1 X91.476 Y116.650 E24.52275
G1 X90.812 Y116.146 E24.55857
G1 X90.180 Y115.605 E24.59437
G1 X89.579 Y115.027 E24.63019
G1 X89.195 Y114.620 E24.65424
G1 X88.654 Y113.988 E24.69004
G1 X88.150 Y113.324 E24.72586
G1 X87.686 Y112.633 E24.76167
G1 X87.263 Y111.915 E24.79748
G1 X86.882 Y111.175 E24.83329
G1 X86.545 Y110.413 E24.86910
G1 X86.249 Y109.625 E24.90531
G1 X85.935 Y108.574 E24.95247
G1 X85.751 Y107.761 E24.98828
G1 X85.614 Y106.940 E25.02409
G1 X85.525 Y106.110 E25.05996
G1 X85.485 Y105.289 E25.09532
G1 X85.484 Y104.721 E25.11972
G1 X85.525 Y103.888 E25.15558
G1 X85.614 Y103.060 E25.19139
G1 X85.751 Y102.239 E25.22720
G1 X85.935 Y101.426 E25.26301
G1 X86.166 Y100.626 E25.29882
G1 X86.444 Y99.841 E25.33463
G1 X86.766 Y99.074 E25.37041
G1 X87.133 Y98.325 E25.40625
G1 X87.542 Y97.601 E25.44203
G1 X87.993 Y96.900 E25.47787
G1 X88.484 Y96.227 E25.51368
G1 X89.013 Y95.584 E25.54947
G1 X89.730 Y94.822 E25.59447
G1 X90.138 Y95.145 F9000.000
G1 F1800
G1 X90.523 Y94.782 E25.61724
G1 X91.133 Y94.260 E25.65172
G1 X91.772 Y93.774 E25.68627
G1 X92.671 Y93.182 E25.73254
G1 X93.130 Y92.918 E25.75530
G1 X93.844 Y92.550 E25.78982
G1 X94.832 Y92.124 E25.83609
G1 X95.329 Y91.943 E25.85882
G1 X96.096 Y91.705 E25.89337
G1 X97.143 Y91.457 E25.93963
G1 X97.665 Y91.365 E25.96240
G1 X98.461 Y91.264 E25.99691
G1 X99.261 Y91.209 E26.03139
G1 X99.800 Y91.198 E26.05457
G1 X115.739 Y91.209 E26.73987
G1 X116.539 Y91.264 E26.77435
G1 X117.065 Y91.325 E26.79711
G1 X118.125 Y91.512 E26.84338
G1 X118.904 Y91.705 E26.87789
G1 X119.411 Y91.857 E26.90066
G1 X120.168 Y92.124 E26.93518
G1 X121.156 Y92.550 E26.98144
G1 X121.629 Y92.788 E27.00421
G1 X122.329 Y93.182 E27.03872
G1 X123.003 Y93.617 E27.07323
G1 X123.652 Y94.090 E27.10776
G1 X124.477 Y94.782 E27.15402
G1 X125.055 Y95.338 E27.18854
G1 X125.418 Y95.723 E27.21131
G1 X125.940 Y96.333 E27.24579
G1 X126.426 Y96.972 E27.28034
G1 X126.874 Y97.639 E27.31486
G1 X127.282 Y98.330 E27.34937
G1 X127.765 Y99.292 E27.39564
G1 X127.975 Y99.778 E27.41840
G1 X128.257 Y100.529 E27.45292
G1 X128.495 Y101.296 E27.48743
G1 X128.688 Y102.075 E27.52195
G1 X128.875 Y103.135 E27.56822
G1 X128.960 Y103.933 E27.60273
G1 X128.991 Y104.462 E27.62550
G1 X128.999 Y105.265 E27.66002
G1 X128.960 Y106.065 E27.69448
G1 X128.835 Y107.136 E27.74081
G1 X128.688 Y107.925 E27.77532
G1 X128.566 Y108.440 E27.79808
G1 X128.343 Y109.211 E27.83260
G1 X128.076 Y109.968 E27.86710
G1 X127.765 Y110.708 E27.90164
G1 X127.412 Y111.429 E27.93615
G1 X127.018 Y112.129 E27.97067
G1 X126.583 Y112.804 E28.00519
G1 X126.110 Y113.452 E28.03970
G1 X125.600 Y114.072 E28.07420
G1 X125.055 Y114.662 E28.10874
G1 X124.477 Y115.218 E28.14325
G1 X123.867 Y115.740 E28.17777
G1 X123.228 Y116.226 E28.21229
G1 X122.561 Y116.674 E28.24680
G1 X121.870 Y117.082 E28.28132
G1 X121.156 Y117.450 E28.31584
G1 X120.422 Y117.775 E28.35036
G1 X119.411 Y118.143 E28.39662
G1 X118.640 Y118.366 E28.43114
