; generated by Slic3r 1.3.0-dev on 2019-03-10 at 10:47:11

; external perimeters extrusion width = 0.44mm (2.38mm^3/s)
; perimeters extrusion width = 0.56mm (3.62mm^3/s)
; infill extrusion width = 0.50mm (5.48mm^3/s)
; solid infill extrusion width = 0.56mm (6.20mm^3/s)
; top infill extrusion width = 0.56mm (5.17mm^3/s)

M107
M104 S205 ; set temperature
; -- START GCODE --
	G90                     ;set to absolute positioning
G28                     ;move to Home
G92 E0                  ;zero the extruded length
G1 F7200                ;set feedrate to travel_speed value
; -- end of START GCODE --
; Filament gcode

M109 S205 ; set temperature and wait for it to be reached
G21 ; set units to millimeters
G90 ; use absolute coordinates
M82 ; use absolute distances for extrusion
G92 E0
G1 Z0.200 F9000.000
G1 E-4.00000 F2400.00000
G92 E0
G1 X92.306 Y90.262 F9000.000
G1 E4.00000 F2400.00000
G1 F1800
G1 X93.267 Y89.334 E4.05744
G1 X94.406 Y88.370 E4.12160
G1 X95.482 Y87.578 E4.17903
G1 X96.740 Y86.775 E4.24319
G1 X97.907 Y86.135 E4.30042
G1 X99.265 Y85.505 E4.36479
G1 X100.511 Y85.025 E4.42222
G1 X101.936 Y84.582 E4.48638
G1 X103.236 Y84.273 E4.54382
G1 X104.707 Y84.025 E4.60798
G1 X106.037 Y83.891 E4.66541
G1 X107.528 Y83.841 E4.72957
G1 X108.863 Y83.886 E4.78701
G1 X110.348 Y84.035 E4.85117
G1 X111.665 Y84.257 E4.90860
G1 X113.117 Y84.603 E4.97276
G1 X114.395 Y85.000 E5.03030
G1 X115.783 Y85.534 E5.09427
G1 X116.997 Y86.098 E5.15179
G1 X118.305 Y86.815 E5.21595
G1 X119.432 Y87.534 E5.27343
G1 X120.633 Y88.419 E5.33754
G1 X121.653 Y89.281 E5.39499
G1 X122.726 Y90.319 E5.45915
G1 X123.622 Y91.309 E5.51658
G1 X124.546 Y92.480 E5.58074
G1 X125.303 Y93.582 E5.63818
G1 X126.063 Y94.866 E5.70234
G1 X126.665 Y96.058 E5.75977
G1 X127.248 Y97.432 E5.82393
G1 X127.686 Y98.694 E5.88137
G1 X128.080 Y100.133 E5.94553
G1 X128.347 Y101.444 E6.00306
G1 X128.545 Y102.920 E6.06709
G1 X128.635 Y104.254 E6.12456
G1 X128.635 Y105.745 E6.18866
G1 X128.545 Y107.079 E6.24615
G1 X128.347 Y108.558 E6.31031
G1 X128.080 Y109.867 E6.36775
G1 X127.686 Y111.306 E6.43188
G1 X127.248 Y112.568 E6.48934
G1 X126.665 Y113.942 E6.55350
G1 X126.063 Y115.134 E6.61094
G1 X125.303 Y116.418 E6.67510
G1 X124.546 Y117.520 E6.73254
G1 X123.622 Y118.691 E6.79670
G1 X122.726 Y119.681 E6.85413
G1 X121.653 Y120.719 E6.91829
G1 X120.633 Y121.581 E6.97573
G1 X119.432 Y122.466 E7.03988
G1 X118.305 Y123.185 E7.09732
G1 X116.997 Y123.902 E7.16148
G1 X115.785 Y124.465 E7.21892
G1 X114.393 Y125.001 E7.28308
G1 X113.117 Y125.397 E7.34051
G1 X111.668 Y125.742 E7.40454
G1 X110.348 Y125.965 E7.46211
G1 X108.863 Y126.114 E7.52627
G1 X107.528 Y126.159 E7.58370
G1 X106.037 Y126.109 E7.64786
G1 X104.707 Y125.975 E7.70530
G1 X103.236 Y125.727 E7.76946
G1 X101.936 Y125.418 E7.82690
G1 X100.514 Y124.976 E7.89094
G1 X99.265 Y124.495 E7.94849
G1 X97.912 Y123.868 E8.01261
G1 X96.740 Y123.225 E8.07009
G1 X95.482 Y122.423 E8.13422
G1 X94.406 Y121.630 E8.19168
G1 X93.267 Y120.667 E8.25582
G1 X92.306 Y119.738 E8.31328
G1 X91.305 Y118.631 E8.37744
G1 X90.478 Y117.583 E8.43487
G1 X89.633 Y116.352 E8.49903
G1 X88.952 Y115.203 E8.55647
G1 X88.279 Y113.871 E8.62063
G1 X87.758 Y112.641 E8.67806
G1 X87.269 Y111.235 E8.74209
G1 X86.915 Y109.943 E8.79966
G1 X86.618 Y108.481 E8.86382
G1 X86.440 Y107.157 E8.92125
G1 X86.340 Y105.668 E8.98541
G1 X86.340 Y104.332 E9.04285
G1 X86.440 Y102.847 E9.10684
G1 X86.618 Y101.519 E9.16445
G1 X86.915 Y100.057 E9.22861
G1 X87.268 Y98.768 E9.28604
G1 X87.757 Y97.360 E9.35017
G1 X88.279 Y96.129 E9.40764
G1 X88.952 Y94.797 E9.47180
G1 X89.633 Y93.648 E9.52923
G1 X90.478 Y92.417 E9.59339
G1 X91.305 Y91.369 E9.65083
G1 X92.266 Y90.307 E9.71241
G1 X92.666 Y90.634 F9000.000
G1 F1800
G1 X93.626 Y89.705 E9.76984
G1 X94.713 Y88.786 E9.83103
G1 X95.788 Y87.994 E9.88847
G1 X96.988 Y87.228 E9.94966
G1 X98.160 Y86.586 E10.00712
G1 X99.450 Y85.987 E10.06828
G1 X100.697 Y85.507 E10.12572
G1 X102.056 Y85.085 E10.18691
G1 X103.356 Y84.776 E10.24435
G1 X104.759 Y84.539 E10.30554
G1 X106.088 Y84.405 E10.36297
G1 X107.511 Y84.358 E10.42416
G1 X108.846 Y84.402 E10.48160
G1 X110.262 Y84.545 E10.54279
G1 X111.579 Y84.767 E10.60022
G1 X112.963 Y85.097 E10.66141
G1 X114.242 Y85.493 E10.71895
G1 X115.566 Y86.004 E10.77996
G1 X116.779 Y86.567 E10.83747
G1 X118.027 Y87.251 E10.89866
G1 X119.154 Y87.970 E10.95614
G1 X120.299 Y88.813 E11.01728
G1 X121.319 Y89.676 E11.07472
G1 X122.342 Y90.665 E11.13591
G1 X123.238 Y91.656 E11.19335
G1 X124.120 Y92.773 E11.25454
G1 X124.876 Y93.874 E11.31198
G1 X125.601 Y95.099 E11.37317
G1 X126.204 Y96.291 E11.43060
G1 X126.760 Y97.601 E11.49179
G1 X127.198 Y98.863 E11.54923
G1 X127.574 Y100.236 E11.61042
G1 X127.840 Y101.547 E11.66795
G1 X128.029 Y102.955 E11.72902
G1 X128.119 Y104.288 E11.78648
G1 X128.119 Y105.710 E11.84761
G1 X128.030 Y107.044 E11.90510
G1 X127.840 Y108.455 E11.96629
G1 X127.574 Y109.764 E12.02373
G1 X127.198 Y111.136 E12.08489
G1 X126.760 Y112.399 E12.14235
G1 X126.204 Y113.709 E12.20355
G1 X125.601 Y114.901 E12.26098
G1 X124.876 Y116.126 E12.32217
G1 X124.120 Y117.227 E12.37961
G1 X123.238 Y118.344 E12.44080
G1 X122.342 Y119.335 E12.49823
G1 X121.319 Y120.324 E12.55942
G1 X120.299 Y121.186 E12.61686
G1 X119.153 Y122.031 E12.67804
G1 X118.027 Y122.749 E12.73548
G1 X116.779 Y123.433 E12.79667
G1 X115.567 Y123.996 E12.85411
G1 X114.239 Y124.507 E12.91530
G1 X112.963 Y124.903 E12.97273
G1 X111.582 Y125.232 E13.03380
G1 X110.262 Y125.455 E13.09136
G1 X108.846 Y125.598 E13.15255
G1 X107.511 Y125.642 E13.20999
G1 X106.088 Y125.595 E13.27118
G1 X104.759 Y125.461 E13.32861
G1 X103.356 Y125.224 E13.38980
G1 X102.056 Y124.915 E13.44724
G1 X100.700 Y124.494 E13.50831
G1 X99.450 Y124.013 E13.56586
G1 X98.160 Y123.414 E13.62702
G1 X96.988 Y122.772 E13.68449
G1 X95.785 Y122.003 E13.74588
G1 X94.713 Y121.214 E13.80311
G1 X93.626 Y120.295 E13.86428
G1 X92.666 Y119.366 E13.92174
G1 X91.711 Y118.310 E13.98293
G1 X90.883 Y117.262 E14.04036
G1 X90.078 Y116.089 E14.10155
G1 X89.397 Y114.939 E14.15899
G1 X88.755 Y113.669 E14.22018
G1 X88.234 Y112.439 E14.27762
G1 X87.768 Y111.098 E14.33868
G1 X87.414 Y109.807 E14.39624
G1 X87.131 Y108.412 E14.45743
G1 X86.953 Y107.088 E14.51487
G1 X86.857 Y105.668 E14.57606
G1 X86.857 Y104.332 E14.63349
G1 X86.952 Y102.916 E14.69452
G1 X87.131 Y101.588 E14.75212
G1 X87.414 Y100.193 E14.81331
G1 X87.767 Y98.905 E14.87074
G1 X88.234 Y97.561 E14.93190
G1 X88.755 Y96.331 E14.98937
G1 X89.397 Y95.061 E15.05056
G1 X90.078 Y93.911 E15.10799
G1 X90.883 Y92.738 E15.16919
G1 X91.711 Y91.690 E15.22662
G1 X92.626 Y90.679 E15.28523
G1 X93.025 Y91.006 F9000.000
G1 F1800
G1 X93.986 Y90.077 E15.34267
G1 X95.020 Y89.203 E15.40089
G1 X96.095 Y88.410 E15.45832
G1 X97.237 Y87.682 E15.51654
G1 X98.404 Y87.042 E15.57377
G1 X99.636 Y86.470 E15.63220
G1 X100.883 Y85.990 E15.68963
G1 X102.176 Y85.588 E15.74785
G1 X103.476 Y85.279 E15.80529
G1 X104.811 Y85.054 E15.86351
G1 X106.140 Y84.920 E15.92094
G1 X107.493 Y84.875 E15.97916
G1 X108.828 Y84.919 E16.03660
G1 X110.176 Y85.055 E16.09482
G1 X111.493 Y85.277 E16.15226
G1 X112.810 Y85.591 E16.21048
G1 X114.088 Y85.987 E16.26801
G1 X115.348 Y86.473 E16.32605
G1 X116.562 Y87.036 E16.38357
G1 X117.749 Y87.686 E16.44179
G1 X118.876 Y88.406 E16.49926
G1 X119.965 Y89.208 E16.55744
G1 X120.985 Y90.071 E16.61488
G1 X121.959 Y91.012 E16.67310
G1 X122.855 Y92.003 E16.73053
G1 X123.694 Y93.066 E16.78875
G1 X124.450 Y94.167 E16.84619
G1 X125.140 Y95.332 E16.90441
G1 X125.742 Y96.524 E16.96185
G1 X126.271 Y97.771 E17.02007
G1 X126.709 Y99.033 E17.07750
G1 X127.067 Y100.339 E17.13572
G1 X127.334 Y101.650 E17.19325
G1 X127.514 Y102.989 E17.25135
G1 X127.603 Y104.323 E17.30881
G1 X127.603 Y105.682 E17.36724
G1 X127.514 Y107.010 E17.42447
G1 X127.333 Y108.352 E17.48269
G1 X127.067 Y109.661 E17.54012
G1 X126.710 Y110.966 E17.59831
G1 X126.271 Y112.229 E17.65578
G1 X125.742 Y113.476 E17.71400
G1 X125.140 Y114.668 E17.77144
G1 X124.450 Y115.833 E17.82966
G1 X123.694 Y116.934 E17.88709
G1 X122.855 Y117.997 E17.94531
G1 X121.959 Y118.988 E18.00275
G1 X120.985 Y119.929 E18.06097
G1 X119.965 Y120.792 E18.11840
G1 X118.875 Y121.595 E18.17662
G1 X117.749 Y122.314 E18.23406
G1 X116.562 Y122.964 E18.29228
G1 X115.350 Y123.527 E18.34971
G1 X114.086 Y124.013 E18.40793
G1 X112.810 Y124.409 E18.46537
G1 X111.496 Y124.723 E18.52347
G1 X110.176 Y124.945 E18.58103
G1 X108.828 Y125.081 E18.63925
G1 X107.493 Y125.125 E18.69668
G1 X106.140 Y125.080 E18.75490
G1 X104.811 Y124.946 E18.81234
G1 X103.476 Y124.721 E18.87056
G1 X102.176 Y124.412 E18.92799
G1 X100.885 Y124.011 E18.98610
G1 X99.636 Y123.530 E19.04365
G1 X98.409 Y122.961 E19.10183
G1 X97.237 Y122.318 E19.15930
G1 X96.096 Y121.590 E19.21750
G1 X95.020 Y120.797 E19.27496
G1 X93.986 Y119.923 E19.33316
G1 X93.025 Y118.994 E19.39062
G1 X92.117 Y117.990 E19.44884
G1 X91.289 Y116.942 E19.50627
G1 X90.523 Y115.825 E19.56449
G1 X89.842 Y114.676 E19.62193
G1 X89.231 Y113.467 E19.68015
G1 X88.710 Y112.237 E19.73758
G1 X88.266 Y110.961 E19.79568
G1 X87.913 Y109.670 E19.85324
G1 X87.643 Y108.343 E19.91146
G1 X87.465 Y107.019 E19.96889
G1 X87.375 Y105.668 E20.02711
G1 X87.375 Y104.332 E20.08455
G1 X87.464 Y102.985 E20.14261
G1 X87.643 Y101.657 E20.20021
G1 X87.913 Y100.330 E20.25843
G1 X88.266 Y99.042 E20.31586
G1 X88.710 Y97.763 E20.37405
G1 X89.231 Y96.533 E20.43152
G1 X89.842 Y95.324 E20.48974
G1 X90.523 Y94.175 E20.54717
G1 X91.289 Y93.058 E20.60539
G1 X92.117 Y92.010 E20.66283
G1 X92.985 Y91.050 E20.71847
G1 X93.385 Y91.377 F9000.000
G1 F1800
G1 X94.345 Y90.449 E20.77590
G1 X95.326 Y89.619 E20.83116
G1 X96.402 Y88.827 E20.88859
G1 X97.485 Y88.135 E20.94384
G1 X98.657 Y87.493 E21.00130
G1 X99.822 Y86.952 E21.05653
G1 X101.069 Y86.472 E21.11396
G1 X102.296 Y86.091 E21.16921
G1 X103.596 Y85.782 E21.22665
G1 X104.863 Y85.568 E21.28190
G1 X106.192 Y85.434 E21.33933
G1 X107.476 Y85.391 E21.39458
G1 X108.811 Y85.436 E21.45202
G1 X110.090 Y85.565 E21.50727
G1 X111.407 Y85.787 E21.56471
G1 X112.657 Y86.085 E21.61996
G1 X113.935 Y86.481 E21.67748
G1 X115.131 Y86.942 E21.73257
G1 X116.344 Y87.505 E21.79008
G1 X117.471 Y88.122 E21.84533
G1 X118.597 Y88.841 E21.90280
G1 X119.631 Y89.603 E21.95801
G1 X120.651 Y90.466 E22.01545
G1 X121.575 Y91.359 E22.07070
G1 X122.471 Y92.350 E22.12814
G1 X123.268 Y93.358 E22.18339
G1 X124.024 Y94.460 E22.24082
G1 X124.678 Y95.565 E22.29607
G1 X125.281 Y96.758 E22.35351
G1 X125.783 Y97.941 E22.40876
G1 X126.221 Y99.203 E22.46619
G1 X126.560 Y100.442 E22.52144
G1 X126.827 Y101.753 E22.57897
G1 X126.998 Y103.024 E22.63410
G1 X127.087 Y104.357 E22.69156
G1 X127.087 Y105.647 E22.74702
G1 X126.998 Y106.975 E22.80425
G1 X126.826 Y108.249 E22.85950
G1 X126.560 Y109.558 E22.91694
G1 X126.221 Y110.797 E22.97216
G1 X125.783 Y112.059 E23.02962
G1 X125.281 Y113.242 E23.08487
G1 X124.678 Y114.435 E23.14231
G1 X124.024 Y115.540 E23.19756
G1 X123.268 Y116.642 E23.25499
G1 X122.471 Y117.650 E23.31024
G1 X121.575 Y118.641 E23.36768
G1 X120.651 Y119.534 E23.42293
G1 X119.631 Y120.397 E23.48036
G1 X118.597 Y121.159 E23.53561
G1 X117.471 Y121.878 E23.59305
G1 X116.344 Y122.495 E23.64830
G1 X115.132 Y123.058 E23.70574
G1 X113.933 Y123.519 E23.76099
G1 X112.657 Y123.915 E23.81842
G1 X111.410 Y124.213 E23.87356
G1 X110.090 Y124.435 E23.93111
G1 X108.811 Y124.564 E23.98636
G1 X107.476 Y124.609 E24.04379
G1 X106.192 Y124.566 E24.09904
G1 X104.863 Y124.432 E24.15648
G1 X103.596 Y124.218 E24.21173
G1 X102.296 Y123.909 E24.26917
G1 X101.071 Y123.529 E24.32431
G1 X99.822 Y123.048 E24.38185
G1 X98.657 Y122.507 E24.43707
G1 X97.485 Y121.865 E24.49454
G1 X96.402 Y121.174 E24.54976
G1 X95.326 Y120.381 E24.60722
G1 X94.345 Y119.552 E24.66246
G1 X93.385 Y118.623 E24.71991
G1 X92.523 Y117.670 E24.77516
G1 X91.695 Y116.621 E24.83260
G1 X90.968 Y115.562 E24.88785
G1 X90.287 Y114.412 E24.94528
G1 X89.707 Y113.265 E25.00053
G1 X89.186 Y112.036 E25.05797
G1 X88.765 Y110.824 E25.11310
G1 X88.411 Y109.533 E25.17065
G1 X88.155 Y108.269 E25.22611
G1 X87.977 Y106.950 E25.28334
G1 X87.892 Y105.668 E25.33859
G1 X87.892 Y104.332 E25.39602
G1 X87.977 Y103.053 E25.45113
G1 X88.155 Y101.726 E25.50871
G1 X88.411 Y100.467 E25.56396
G1 X88.764 Y99.178 E25.62140
G1 X89.186 Y97.965 E25.67662
G1 X89.707 Y96.735 E25.73408
G1 X90.287 Y95.588 E25.78933
G1 X90.968 Y94.438 E25.84677
G1 X91.695 Y93.379 E25.90202
G1 X92.523 Y92.330 E25.95945
G1 X93.345 Y91.422 E26.01212
G1 X93.744 Y91.749 F9000.000
G1 F1800
G1 X94.705 Y90.820 E26.06956
G1 X95.633 Y90.035 E26.12184
G1 X96.709 Y89.243 E26.17928
G1 X97.734 Y88.589 E26.23156
G1 X98.901 Y87.949 E26.28879
G1 X100.008 Y87.435 E26.34127
G1 X101.255 Y86.955 E26.39871
G1 X102.416 Y86.594 E26.45099
G1 X103.715 Y86.285 E26.50842
G1 X104.914 Y86.083 E26.56070
G1 X106.244 Y85.949 E26.61814
G1 X107.459 Y85.908 E26.67042
G1 X108.794 Y85.953 E26.72785
G1 X110.004 Y86.075 E26.78014
G1 X111.321 Y86.297 E26.83757
G1 X112.504 Y86.579 E26.88985
G1 X113.782 Y86.975 E26.94737
G1 X114.913 Y87.411 E26.99950
G1 X116.126 Y87.974 E27.05700
G1 X117.193 Y88.558 E27.10928
G1 X118.319 Y89.277 E27.16675
G1 X119.297 Y89.998 E27.21899
G1 X120.318 Y90.861 E27.27643
G1 X121.192 Y91.706 E27.32872
G1 X122.088 Y92.697 E27.38615
G1 X122.841 Y93.651 E27.43843
G1 X123.597 Y94.752 E27.49587
G1 X124.217 Y95.799 E27.54815
G1 X124.819 Y96.991 E27.60558
G1 X125.294 Y98.110 E27.65786
G1 X125.732 Y99.372 E27.71530
G1 X126.054 Y100.545 E27.76758
G1 X126.320 Y101.856 E27.82510
G1 X126.482 Y103.059 E27.87727
G1 X126.571 Y104.392 E27.93473
G1 X126.571 Y105.607 E27.98696
G1 X126.482 Y106.941 E28.04445
G1 X126.320 Y108.146 E28.09673
G1 X126.054 Y109.455 E28.15416
G1 X125.733 Y110.627 E28.20642
G1 X125.294 Y111.890 E28.26388
G1 X124.819 Y113.009 E28.31616
G1 X124.217 Y114.201 E28.37359
G1 X123.597 Y115.248 E28.42588
G1 X122.841 Y116.349 E28.48331
G1 X122.088 Y117.303 E28.53559
G1 X121.192 Y118.294 E28.59303
G1 X120.318 Y119.139 E28.64531
G1 X119.297 Y120.002 E28.70274
G1 X118.319 Y120.723 E28.75502
G1 X117.193 Y121.442 E28.81246
G1 X116.126 Y122.026 E28.86474
G1 X114.914 Y122.589 E28.92217
G1 X113.780 Y123.026 E28.97446
G1 X112.504 Y123.421 E29.03189
G1 X111.324 Y123.703 E29.08406
G1 X110.004 Y123.925 E29.14161
G1 X108.794 Y124.047 E29.19389
G1 X107.459 Y124.092 E29.25132
G1 X106.244 Y124.051 E29.30360
G1 X104.914 Y123.917 E29.36104
G1 X103.715 Y123.715 E29.41332
G1 X102.416 Y123.406 E29.47075
G1 X101.257 Y123.046 E29.52294
G1 X100.008 Y122.565 E29.58047
G1 X98.906 Y122.054 E29.63272
G1 X97.734 Y121.411 E29.69019
G1 X96.709 Y120.757 E29.74245
G1 X95.633 Y119.965 E29.79990
G1 X94.705 Y119.180 E29.85217
G1 X93.744 Y118.251 E29.90962
G1 X92.929 Y117.349 E29.96190
G1 X92.101 Y116.301 E30.01933
G1 X91.413 Y115.298 E30.07161
G1 X90.732 Y114.149 E30.12905
G1 X90.183 Y113.064 E30.18133
G1 X89.662 Y111.834 E30.23877
G1 X89.264 Y110.688 E30.29094
G1 X88.910 Y109.397 E30.34848
G1 X88.667 Y108.200 E30.40097
G1 X88.490 Y106.881 E30.45820
G1 X88.409 Y105.668 E30.51048
G1 X88.409 Y104.332 E30.56791
G1 X88.489 Y103.122 E30.62005
G1 X88.668 Y101.795 E30.67763
G1 X88.910 Y100.603 E30.72991
G1 X89.263 Y99.315 E30.78735
G1 X89.662 Y98.167 E30.83960
G1 X90.183 Y96.936 E30.89706
G1 X90.732 Y95.851 E30.94934
G1 X91.413 Y94.702 E31.00678
G1 X92.101 Y93.699 E31.05906
G1 X92.929 Y92.651 E31.11649
G1 X93.704 Y91.794 E31.16619
G1 X94.104 Y92.121 F9000.000
G1 F1800
G1 X95.064 Y91.192 E31.22363
G1 X95.940 Y90.452 E31.27294
G1 X97.015 Y89.659 E31.33038
G1 X97.982 Y89.042 E31.37969
G1 X99.154 Y88.400 E31.43715
G1 X100.194 Y87.917 E31.48643
G1 X101.440 Y87.437 E31.54387
G1 X102.536 Y87.097 E31.59318
G1 X103.835 Y86.788 E31.65062
G1 X104.966 Y86.597 E31.69993
G1 X106.295 Y86.463 E31.75736
G1 X107.442 Y86.425 E31.80667
G1 X108.777 Y86.470 E31.86411
G1 X109.918 Y86.584 E31.91342
G1 X111.235 Y86.807 E31.97085
G1 X112.351 Y87.072 E32.02016
G1 X113.628 Y87.469 E32.07768
G1 X114.695 Y87.880 E32.12684
G1 X115.909 Y88.443 E32.18435
G1 X116.914 Y88.994 E32.23366
G1 X118.041 Y89.713 E32.29112
G1 X118.963 Y90.393 E32.34039
G1 X119.984 Y91.256 E32.39784
G1 X120.808 Y92.053 E32.44715
G1 X121.704 Y93.044 E32.50458
G1 X122.415 Y93.944 E32.55389
G1 X123.171 Y95.045 E32.61133
