; generated by Slic3r 1.3.0-dev on 2018-10-15 at 17:16:10

; external perimeters extrusion width = 0.44mm (2.38mm^3/s)
; perimeters extrusion width = 0.56mm (3.62mm^3/s)
; infill extrusion width = 0.50mm (5.48mm^3/s)
; solid infill extrusion width = 0.56mm (6.20mm^3/s)
; top infill extrusion width = 0.56mm (5.17mm^3/s)

M107
M104 S210 ; set temperature
; -- START GCODE --
	G90                     ;set to absolute positioning
G28                     ;move to Home
G92 E0                  ;zero the extruded length
G1 F7200                ;set feedrate to travel_speed value
; -- end of START GCODE --
; Filament gcode

M109 S210 ; set temperature and wait for it to be reached
G21 ; set units to millimeters
G90 ; use absolute coordinates
M82 ; use absolute distances for extrusion
G92 E0
G1 Z0.200 F9000.000
G1 E-4.00000 F2400.00000
G92 E0
G1 X89.147 Y86.926 F9000.000
G1 E4.00000 F2400.00000
G1 F1800
G1 X90.155 Y85.926 E4.04884
G1 X91.216 Y84.982 E4.09769
G1 X92.327 Y84.097 E4.14653
G1 X92.839 Y83.722 E4.16838
G1 X93.990 Y82.943 E4.21617
G1 X95.207 Y82.212 E4.26501
G1 X96.462 Y81.547 E4.31387
G1 X97.752 Y80.952 E4.36272
G1 X99.072 Y80.428 E4.41157
G1 X100.418 Y79.976 E4.46041
G1 X101.787 Y79.597 E4.50925
G1 X102.581 Y79.414 E4.53729
G1 X103.977 Y79.154 E4.58614
G1 X104.604 Y79.063 E4.60794
G1 X105.988 Y78.915 E4.65580
G1 X107.405 Y78.840 E4.70462
G1 X108.825 Y78.842 E4.75347
G1 X110.244 Y78.922 E4.80234
G1 X111.055 Y79.002 E4.83036
G1 X112.461 Y79.202 E4.87921
G1 X113.854 Y79.478 E4.92805
G1 X115.229 Y79.830 E4.97690
G1 X116.584 Y80.255 E5.02574
G1 X117.182 Y80.469 E5.04757
G1 X118.473 Y80.988 E5.09543
G1 X119.760 Y81.587 E5.14426
G1 X121.013 Y82.256 E5.19311
G1 X122.228 Y82.991 E5.24196
G1 X123.401 Y83.792 E5.29081
G1 X124.528 Y84.654 E5.33964
G1 X125.608 Y85.577 E5.38849
G1 X126.204 Y86.132 E5.41650
G1 X126.656 Y86.578 E5.43833
G1 X127.609 Y87.591 E5.48618
G1 X128.525 Y88.677 E5.53504
G1 X129.396 Y89.834 E5.58488
G1 X130.172 Y90.989 E5.63272
G1 X130.598 Y91.683 E5.66073
G1 X131.802 Y94.412 E5.76332
G1 X132.242 Y97.517 E5.87118
G1 X132.242 Y112.483 E6.38598
G1 X131.844 Y115.439 E6.48857
G1 X130.598 Y118.317 E6.59643
G1 X130.172 Y119.011 E6.62444
G1 X129.380 Y120.190 E6.67329
G1 X128.525 Y121.323 E6.72212
G1 X128.141 Y121.792 E6.74297
G1 X127.201 Y122.856 E6.79181
G1 X126.636 Y123.443 E6.81983
G1 X125.608 Y124.423 E6.86868
G1 X124.529 Y125.346 E6.91751
G1 X123.401 Y126.208 E6.96635
G1 X122.227 Y127.009 E7.01522
G1 X121.013 Y127.744 E7.06406
G1 X119.760 Y128.413 E7.11291
G1 X118.500 Y129.000 E7.16072
G1 X117.914 Y129.247 E7.18257
G1 X116.584 Y129.745 E7.23142
G1 X115.229 Y130.170 E7.28026
G1 X113.854 Y130.522 E7.32911
G1 X113.057 Y130.689 E7.35712
G1 X111.655 Y130.922 E7.40600
G1 X110.244 Y131.078 E7.45481
G1 X108.826 Y131.158 E7.50368
G1 X107.406 Y131.160 E7.55250
G1 X106.018 Y131.087 E7.60033
G1 X105.385 Y131.030 E7.62218
G1 X103.977 Y130.846 E7.67102
G1 X103.174 Y130.706 E7.69906
G1 X101.787 Y130.403 E7.74790
G1 X100.418 Y130.024 E7.79676
G1 X99.072 Y129.572 E7.84559
G1 X97.752 Y129.048 E7.89446
G1 X96.462 Y128.453 E7.94331
G1 X95.207 Y127.789 E7.99214
G1 X94.016 Y127.073 E8.03993
G1 X93.484 Y126.726 E8.06179
G1 X92.327 Y125.903 E8.11063
G1 X91.216 Y125.018 E8.15948
G1 X90.155 Y124.074 E8.20832
G1 X89.569 Y123.506 E8.23639
G1 X88.593 Y122.475 E8.28522
G1 X87.693 Y121.417 E8.33301
G1 X87.300 Y120.918 E8.35486
G1 X86.814 Y120.262 E8.38293
G1 X86.017 Y119.086 E8.43178
G1 X85.670 Y118.526 E8.45445
G1 X84.958 Y117.268 E8.50420
G1 X84.400 Y116.160 E8.54684
G1 X84.037 Y115.352 E8.57731
G1 X83.466 Y113.913 E8.63057
G1 X82.758 Y110.000 E8.76735
G1 X82.758 Y100.000 E9.11131
G1 X83.466 Y96.087 E9.24808
G1 X83.917 Y94.927 E9.29089
G1 X84.400 Y93.840 E9.33183
G1 X84.958 Y92.732 E9.37447
G1 X85.670 Y91.474 E9.42421
G1 X86.468 Y90.233 E9.47496
G1 X87.300 Y89.082 E9.52380
G1 X88.195 Y87.979 E9.57265
G1 X89.106 Y86.970 E9.61943
G1 X89.527 Y87.277 F9000.000
G1 F1800
G1 X90.515 Y86.297 E9.66731
G1 X91.556 Y85.373 E9.71519
G1 X92.645 Y84.506 E9.76306
G1 X93.133 Y84.147 E9.78389
G1 X94.261 Y83.383 E9.83077
G1 X95.454 Y82.666 E9.87865
G1 X96.685 Y82.014 E9.92654
G1 X97.948 Y81.430 E9.97443
G1 X99.242 Y80.916 E10.02231
G1 X100.561 Y80.472 E10.07019
G1 X101.903 Y80.101 E10.11807
G1 X102.697 Y79.918 E10.14611
G1 X104.066 Y79.663 E10.19398
G1 X104.665 Y79.576 E10.21483
G1 X106.021 Y79.431 E10.26172
G1 X107.410 Y79.357 E10.30958
G1 X108.803 Y79.359 E10.35746
G1 X110.193 Y79.436 E10.40536
G1 X111.004 Y79.517 E10.43339
G1 X112.382 Y79.713 E10.48127
G1 X113.747 Y79.984 E10.52915
G1 X115.096 Y80.329 E10.57702
G1 X116.424 Y80.747 E10.62490
G1 X116.995 Y80.951 E10.64576
G1 X118.260 Y81.459 E10.69266
G1 X119.522 Y82.046 E10.74052
G1 X120.750 Y82.701 E10.78841
G1 X121.941 Y83.422 E10.83630
G1 X123.091 Y84.206 E10.88418
G1 X124.197 Y85.051 E10.93205
G1 X125.256 Y85.956 E10.97994
G1 X125.851 Y86.511 E11.00795
G1 X126.283 Y86.937 E11.02881
G1 X127.217 Y87.929 E11.07569
G1 X128.116 Y88.993 E11.12359
G1 X128.971 Y90.128 E11.17247
G1 X129.731 Y91.259 E11.21934
G1 X130.157 Y91.953 E11.24734
G1 X131.324 Y94.622 E11.34753
G1 X131.725 Y97.517 E11.44806
G1 X131.725 Y112.483 E11.96285
G1 X131.327 Y115.369 E12.06303
G1 X130.157 Y118.047 E12.16357
G1 X129.731 Y118.741 E12.19158
G1 X128.954 Y119.896 E12.23946
G1 X128.116 Y121.007 E12.28732
G1 X127.750 Y121.454 E12.30721
G1 X126.828 Y122.498 E12.35509
G1 X126.263 Y123.084 E12.38310
G1 X125.255 Y124.045 E12.43099
G1 X124.197 Y124.949 E12.47886
G1 X123.091 Y125.794 E12.52673
G1 X121.941 Y126.578 E12.57463
G1 X120.750 Y127.299 E12.62251
G1 X119.521 Y127.954 E12.67039
G1 X118.287 Y128.529 E12.71724
G1 X117.727 Y128.765 E12.73813
G1 X116.424 Y129.253 E12.78601
G1 X115.096 Y129.671 E12.83389
G1 X113.747 Y130.016 E12.88177
G1 X112.950 Y130.183 E12.90978
G1 X111.576 Y130.411 E12.95769
G1 X110.193 Y130.563 E13.00554
G1 X108.803 Y130.641 E13.05344
G1 X107.411 Y130.643 E13.10130
G1 X106.051 Y130.571 E13.14816
G1 X105.446 Y130.517 E13.16905
G1 X104.066 Y130.337 E13.21693
G1 X103.263 Y130.197 E13.24496
G1 X101.903 Y129.899 E13.29284
G1 X100.561 Y129.528 E13.34073
G1 X99.242 Y129.084 E13.38860
G1 X97.948 Y128.570 E13.43650
G1 X96.684 Y127.986 E13.48438
G1 X95.455 Y127.334 E13.53225
G1 X94.288 Y126.633 E13.57908
G1 X93.779 Y126.301 E13.59997
G1 X92.645 Y125.494 E13.64785
G1 X91.556 Y124.627 E13.69573
G1 X90.515 Y123.703 E13.74360
G1 X89.929 Y123.135 E13.77167
G1 X88.972 Y122.124 E13.81954
G1 X88.091 Y121.087 E13.86636
G1 X87.716 Y120.609 E13.88725
G1 X87.229 Y119.954 E13.91532
G1 X86.449 Y118.801 E13.96321
G1 X86.118 Y118.267 E13.98483
G1 X85.417 Y117.031 E14.03369
G1 X84.870 Y115.945 E14.07553
G1 X84.509 Y115.141 E14.10584
G1 X83.950 Y113.732 E14.15798
G1 X83.275 Y110.000 E14.28842
G1 X83.275 Y100.000 E14.63239
G1 X83.950 Y96.268 E14.76282
G1 X84.394 Y95.126 E14.80499
G1 X84.870 Y94.055 E14.84529
G1 X85.417 Y92.969 E14.88712
G1 X86.118 Y91.733 E14.93598
G1 X86.899 Y90.518 E14.98568
G1 X87.716 Y89.391 E15.03356
G1 X88.592 Y88.309 E15.08144
G1 X89.486 Y87.321 E15.12725
G1 X89.906 Y87.629 F9000.000
G1 F1800
G1 X90.875 Y86.669 E15.17417
G1 X91.895 Y85.763 E15.22108
G1 X92.962 Y84.914 E15.26800
G1 X93.428 Y84.572 E15.28786
G1 X94.533 Y83.823 E15.33377
G1 X95.702 Y83.120 E15.38069
G1 X96.907 Y82.481 E15.42761
G1 X98.145 Y81.909 E15.47453
G1 X99.412 Y81.404 E15.52145
G1 X100.705 Y80.969 E15.56837
G1 X102.019 Y80.605 E15.61528
G1 X102.814 Y80.422 E15.64332
G1 X104.155 Y80.173 E15.69023
G1 X104.727 Y80.090 E15.71011
G1 X106.054 Y79.947 E15.75603
G1 X107.416 Y79.874 E15.80293
G1 X108.780 Y79.876 E15.84985
G1 X110.142 Y79.951 E15.89678
G1 X110.953 Y80.031 E15.92481
G1 X112.303 Y80.224 E15.97172
G1 X113.641 Y80.490 E16.01864
G1 X114.962 Y80.829 E16.06555
G1 X116.263 Y81.238 E16.11247
G1 X116.808 Y81.433 E16.13236
G1 X118.047 Y81.930 E16.17829
G1 X119.283 Y82.505 E16.22519
G1 X120.487 Y83.147 E16.27211
G1 X121.655 Y83.852 E16.31903
G1 X122.782 Y84.620 E16.36595
G1 X123.866 Y85.448 E16.41285
G1 X124.903 Y86.334 E16.45978
G1 X125.499 Y86.889 E16.48779
G1 X125.911 Y87.296 E16.50770
G1 X126.826 Y88.267 E16.55360
G1 X127.706 Y89.309 E16.60053
G1 X128.545 Y90.421 E16.64844
G1 X129.290 Y91.529 E16.69435
G1 X129.716 Y92.223 E16.72236
G1 X130.845 Y94.830 E16.82007
G1 X131.208 Y97.517 E16.91333
G1 X131.208 Y112.483 E17.42813
G1 X130.810 Y115.296 E17.52583
G1 X129.716 Y117.777 E17.61910
G1 X129.290 Y118.471 E17.64710
G1 X128.528 Y119.603 E17.69402
G1 X127.706 Y120.690 E17.74092
G1 X127.358 Y121.116 E17.75984
G1 X126.456 Y122.139 E17.80676
G1 X125.891 Y122.726 E17.83477
G1 X124.903 Y123.666 E17.88169
G1 X123.866 Y124.552 E17.92860
G1 X122.782 Y125.380 E17.97550
G1 X121.654 Y126.148 E18.02244
G1 X120.487 Y126.854 E18.06935
G1 X119.283 Y127.495 E18.11627
G1 X118.074 Y128.058 E18.16216
G1 X117.540 Y128.283 E18.18208
G1 X116.263 Y128.762 E18.22899
G1 X114.962 Y129.171 E18.27591
G1 X113.641 Y129.510 E18.32282
G1 X112.844 Y129.677 E18.35083
G1 X111.497 Y129.900 E18.39777
G1 X110.142 Y130.049 E18.44467
G1 X108.780 Y130.124 E18.49160
G1 X107.417 Y130.126 E18.53849
G1 X106.084 Y130.055 E18.58439
G1 X105.507 Y130.003 E18.60431
G1 X104.155 Y129.827 E18.65123
G1 X103.352 Y129.687 E18.67926
G1 X102.020 Y129.395 E18.72617
G1 X100.705 Y129.031 E18.77309
G1 X99.412 Y128.596 E18.82000
G1 X98.145 Y128.091 E18.86694
G1 X96.907 Y127.519 E18.91385
G1 X95.702 Y126.880 E18.96075
G1 X94.559 Y126.193 E19.00663
G1 X94.074 Y125.876 E19.02655
G1 X92.962 Y125.086 E19.07346
G1 X91.895 Y124.237 E19.12038
G1 X90.875 Y123.331 E19.16729
G1 X90.289 Y122.764 E19.19535
G1 X89.352 Y121.773 E19.24226
G1 X88.489 Y120.756 E19.28812
G1 X88.131 Y120.301 E19.30804
G1 X87.645 Y119.646 E19.33611
G1 X86.880 Y118.516 E19.38303
G1 X86.565 Y118.008 E19.40360
G1 X85.877 Y116.794 E19.45159
G1 X85.340 Y115.729 E19.49261
G1 X84.981 Y114.929 E19.52277
G1 X84.435 Y113.551 E19.57378
G1 X83.792 Y110.000 E19.69789
G1 X83.792 Y100.000 E20.04185
G1 X84.434 Y96.449 E20.16596
G1 X84.872 Y95.324 E20.20749
G1 X85.340 Y94.271 E20.24714
G1 X85.877 Y93.206 E20.28816
G1 X86.565 Y91.992 E20.33615
G1 X87.330 Y90.803 E20.38480
G1 X88.131 Y89.699 E20.43171
G1 X88.990 Y88.639 E20.47862
G1 X89.865 Y87.673 E20.52347
G1 X90.285 Y87.980 F9000.000
G1 F1800
G1 X91.235 Y87.040 E20.56942
G1 X92.234 Y86.153 E20.61537
G1 X93.280 Y85.322 E20.66132
G1 X93.724 Y84.996 E20.68028
G1 X94.804 Y84.263 E20.72517
G1 X95.949 Y83.574 E20.77113
G1 X97.129 Y82.948 E20.81708
G1 X98.342 Y82.387 E20.86304
G1 X99.583 Y81.892 E20.90899
G1 X100.849 Y81.466 E20.95494
G1 X102.136 Y81.109 E21.00089
G1 X102.930 Y80.925 E21.02892
G1 X104.243 Y80.682 E21.07487
G1 X104.788 Y80.603 E21.09379
G1 X106.087 Y80.463 E21.13875
G1 X107.421 Y80.391 E21.18468
G1 X108.757 Y80.392 E21.23063
G1 X110.091 Y80.466 E21.27660
G1 X110.902 Y80.546 E21.30462
G1 X112.224 Y80.735 E21.35057
G1 X113.534 Y80.996 E21.39652
G1 X114.828 Y81.328 E21.44247
G1 X116.103 Y81.730 E21.48842
G1 X116.621 Y81.916 E21.50738
G1 X117.834 Y82.401 E21.55232
G1 X119.045 Y82.964 E21.59825
G1 X120.225 Y83.592 E21.64421
G1 X121.368 Y84.283 E21.69016
G1 X122.473 Y85.035 E21.73612
G1 X123.534 Y85.845 E21.78206
G1 X124.551 Y86.712 E21.82801
G1 X125.146 Y87.267 E21.85602
G1 X125.538 Y87.654 E21.87496
G1 X126.435 Y88.605 E21.91991
G1 X127.297 Y89.626 E21.96587
G1 X128.103 Y90.691 E22.01182
G1 X128.850 Y91.799 E22.05776
G1 X129.275 Y92.493 E22.08577
G1 X130.365 Y95.036 E22.18094
G1 X130.691 Y97.517 E22.26700
G1 X130.691 Y112.483 E22.78179
G1 X130.293 Y115.221 E22.87696
G1 X129.275 Y117.507 E22.96302
G1 X128.850 Y118.201 E22.99103
G1 X128.103 Y119.309 E23.03697
G1 X127.297 Y120.374 E23.08291
G1 X126.967 Y120.779 E23.10087
G1 X126.083 Y121.780 E23.14682
G1 X125.518 Y122.367 E23.17483
G1 X124.550 Y123.288 E23.22079
G1 X123.534 Y124.155 E23.26673
G1 X122.473 Y124.965 E23.31267
G1 X121.368 Y125.717 E23.35864
G1 X120.225 Y126.408 E23.40458
G1 X119.045 Y127.036 E23.45054
G1 X117.861 Y127.587 E23.49546
G1 X117.353 Y127.800 E23.51442
G1 X116.103 Y128.270 E23.56037
G1 X114.828 Y128.672 E23.60632
G1 X113.534 Y129.004 E23.65227
G1 X112.737 Y129.171 E23.68028
G1 X111.419 Y129.389 E23.72625
G1 X110.091 Y129.534 E23.77218
G1 X108.757 Y129.608 E23.81814
G1 X107.422 Y129.609 E23.86408
G1 X106.117 Y129.539 E23.90901
G1 X105.568 Y129.490 E23.92797
G1 X104.243 Y129.318 E23.97392
G1 X103.441 Y129.178 E24.00195
G1 X102.136 Y128.891 E24.04789
G1 X100.848 Y128.534 E24.09385
G1 X99.583 Y128.108 E24.13979
G1 X98.341 Y127.613 E24.18576
G1 X97.129 Y127.052 E24.23172
G1 X95.949 Y126.426 E24.27765
G1 X94.830 Y125.753 E24.32256
G1 X94.369 Y125.452 E24.34152
G1 X93.280 Y124.678 E24.38747
G1 X92.234 Y123.847 E24.43342
G1 X91.235 Y122.960 E24.47936
G1 X90.649 Y122.392 E24.50743
G1 X89.731 Y121.422 E24.55337
G1 X88.887 Y120.426 E24.59826
G1 X88.546 Y119.993 E24.61722
G1 X88.060 Y119.338 E24.64528
G1 X87.312 Y118.231 E24.69124
G1 X87.013 Y117.749 E24.71076
G1 X86.337 Y116.558 E24.75787
G1 X85.810 Y115.513 E24.79809
G1 X85.453 Y114.718 E24.82809
G1 X84.919 Y113.370 E24.87797
G1 X84.309 Y110.000 E24.99575
G1 X84.309 Y100.000 E25.33972
G1 X84.919 Y96.631 E25.45749
G1 X85.349 Y95.523 E25.49837
G1 X85.810 Y94.486 E25.53739
G1 X86.337 Y93.443 E25.57760
G1 X87.013 Y92.251 E25.62471
G1 X87.762 Y91.088 E25.67230
G1 X88.546 Y90.007 E25.71825
G1 X89.388 Y88.970 E25.76420
G1 X90.245 Y88.024 E25.80809
G1 X90.665 Y88.331 F9000.000
G1 F1800
G1 X91.595 Y87.411 E25.85307
G1 X92.573 Y86.544 E25.89806
G1 X93.597 Y85.730 E25.94304
G1 X94.018 Y85.422 E25.96098
G1 X95.076 Y84.703 E26.00496
G1 X96.196 Y84.028 E26.04995
G1 X97.351 Y83.415 E26.09494
G1 X98.538 Y82.865 E26.13993
G1 X99.753 Y82.381 E26.18492
G1 X100.992 Y81.963 E26.22990
G1 X102.252 Y81.613 E26.27489
G1 X103.046 Y81.429 E26.30292
G1 X104.332 Y81.191 E26.34790
G1 X104.850 Y81.116 E26.36589
G1 X106.120 Y80.979 E26.40985
G1 X107.426 Y80.908 E26.45482
G1 X108.734 Y80.909 E26.49981
G1 X110.040 Y80.980 E26.54481
G1 X110.851 Y81.060 E26.57283
G1 X112.145 Y81.247 E26.61781
G1 X113.428 Y81.502 E26.66280
G1 X114.695 Y81.828 E26.70778
G1 X115.942 Y82.221 E26.75277
G1 X116.434 Y82.397 E26.77074
G1 X117.621 Y82.873 E26.81474
G1 X118.807 Y83.423 E26.85971
G1 X119.962 Y84.037 E26.90470
G1 X121.082 Y84.713 E26.94969
G1 X122.163 Y85.449 E26.99468
G1 X123.203 Y86.242 E27.03965
G1 X124.198 Y87.091 E27.08464
G1 X124.794 Y87.646 E27.11265
G1 X125.166 Y88.013 E27.13062
G1 X126.043 Y88.943 E27.17460
G1 X126.888 Y89.942 E27.21961
G1 X127.694 Y91.009 E27.26558
G1 X128.409 Y92.069 E27.30956
G1 X128.834 Y92.763 E27.33757
G1 X129.884 Y95.241 E27.43014
G1 X130.174 Y97.517 E27.50905
G1 X130.174 Y112.483 E28.02385
G1 X129.776 Y115.145 E28.11641
G1 X128.834 Y117.237 E28.19532
G1 X128.409 Y117.931 E28.22333
G1 X127.677 Y119.015 E28.26832
G1 X126.888 Y120.058 E28.31329
G1 X126.576 Y120.441 E28.33028
G1 X125.711 Y121.422 E28.37527
G1 X125.146 Y122.008 E28.40327
G1 X124.198 Y122.910 E28.44826
G1 X123.203 Y123.758 E28.49324
G1 X122.163 Y124.551 E28.53822
G1 X121.081 Y125.287 E28.58322
G1 X119.962 Y125.963 E28.62820
G1 X118.807 Y126.577 E28.67320
G1 X117.648 Y127.115 E28.71715
G1 X117.166 Y127.318 E28.73514
G1 X115.942 Y127.779 E28.78013
G1 X114.695 Y128.172 E28.82511
G1 X113.428 Y128.498 E28.87010
G1 X112.631 Y128.665 E28.89811
G1 X111.340 Y128.878 E28.94312
G1 X110.040 Y129.020 E28.98808
G1 X108.734 Y129.091 E29.03308
G1 X107.427 Y129.092 E29.07805
G1 X106.149 Y129.023 E29.12205
G1 X105.629 Y128.976 E29.14001
G1 X104.332 Y128.809 E29.18499
G1 X103.530 Y128.669 E29.21302
G1 X102.252 Y128.387 E29.25800
G1 X100.992 Y128.037 E29.30300
G1 X99.753 Y127.619 E29.34797
G1 X98.538 Y127.135 E29.39298
G1 X97.351 Y126.585 E29.43796
G1 X96.196 Y125.972 E29.48294
G1 X95.102 Y125.313 E29.52688
G1 X94.664 Y125.027 E29.54487
G1 X93.597 Y124.270 E29.58986
G1 X92.573 Y123.456 E29.63484
G1 X91.595 Y122.589 E29.67982
G1 X91.009 Y122.021 E29.70788
G1 X90.111 Y121.071 E29.75286
G1 X89.285 Y120.096 E29.79679
G1 X88.962 Y119.685 E29.81478
G1 X88.475 Y119.030 E29.84284
G1 X87.743 Y117.946 E29.88783
G1 X87.460 Y117.490 E29.90631
G1 X86.796 Y116.321 E29.95254
G1 X86.280 Y115.298 E29.99195
G1 X85.925 Y114.507 E30.02179
G1 X85.403 Y113.189 E30.07055
