; generated by Slic3r 1.3.0-dev on 2018-08-13 at 11:13:00

; external perimeters extrusion width = 0.44mm (2.38mm^3/s)
; perimeters extrusion width = 0.56mm (3.62mm^3/s)
; infill extrusion width = 0.50mm (5.48mm^3/s)
; solid infill extrusion width = 0.56mm (6.20mm^3/s)
; top infill extrusion width = 0.56mm (5.17mm^3/s)

M107
M104 S210 ; set temperature
; -- START GCODE --
	G90                     ;set to absolute positioning
G28                     ;move to Home
G92 E0                  ;zero the extruded length
G1 F7200                ;set feedrate to travel_speed value
; -- end of START GCODE --
; Filament gcode

M109 S210 ; set temperature and wait for it to be reached
G21 ; set units to millimeters
G90 ; use absolute coordinates
M82 ; use absolute distances for extrusion
G92 E0
G1 Z0.200 F9000.000
G1 E-4.00000 F2400.00000
G92 E0
G1 X77.461 Y92.128 F9000.000
G1 E4.00000 F2400.00000
G1 F1800
G1 X79.826 Y90.556 E4.12213
G1 X83.560 Y89.584 E4.28801
G1 X123.060 Y87.084 E5.98973
G1 X123.700 Y87.063 E6.01727
G1 X125.800 Y87.063 E6.10756
G1 X128.713 Y87.491 E6.23414
G1 X133.713 Y88.991 E6.45858
G1 X136.292 Y90.180 E6.58072
G1 X138.441 Y92.039 E6.70285
G1 X139.989 Y94.420 E6.82498
G1 X140.816 Y97.138 E6.94712
G1 X140.937 Y98.700 E7.01447
G1 X140.937 Y111.300 E7.55621
G1 X140.539 Y114.113 E7.67835
G1 X139.376 Y116.704 E7.80048
G1 X137.539 Y118.872 E7.92262
G1 X135.174 Y120.444 E8.04475
G1 X133.713 Y121.009 E8.11211
G1 X128.713 Y122.509 E8.33655
G1 X125.800 Y122.937 E8.46312
G1 X123.700 Y122.937 E8.55341
G1 X123.060 Y122.916 E8.58096
G1 X83.560 Y120.416 E10.28267
G1 X80.778 Y119.842 E10.40481
G1 X78.265 Y118.517 E10.52694
G1 X76.218 Y116.548 E10.64908
G1 X74.798 Y114.088 E10.77121
G1 X74.063 Y110.300 E10.93709
G1 X74.063 Y99.700 E11.39284
G1 X74.461 Y96.887 E11.51498
G1 X75.624 Y94.296 E11.63711
G1 X77.422 Y92.174 E11.75667
G1 X77.967 Y92.373 F9000.000
G1 F1800
G1 X80.310 Y90.902 E11.87563
G1 X83.592 Y90.100 E12.02090
G1 X123.092 Y87.600 E13.72261
G1 X123.700 Y87.580 E13.74875
G1 X125.800 Y87.580 E13.83904
G1 X128.564 Y87.986 E13.95916
G1 X133.564 Y89.486 E14.18360
G1 X136.072 Y90.654 E14.30256
G1 X138.145 Y92.488 E14.42153
G1 X139.609 Y94.835 E14.54049
G1 X140.420 Y98.700 E14.71027
G1 X140.420 Y111.300 E15.25202
G1 X140.022 Y114.038 E15.37098
G1 X138.861 Y116.550 E15.48994
G1 X137.033 Y118.627 E15.60890
G1 X133.564 Y120.514 E15.77869
G1 X128.564 Y122.014 E16.00313
G1 X125.800 Y122.420 E16.12325
G1 X123.700 Y122.420 E16.21354
G1 X123.092 Y122.400 E16.23968
G1 X83.592 Y119.900 E17.94139
G1 X80.885 Y119.330 E18.06036
G1 X78.452 Y118.013 E18.17932
G1 X76.494 Y116.058 E18.29828
G1 X75.174 Y113.626 E18.41724
G1 X74.580 Y110.300 E18.56251
G1 X74.580 Y99.700 E19.01826
G1 X74.978 Y96.962 E19.13723
G1 X76.139 Y94.450 E19.25619
G1 X77.927 Y92.418 E19.37257
G1 X78.472 Y92.626 F9000.000
G1 F1800
G1 X80.791 Y91.260 E19.48828
G1 X83.625 Y90.616 E19.61324
G1 X123.125 Y88.116 E21.31495
G1 X123.700 Y88.098 E21.33968
G1 X125.800 Y88.098 E21.42997
G1 X128.416 Y88.481 E21.54364
G1 X133.416 Y89.981 E21.76808
G1 X135.851 Y91.127 E21.88378
G1 X137.844 Y92.935 E21.99949
G1 X139.222 Y95.247 E22.11519
G1 X139.902 Y98.700 E22.26653
G1 X139.902 Y111.300 E22.80827
G1 X139.505 Y113.962 E22.92398
G1 X138.346 Y116.390 E23.03968
G1 X136.528 Y118.374 E23.15539
G1 X133.416 Y120.019 E23.30672
G1 X128.416 Y121.519 E23.53117
G1 X125.800 Y121.902 E23.64483
G1 X123.700 Y121.902 E23.73512
G1 X123.125 Y121.884 E23.75985
G1 X83.625 Y119.384 E25.46157
G1 X80.994 Y118.819 E25.57727
G1 X78.643 Y117.509 E25.69297
G1 X76.778 Y115.570 E25.80868
G1 X75.562 Y113.169 E25.92438
G1 X75.098 Y110.300 E26.04934
G1 X75.098 Y99.700 E26.50509
G1 X75.495 Y97.038 E26.62080
G1 X76.654 Y94.610 E26.73650
G1 X78.432 Y92.670 E26.84963
G1 X78.976 Y92.887 F9000.000
G1 F1800
G1 X81.268 Y91.631 E26.96198
G1 X83.658 Y91.132 E27.06696
G1 X123.158 Y88.632 E28.76868
G1 X123.700 Y88.615 E28.79201
G1 X125.800 Y88.615 E28.88230
G1 X128.267 Y88.977 E28.98950
G1 X133.267 Y90.477 E29.21394
G1 X135.626 Y91.600 E29.32629
G1 X137.539 Y93.380 E29.43865
G1 X138.827 Y95.654 E29.55100
G1 X139.385 Y98.700 E29.68414
G1 X139.385 Y111.300 E30.22588
G1 X138.988 Y113.883 E30.33823
G1 X137.832 Y116.226 E30.45059
G1 X136.024 Y118.113 E30.56294
G1 X133.267 Y119.523 E30.69608
G1 X128.267 Y121.023 E30.92052
G1 X125.800 Y121.385 E31.02773
G1 X123.700 Y121.385 E31.11802
G1 X123.158 Y121.368 E31.14135
G1 X83.658 Y118.868 E32.84306
G1 X81.105 Y118.308 E32.95541
G1 X78.840 Y117.006 E33.06776
G1 X77.070 Y115.083 E33.18012
G1 X75.962 Y112.717 E33.29247
G1 X75.615 Y110.300 E33.39745
G1 X75.615 Y99.700 E33.85320
G1 X76.012 Y97.117 E33.96555
G1 X77.168 Y94.774 E34.07790
G1 X78.935 Y92.930 E34.18768
G1 X79.478 Y93.158 F9000.000
G1 F1800
G1 X81.739 Y92.016 E34.29657
G1 X83.690 Y91.648 E34.38195
G1 X123.190 Y89.148 E36.08366
G1 X123.700 Y89.132 E36.10559
G1 X125.800 Y89.132 E36.19588
G1 X128.118 Y89.472 E36.29662
G1 X133.118 Y90.972 E36.52107
G1 X135.400 Y92.071 E36.62996
G1 X137.228 Y93.824 E36.73886
G1 X138.423 Y96.057 E36.84775
G1 X138.868 Y98.700 E36.96298
G1 X138.868 Y111.300 E37.50472
G1 X138.471 Y113.801 E37.61361
G1 X137.317 Y116.056 E37.72251
G1 X135.522 Y117.842 E37.83140
G1 X133.118 Y119.028 E37.94663
G1 X128.118 Y120.528 E38.17107
G1 X125.800 Y120.868 E38.27182
G1 X123.700 Y120.868 E38.36211
G1 X123.190 Y120.852 E38.38403
G1 X83.690 Y118.352 E40.08575
G1 X81.219 Y117.797 E40.19464
G1 X79.042 Y116.504 E40.30354
G1 X77.372 Y114.599 E40.41243
G1 X76.376 Y112.271 E40.52133
G1 X76.132 Y110.300 E40.60671
G1 X76.132 Y99.700 E41.06246
G1 X76.529 Y97.199 E41.17135
G1 X77.683 Y94.944 E41.28025
G1 X79.436 Y93.200 E41.38656
G1 X79.978 Y93.439 F9000.000
G1 F1800
G1 X82.205 Y92.417 E41.49189
G1 X83.723 Y92.164 E41.55807
G1 X123.223 Y89.664 E43.25978
G1 X125.800 Y89.649 E43.37058
G1 X127.970 Y89.967 E43.46487
G1 X132.970 Y91.467 E43.68932
G1 X135.171 Y92.542 E43.79464
G1 X136.912 Y94.266 E43.89997
G1 X138.010 Y96.456 E44.00529
G1 X138.351 Y98.700 E44.10290
G1 X138.351 Y111.300 E44.64464
G1 X137.954 Y113.717 E44.74997
G1 X136.804 Y115.880 E44.85529
G1 X135.022 Y117.561 E44.96062
G1 X132.970 Y118.533 E45.05823
G1 X127.970 Y120.033 E45.28267
G1 X125.800 Y120.351 E45.37697
G1 X123.223 Y120.336 E45.48777
G1 X83.723 Y117.836 E47.18948
G1 X81.336 Y117.287 E47.29480
G1 X79.250 Y116.002 E47.40013
G1 X77.685 Y114.118 E47.50546
G1 X76.806 Y111.831 E47.61078
G1 X76.649 Y110.300 E47.67696
G1 X76.649 Y99.700 E48.13271
G1 X77.046 Y97.283 E48.23804
G1 X78.196 Y95.120 E48.34336
G1 X79.935 Y93.480 E48.44611
G1 X80.476 Y93.732 F9000.000
G1 F1800
G1 X83.756 Y92.680 E48.59419
G1 X123.256 Y90.180 E50.29591
G1 X125.800 Y90.166 E50.40530
G1 X127.821 Y90.462 E50.49314
G1 X132.821 Y91.962 E50.71758
G1 X134.939 Y93.012 E50.81921
G1 X136.589 Y94.705 E50.92084
G1 X137.586 Y96.848 E51.02247
G1 X137.834 Y98.700 E51.10281
G1 X137.834 Y111.300 E51.64455
G1 X137.437 Y113.630 E51.74618
G1 X136.290 Y115.697 E51.84781
G1 X134.524 Y117.268 E51.94944
G1 X132.821 Y118.038 E52.02978
G1 X127.821 Y119.538 E52.25422
G1 X125.800 Y119.834 E52.34205
G1 X123.256 Y119.820 E52.45145
G1 X83.756 Y117.320 E54.15316
G1 X81.455 Y116.777 E54.25479
G1 X79.465 Y115.502 E54.35642
G1 X78.009 Y113.639 E54.45805
G1 X77.166 Y110.300 E54.60614
G1 X77.166 Y99.700 E55.06189
G1 X77.563 Y97.370 E55.16352
G1 X78.710 Y95.303 E55.26515
G1 X80.431 Y93.772 E55.36420
G1 X80.971 Y94.039 F9000.000
G1 F1800
G1 X83.788 Y93.196 E55.49064
G1 X123.288 Y90.696 E57.19235
G1 X123.700 Y90.683 E57.21006
G1 X125.800 Y90.683 E57.30035
G1 X127.673 Y90.958 E57.38173
G1 X132.673 Y92.458 E57.60617
G1 X134.704 Y93.482 E57.70397
G1 X136.259 Y95.141 E57.80176
G1 X137.150 Y97.234 E57.89956
G1 X137.317 Y98.700 E57.96300
G1 X137.317 Y111.300 E58.50474
G1 X136.920 Y113.540 E58.60254
G1 X135.778 Y115.507 E58.70033
G1 X134.029 Y116.961 E58.79813
G1 X132.673 Y117.542 E58.86157
G1 X127.673 Y119.042 E59.08602
G1 X125.800 Y119.317 E59.16739
G1 X123.288 Y119.304 E59.27538
G1 X83.788 Y116.804 E60.97710
G1 X81.578 Y116.266 E61.07489
G1 X79.687 Y115.002 E61.17269
G1 X78.346 Y113.165 E61.27049
G1 X77.683 Y110.300 E61.39692
G1 X77.683 Y99.700 E61.85267
G1 X78.080 Y97.460 E61.95047
G1 X79.222 Y95.493 E62.04827
G1 X80.925 Y94.077 E62.14348
G1 E58.14348 F2400.00000
G92 E0
G1 X109.394 Y108.606 F9000.000
G1 E4.00000 F2400.00000
G1 F1800
G1 X102.606 Y108.606 E4.29187
G1 X102.606 Y109.106 E4.31336
G1 X85.394 Y109.106 E5.05339
G1 X85.394 Y100.894 E5.40645
G1 X102.606 Y100.894 E6.14647
G1 X102.606 Y101.394 E6.16797
G1 X109.394 Y101.394 E6.45984
G1 X109.394 Y99.894 E6.52433
G1 X129.606 Y99.894 E7.39334
G1 X129.606 Y110.106 E7.83239
G1 X109.394 Y110.106 E8.70140
G1 X109.394 Y108.666 E8.76331
G1 X108.877 Y109.123 F9000.000
G1 F1800
G1 X103.123 Y109.123 E9.01072
G1 X103.123 Y109.623 E9.03221
G1 X84.877 Y109.623 E9.81670
G1 X84.877 Y100.377 E10.21423
G1 X103.123 Y100.377 E10.99872
G1 X103.123 Y100.877 E11.02021
G1 X108.877 Y100.877 E11.26761
G1 X108.877 Y99.377 E11.33211
G1 X124.377 Y99.377 E11.99854
G1 X124.377 Y97.877 E12.06303
G1 X125.123 Y97.877 E12.09510
G1 X125.123 Y99.377 E12.15959
G1 X130.123 Y99.377 E12.37457
G1 X130.123 Y110.623 E12.85809
G1 X125.123 Y110.623 E13.07306
G1 X125.123 Y112.123 E13.13756
G1 X124.377 Y112.123 E13.16962
G1 X124.377 Y110.623 E13.23412
G1 X108.877 Y110.623 E13.90054
G1 X108.877 Y109.183 E13.96246
G1 X108.420 Y109.580 F9000.000
G1 F1800
G1 X103.580 Y109.580 E14.12226
G1 X103.580 Y110.080 E14.13877
G1 X84.420 Y110.080 E14.77138
G1 X84.420 Y99.920 E15.10684
G1 X103.580 Y99.920 E15.73945
G1 X103.580 Y100.420 E15.75596
G1 X108.420 Y100.420 E15.91576
G1 X108.420 Y98.920 E15.96529
G1 X123.920 Y98.920 E16.47706
G1 X123.920 Y97.420 E16.52658
G1 X125.580 Y97.420 E16.58139
G1 X125.580 Y98.920 E16.63092
G1 X130.580 Y98.920 E16.79600
G1 X130.580 Y111.080 E17.19749
G1 X125.580 Y111.080 E17.36258
G1 X125.580 Y112.580 E17.41211
G1 X123.920 Y112.580 E17.46691
G1 X123.920 Y111.080 E17.51644
G1 X108.420 Y111.080 E18.02821
G1 X108.420 Y109.640 E18.07575
G1 X108.231 Y109.227 F9000.000
G1 E14.07575 F2400.00000
G92 E0
G1 X124.750 Y110.364 F9000.000
G1 E4.00000 F2400.00000
G1 F1800
G1 X124.750 Y111.864 E4.02318
G1 E0.02318 F2400.00000
G92 E0
G1 X129.034 Y109.644 F9000.000
G1 E4.00000 F2400.00000
G1 F1800
G1 X129.144 Y109.534 E4.00670
G1 X129.144 Y108.800 E4.03835
G1 X128.300 Y109.644 E4.08980
G1 X127.567 Y109.644 E4.12145
G1 X129.144 Y108.067 E4.21765
G1 X129.144 Y107.333 E4.24930
G1 X126.833 Y109.644 E4.39026
G1 X126.099 Y109.644 E4.42191
G1 X129.144 Y106.599 E4.60762
G1 X129.144 Y105.866 E4.63927
G1 X125.366 Y109.644 E4.86974
G1 X124.632 Y109.644 E4.90138
G1 X129.144 Y105.132 E5.17660
G1 X129.144 Y104.398 E5.20825
G1 X123.898 Y109.644 E5.52823
G1 X123.165 Y109.644 E5.55987
G1 X129.144 Y103.665 E5.92460
G1 X129.144 Y102.931 E5.95625
G1 X122.431 Y109.644 E6.36573
G1 X121.697 Y109.644 E6.39738
G1 X129.144 Y102.197 E6.85162
G1 X129.144 Y101.464 E6.88326
G1 X120.964 Y109.644 E7.38226
G1 X120.230 Y109.644 E7.41390
G1 X129.144 Y100.730 E7.95765
G1 X129.144 Y100.356 E7.97377
G1 X128.784 Y100.356 E7.98929
G1 X119.496 Y109.644 E8.55584
G1 X118.763 Y109.644 E8.58748
G1 X128.050 Y100.356 E9.15403
G1 X127.316 Y100.356 E9.18568
G1 X118.029 Y109.644 E9.75222
G1 X117.296 Y109.644 E9.78387
G1 X126.583 Y100.356 E10.35041
G1 X125.849 Y100.356 E10.38206
G1 X116.562 Y109.644 E10.94860
G1 X115.828 Y109.644 E10.98025
G1 X125.116 Y100.356 E11.54679
G1 X124.382 Y100.356 E11.57844
G1 X115.095 Y109.644 E12.14499
G1 X114.361 Y109.644 E12.17663
G1 X123.648 Y100.356 E12.74318
G1 X122.915 Y100.356 E12.77482
G1 X113.627 Y109.644 E13.34137
G1 X112.894 Y109.644 E13.37301
G1 X122.181 Y100.356 E13.93956
G1 X121.447 Y100.356 E13.97121
G1 X112.160 Y109.644 E14.53775
G1 X111.426 Y109.644 E14.56940
G1 X120.714 Y100.356 E15.13594
G1 X119.980 Y100.356 E15.16759
G1 X110.693 Y109.644 E15.73413
G1 X109.959 Y109.644 E15.76578
G1 X119.246 Y100.356 E16.33233
G1 X118.513 Y100.356 E16.36397
G1 X109.856 Y109.013 E16.89203
G1 X109.856 Y108.279 E16.92368
G1 X117.779 Y100.356 E17.40699
G1 X117.045 Y100.356 E17.43863
G1 X109.258 Y108.144 E17.91367
G1 X108.525 Y108.144 E17.94532
G1 X116.312 Y100.356 E18.42036
G1 X115.578 Y100.356 E18.45201
G1 X107.791 Y108.144 E18.92705
G1 X107.057 Y108.144 E18.95869
G1 X114.845 Y100.356 E19.43374
G1 X114.111 Y100.356 E19.46538
G1 X106.324 Y108.144 E19.94042
G1 X105.590 Y108.144 E19.97207
G1 X113.377 Y100.356 E20.44711
G1 X112.644 Y100.356 E20.47876
G1 X104.856 Y108.144 E20.95380
G1 X104.123 Y108.144 E20.98544
G1 X111.910 Y100.356 E21.46049
G1 X111.176 Y100.356 E21.49213
G1 X109.856 Y101.676 E21.57265
G1 X109.856 Y100.943 E21.60430
G1 X110.443 Y100.356 E21.64007
G1 E17.64007 F2400.00000
G92 E0
G1 X103.389 Y108.144 F9000.000
G1 E4.00000 F2400.00000
G1 F1800
G1 X109.676 Y101.856 E4.38354
G1 X108.943 Y101.856 E4.41518
G1 X102.655 Y108.144 E4.79872
G1 X102.034 Y108.144 E4.82553
G1 X102.034 Y108.644 E4.84710
G1 X101.422 Y108.644 E4.87350
G1 X108.209 Y101.856 E5.28754
G1 X107.475 Y101.856 E5.31919
G1 X100.688 Y108.644 E5.73323
G1 X99.955 Y108.644 E5.76487
G1 X106.742 Y101.856 E6.17891
G1 X106.008 Y101.856 E6.21056
G1 X99.221 Y108.644 E6.62460
G1 X98.487 Y108.644 E6.65624
G1 X105.275 Y101.856 E7.07028
G1 X104.541 Y101.856 E7.10193
G1 X97.754 Y108.644 E7.51597
G1 X97.020 Y108.644 E7.54761
G1 X103.807 Y101.856 E7.96165
G1 X103.074 Y101.856 E7.99330
G1 X96.286 Y108.644 E8.40734
G1 X95.553 Y108.644 E8.43898
G1 X102.340 Y101.856 E8.85302
G1 X102.144 Y101.856 E8.86149
G1 X102.144 Y101.356 E8.88306
G1 X102.106 Y101.356 E8.88467
G1 X94.819 Y108.644 E9.32921
G1 X94.085 Y108.644 E9.36086
G1 X101.373 Y101.356 E9.80540
G1 X100.639 Y101.356 E9.83704
G1 X93.352 Y108.644 E10.28158
G1 X92.618 Y108.644 E10.31323
G1 X99.905 Y101.356 E10.75777
G1 X99.172 Y101.356 E10.78941
G1 X91.885 Y108.644 E11.23395
G1 X91.151 Y108.644 E11.26560
G1 X98.438 Y101.356 E11.71014
G1 X97.704 Y101.356 E11.74179
G1 X90.417 Y108.644 E12.18633
G1 X89.684 Y108.644 E12.21797
G1 X96.971 Y101.356 E12.66251
G1 X96.237 Y101.356 E12.69416
G1 X88.950 Y108.644 E13.13870
G1 X88.216 Y108.644 E13.17035
G1 X95.504 Y101.356 E13.61489
G1 X94.770 Y101.356 E13.64653
G1 X87.483 Y108.644 E14.09107
G1 X86.749 Y108.644 E14.12272
G1 X94.036 Y101.356 E14.56726
G1 X93.303 Y101.356 E14.59890
G1 X86.015 Y108.644 E15.04345
G1 X85.856 Y108.644 E15.05030
G1 X85.856 Y108.069 E15.07509
G1 X92.569 Y101.356 E15.48458
G1 X91.835 Y101.356 E15.51622
G1 X85.856 Y107.335 E15.88096
G1 X85.856 Y106.602 E15.91260
G1 X91.102 Y101.356 E16.23258
G1 X90.368 Y101.356 E16.26423
G1 X85.856 Y105.868 E16.53945
G1 X85.856 Y105.134 E16.57110
G1 X89.634 Y101.356 E16.80157
G1 X88.901 Y101.356 E16.83321
G1 X85.856 Y104.401 E17.01893
G1 X85.856 Y103.667 E17.05058
G1 X88.167 Y101.356 E17.19154
G1 X87.434 Y101.356 E17.22319
G1 X85.856 Y102.934 E17.31940
G1 X85.856 Y102.200 E17.35104
G1 X86.700 Y101.356 E17.40250
G1 X85.966 Y101.356 E17.43414
G1 X85.857 Y101.466 E17.44083
G1 E13.44083 F2400.00000
G92 E0
G1 X124.750 Y99.636 F9000.000
G1 E4.00000 F2400.00000
G1 F1800
G1 X124.750 Y98.136 E4.02318
M106 S191.25
M104 S220 ; set temperature
G1 Z0.400 F9000.000
G1 X109.394 Y108.606 F9000.000
G1 F2100
G1 X102.606 Y108.606 E4.31505
G1 X102.606 Y109.106 E4.33654
G1 X85.394 Y109.106 E5.07657
G1 X85.394 Y100.894 E5.42963
G1 X102.606 Y100.894 E6.16965
G1 X102.606 Y101.394 E6.19115
G1 X109.394 Y101.394 E6.48302
G1 X109.394 Y99.894 E6.54751
G1 X129.606 Y99.894 E7.41652
G1 X129.606 Y110.106 E7.85557
G1 X109.394 Y110.106 E8.72458
G1 X109.394 Y108.666 E8.78649
G1 X108.877 Y109.123 F9000.000
G1 F2100
G1 X103.123 Y109.123 E9.03390
G1 X103.123 Y109.623 E9.05539
G1 X84.877 Y109.623 E9.83988
G1 X84.877 Y100.377 E10.23741
G1 X103.123 Y100.377 E11.02189
G1 X103.123 Y100.877 E11.04339
G1 X108.877 Y100.877 E11.29079
G1 X108.877 Y99.377 E11.35529
G1 X124.377 Y99.377 E12.02172
G1 X124.377 Y97.877 E12.08621
G1 X125.123 Y97.877 E12.11828
G1 X125.123 Y99.377 E12.18277
G1 X130.123 Y99.377 E12.39775
G1 X130.123 Y110.623 E12.88126
G1 X125.123 Y110.623 E13.09624
G1 X125.123 Y112.123 E13.16073
G1 X124.377 Y112.123 E13.19280
G1 X124.377 Y110.623 E13.25730
G1 X108.877 Y110.623 E13.92372
