; generated by Slic3r 1.3.0-dev on 2018-10-15 at 18:14:01

; external perimeters extrusion width = 0.44mm (2.38mm^3/s)
; perimeters extrusion width = 0.56mm (3.62mm^3/s)
; infill extrusion width = 0.50mm (5.48mm^3/s)
; solid infill extrusion width = 0.56mm (6.20mm^3/s)
; top infill extrusion width = 0.56mm (5.17mm^3/s)

M107
M104 S210 ; set temperature
; -- START GCODE --
	G90                     ;set to absolute positioning
G28                     ;move to Home
G92 E0                  ;zero the extruded length
G1 F7200                ;set feedrate to travel_speed value
; -- end of START GCODE --
; Filament gcode

M109 S210 ; set temperature and wait for it to be reached
G21 ; set units to millimeters
G90 ; use absolute coordinates
M82 ; use absolute distances for extrusion
G92 E0
G1 Z0.200 F9000.000
G1 E-4.00000 F2400.00000
G92 E0
G1 X106.666 Y70.949 F9000.000
G1 E4.00000 F2400.00000
G1 F1800
G1 X107.236 Y70.333 E4.03607
G1 X108.166 Y69.414 E4.09230
G1 X108.551 Y69.061 E4.11473
G1 X109.524 Y68.233 E4.16970
G1 X110.565 Y67.440 E4.22594
G1 X111.647 Y66.706 E4.28216
G1 X112.767 Y66.031 E4.33840
G1 X113.483 Y65.641 E4.37345
G1 X114.658 Y65.067 E4.42968
G1 X115.136 Y64.856 E4.45213
G1 X116.324 Y64.383 E4.50711
G1 X117.563 Y63.965 E4.56334
G1 X118.823 Y63.615 E4.61957
G1 X119.617 Y63.431 E4.65461
G1 X120.129 Y63.329 E4.67706
G1 X121.391 Y63.122 E4.73203
G1 X122.691 Y62.981 E4.78827
G1 X123.505 Y62.929 E4.82331
G1 X124.812 Y62.902 E4.87954
G1 X125.334 Y62.912 E4.90198
G1 X126.611 Y62.982 E4.95697
G1 X127.912 Y63.125 E5.01323
G1 X129.201 Y63.337 E5.06942
G1 X129.999 Y63.505 E5.10447
G1 X130.507 Y63.627 E5.12693
G1 X131.739 Y63.970 E5.18191
G1 X132.978 Y64.389 E5.23814
G1 X133.737 Y64.684 E5.27316
G1 X134.934 Y65.210 E5.32939
G1 X135.404 Y65.439 E5.35185
G1 X136.533 Y66.040 E5.40684
G1 X137.653 Y66.716 E5.46308
G1 X138.734 Y67.451 E5.51931
G1 X139.387 Y67.938 E5.55432
G1 X139.796 Y68.263 E5.57678
G1 X140.769 Y69.093 E5.63177
G1 X141.737 Y70.015 E5.68924
G1 X142.614 Y70.945 E5.74422
G1 X143.147 Y71.562 E5.77924
G1 X143.459 Y71.944 E5.80048
G1 X144.248 Y72.987 E5.85670
G1 X144.980 Y74.071 E5.91293
G1 X145.405 Y74.765 E5.94794
G1 X146.455 Y77.243 E6.06364
G1 X146.745 Y79.519 E6.16229
G1 X146.745 Y94.486 E6.80578
G1 X146.347 Y97.147 E6.92149
G1 X145.405 Y99.239 E7.02013
G1 X144.980 Y99.933 E7.05514
G1 X144.265 Y100.993 E7.11011
G1 X143.957 Y101.416 E7.13259
G1 X143.147 Y102.443 E7.18883
G1 X142.422 Y103.275 E7.23630
G1 X109.279 Y139.271 E9.34003
G1 X108.575 Y140.006 E9.38381
G1 X107.627 Y140.907 E9.44005
G1 X106.654 Y141.737 E9.49500
G1 X106.244 Y142.062 E9.51749
G1 X105.189 Y142.833 E9.57372
G1 X104.510 Y143.285 E9.60875
G1 X103.416 Y143.945 E9.66370
G1 X102.236 Y144.575 E9.72121
G1 X101.050 Y145.125 E9.77743
G1 X99.836 Y145.611 E9.83366
G1 X98.597 Y146.030 E9.88989
G1 X97.337 Y146.381 E9.94614
G1 X96.089 Y146.657 E10.00108
G1 X95.574 Y146.751 E10.02357
G1 X94.280 Y146.937 E10.07980
G1 X92.977 Y147.053 E10.13603
G1 X91.670 Y147.098 E10.19226
G1 X90.856 Y147.090 E10.22728
G1 X89.579 Y147.021 E10.28224
G1 X88.249 Y146.878 E10.33975
G1 X86.958 Y146.666 E10.39599
G1 X85.681 Y146.385 E10.45221
G1 X84.421 Y146.035 E10.50846
G1 X83.182 Y145.617 E10.56468
G1 X81.967 Y145.132 E10.62093
G1 X80.780 Y144.583 E10.67717
G1 X79.651 Y143.983 E10.73213
G1 X79.199 Y143.722 E10.75457
G1 X78.093 Y143.025 E10.81080
G1 X77.026 Y142.268 E10.86703
G1 X76.002 Y141.454 E10.92326
G1 X75.387 Y140.920 E10.95831
G1 X74.438 Y140.019 E11.01456
G1 X73.540 Y139.068 E11.07078
G1 X72.694 Y138.070 E11.12702
G1 X71.904 Y137.028 E11.18326
G1 X71.172 Y135.944 E11.23950
G1 X70.441 Y134.712 E11.30109
G1 X69.890 Y133.667 E11.35188
G1 X69.255 Y132.277 E11.41759
G1 X68.832 Y131.186 E11.46789
G1 X68.255 Y127.998 E11.60720
G1 X68.255 Y117.998 E12.03716
G1 X68.832 Y114.809 E12.17646
G1 X69.255 Y113.719 E12.22676
G1 X69.709 Y112.700 E12.27472
G1 X70.225 Y111.677 E12.32398
G1 X70.889 Y110.508 E12.38178
G1 X71.172 Y110.051 E12.40488
G1 X71.904 Y108.968 E12.46111
G1 X72.695 Y107.925 E12.51736
G1 X73.215 Y107.298 E12.55241
G1 X106.625 Y70.993 E14.67373
G1 X107.046 Y71.299 F9000.000
G1 F1800
G1 X107.615 Y70.685 E14.70974
G1 X108.526 Y69.785 E14.76476
G1 X108.891 Y69.451 E14.78604
G1 X109.842 Y68.641 E14.83975
G1 X110.860 Y67.865 E14.89479
G1 X111.918 Y67.146 E14.94981
G1 X113.014 Y66.485 E15.00483
G1 X113.730 Y66.095 E15.03989
G1 X114.881 Y65.534 E15.09491
G1 X115.333 Y65.334 E15.11619
G1 X116.494 Y64.871 E15.16993
G1 X117.707 Y64.462 E15.22495
G1 X118.940 Y64.119 E15.27997
G1 X119.734 Y63.935 E15.31501
G1 X120.218 Y63.838 E15.33626
G1 X121.452 Y63.636 E15.39002
G1 X122.725 Y63.497 E15.44506
G1 X123.538 Y63.445 E15.48009
G1 X124.817 Y63.419 E15.53512
G1 X125.312 Y63.429 E15.55640
G1 X126.560 Y63.497 E15.61014
G1 X127.833 Y63.636 E15.66519
G1 X129.095 Y63.843 E15.72018
G1 X129.893 Y64.011 E15.75522
G1 X130.374 Y64.126 E15.77650
G1 X131.578 Y64.462 E15.83025
G1 X132.791 Y64.871 E15.88527
G1 X133.550 Y65.166 E15.92029
G1 X134.721 Y65.681 E15.97532
G1 X135.167 Y65.898 E15.99660
G1 X136.270 Y66.485 E16.05036
G1 X137.366 Y67.146 E16.10539
G1 X138.425 Y67.866 E16.16042
G1 X139.077 Y68.353 E16.19542
G1 X139.465 Y68.660 E16.21668
G1 X140.417 Y69.471 E16.27046
G1 X141.365 Y70.374 E16.32673
G1 X142.223 Y71.283 E16.38050
G1 X142.755 Y71.900 E16.41552
G1 X143.050 Y72.260 E16.43555
G1 X143.823 Y73.280 E16.49057
G1 X144.539 Y74.341 E16.54559
G1 X144.964 Y75.035 E16.58060
G1 X145.973 Y77.446 E16.69295
G1 X146.228 Y79.519 E16.78276
G1 X146.228 Y94.486 E17.42625
G1 X145.830 Y97.068 E17.53860
G1 X144.964 Y98.969 E17.62841
G1 X144.539 Y99.663 E17.66342
G1 X143.839 Y100.700 E17.71718
G1 X143.548 Y101.100 E17.73846
G1 X142.755 Y102.105 E17.79349
G1 X142.041 Y102.925 E17.84025
G1 X108.899 Y138.921 E19.94399
G1 X107.870 Y139.974 E20.00727
G1 X107.275 Y140.529 E20.04229
G1 X106.300 Y141.359 E20.09731
G1 X105.283 Y142.134 E20.15232
G1 X104.224 Y142.854 E20.20737
G1 X103.128 Y143.515 E20.26239
G1 X102.024 Y144.102 E20.31614
G1 X101.579 Y144.319 E20.33742
G1 X100.408 Y144.834 E20.39245
G1 X99.649 Y145.129 E20.42746
G1 X98.464 Y145.529 E20.48122
G1 X97.203 Y145.881 E20.53753
G1 X95.954 Y146.157 E20.59253
G1 X94.690 Y146.364 E20.64758
G1 X93.418 Y146.503 E20.70258
G1 X92.140 Y146.572 E20.75762
G1 X90.890 Y146.573 E20.81138
G1 X90.396 Y146.555 E20.83265
G1 X89.119 Y146.461 E20.88767
G1 X88.310 Y146.364 E20.92270
G1 X87.076 Y146.162 E20.97648
G1 X85.798 Y145.881 E21.03275
G1 X84.565 Y145.538 E21.08778
G1 X83.352 Y145.129 E21.14280
G1 X82.163 Y144.654 E21.19784
G1 X81.002 Y144.116 E21.25287
G1 X79.898 Y143.529 E21.30663
G1 X79.470 Y143.282 E21.32787
G1 X78.388 Y142.600 E21.38289
G1 X77.343 Y141.860 E21.43792
G1 X76.341 Y141.064 E21.49294
G1 X75.726 Y140.529 E21.52799
G1 X74.798 Y139.647 E21.58303
G1 X73.919 Y138.717 E21.63805
G1 X73.092 Y137.740 E21.69308
G1 X72.320 Y136.720 E21.74811
G1 X71.603 Y135.659 E21.80314
G1 X70.888 Y134.453 E21.86342
G1 X70.350 Y133.431 E21.91311
G1 X69.733 Y132.078 E21.97702
G1 X69.316 Y131.005 E22.02651
G1 X68.772 Y127.998 E22.15791
G1 X68.772 Y117.998 E22.58786
G1 X69.316 Y114.991 E22.71926
G1 X69.733 Y113.917 E22.76875
G1 X70.179 Y112.915 E22.81591
G1 X70.685 Y111.914 E22.86416
G1 X71.337 Y110.767 E22.92086
G1 X71.604 Y110.336 E22.94265
G1 X72.320 Y109.276 E22.99768
G1 X73.093 Y108.255 E23.05271
G1 X73.613 Y107.628 E23.08777
G1 X107.006 Y71.343 E25.20794
G1 X107.427 Y71.649 F9000.000
G1 F1800
G1 X107.995 Y71.036 E25.24388
G1 X108.885 Y70.156 E25.29770
G1 X110.160 Y69.049 E25.37028
G1 X111.155 Y68.290 E25.42410
G1 X112.190 Y67.586 E25.47791
G1 X113.261 Y66.939 E25.53174
G1 X113.977 Y66.549 E25.56679
G1 X115.103 Y66.001 E25.62060
G1 X115.529 Y65.813 E25.64064
G1 X116.665 Y65.359 E25.69321
G1 X117.850 Y64.958 E25.74703
G1 X119.056 Y64.622 E25.80084
G1 X119.850 Y64.439 E25.83588
G1 X121.513 Y64.149 E25.90847
G1 X122.758 Y64.013 E25.96230
G1 X124.007 Y63.945 E26.01610
G1 X125.259 Y63.944 E26.06993
G1 X126.073 Y63.980 E26.10497
G1 X127.320 Y64.092 E26.15878
G1 X127.783 Y64.151 E26.17885
G1 X128.989 Y64.349 E26.23139
G1 X130.212 Y64.618 E26.28522
G1 X131.418 Y64.953 E26.33904
G1 X132.192 Y65.206 E26.37406
G1 X133.363 Y65.648 E26.42788
G1 X133.793 Y65.829 E26.44795
G1 X134.902 Y66.343 E26.50050
G1 X136.008 Y66.930 E26.55432
G1 X137.080 Y67.576 E26.60815
G1 X137.758 Y68.028 E26.64315
G1 X139.111 Y69.038 E26.71577
G1 X140.086 Y69.869 E26.77085
G1 X140.972 Y70.711 E26.82340
G1 X141.537 Y71.298 E26.85842
G1 X142.641 Y72.577 E26.93106
G1 X143.414 Y73.598 E26.98612
G1 X144.098 Y74.611 E27.03868
G1 X144.523 Y75.305 E27.07369
G1 X145.490 Y77.646 E27.18258
G1 X145.710 Y79.519 E27.26365
G1 X145.710 Y94.486 E27.90715
G1 X145.313 Y96.987 E28.01604
G1 X144.523 Y98.699 E28.09712
G1 X143.859 Y99.760 E28.15093
G1 X143.397 Y100.430 E28.18594
G1 X142.641 Y101.428 E28.23975
G1 X141.661 Y102.575 E28.30462
G1 X108.519 Y138.571 E30.40836
G1 X107.518 Y139.595 E30.46994
G1 X106.922 Y140.151 E30.50496
G1 X105.969 Y140.962 E30.55877
G1 X104.973 Y141.720 E30.61258
G1 X103.938 Y142.424 E30.66642
G1 X102.866 Y143.070 E30.72023
G1 X101.366 Y143.848 E30.79285
G1 X100.221 Y144.352 E30.84666
G1 X99.462 Y144.647 E30.88168
G1 X98.304 Y145.037 E30.93423
G1 X97.069 Y145.382 E30.98933
G1 X95.847 Y145.651 E31.04313
G1 X94.611 Y145.853 E31.09697
G1 X93.367 Y145.988 E31.15077
G1 X92.117 Y146.056 E31.20460
G1 X90.429 Y146.039 E31.27720
G1 X89.180 Y145.947 E31.33102
G1 X88.371 Y145.851 E31.36605
G1 X87.166 Y145.653 E31.41859
G1 X85.914 Y145.378 E31.47368
G1 X84.708 Y145.042 E31.52751
G1 X83.522 Y144.641 E31.58132
G1 X82.360 Y144.176 E31.63516
G1 X81.224 Y143.649 E31.68898
G1 X80.146 Y143.076 E31.74149
G1 X79.742 Y142.842 E31.76157
G1 X78.682 Y142.175 E31.81539
G1 X77.661 Y141.451 E31.86920
G1 X76.680 Y140.674 E31.92302
G1 X76.065 Y140.139 E31.95807
G1 X75.158 Y139.276 E32.01190
G1 X74.299 Y138.366 E32.06571
G1 X73.490 Y137.410 E32.11953
G1 X72.735 Y136.412 E32.17336
G1 X72.035 Y135.374 E32.22719
G1 X71.336 Y134.194 E32.28615
G1 X70.809 Y133.194 E32.33475
G1 X70.210 Y131.880 E32.39684
G1 X69.801 Y130.824 E32.44553
G1 X69.290 Y127.998 E32.56902
G1 X69.290 Y117.998 E32.99897
G1 X69.801 Y115.172 E33.12245
G1 X70.210 Y114.116 E33.17114
G1 X70.649 Y113.131 E33.21750
G1 X71.145 Y112.150 E33.26474
G1 X71.784 Y111.026 E33.32034
G1 X72.035 Y110.621 E33.34082
G1 X72.735 Y109.584 E33.39464
G1 X73.491 Y108.585 E33.44847
G1 X74.011 Y107.958 E33.48352
G1 X107.386 Y71.694 E35.60255
G1 X107.807 Y72.000 F9000.000
G1 F1800
G1 X108.374 Y71.387 E35.63843
G1 X109.245 Y70.528 E35.69104
G1 X110.477 Y69.457 E35.76121
G1 X111.450 Y68.715 E35.81383
G1 X112.461 Y68.026 E35.86644
G1 X113.509 Y67.393 E35.91905
G1 X114.225 Y67.003 E35.95410
G1 X115.726 Y66.291 E36.02553
G1 X116.835 Y65.848 E36.07690
G1 X117.994 Y65.455 E36.12951
G1 X119.172 Y65.126 E36.18212
G1 X119.966 Y64.943 E36.21715
G1 X121.574 Y64.662 E36.28733
G1 X122.791 Y64.529 E36.33995
G1 X124.012 Y64.462 E36.39255
G1 X125.236 Y64.461 E36.44517
G1 X126.050 Y64.497 E36.48021
G1 X127.704 Y64.662 E36.55167
G1 X128.882 Y64.855 E36.60300
G1 X130.078 Y65.118 E36.65563
G1 X131.257 Y65.445 E36.70824
G1 X132.031 Y65.698 E36.74326
G1 X133.554 Y66.289 E36.81348
G1 X134.664 Y66.802 E36.86607
G1 X135.745 Y67.376 E36.91869
G1 X136.794 Y68.007 E36.97131
G1 X137.471 Y68.458 E37.00631
G1 X138.780 Y69.435 E37.07652
G1 X139.733 Y70.248 E37.13039
G1 X140.600 Y71.070 E37.18174
G1 X141.164 Y71.657 E37.21675
G1 X142.232 Y72.893 E37.28698
G1 X142.971 Y73.868 E37.33958
G1 X143.657 Y74.881 E37.39219
G1 X144.082 Y75.575 E37.42720
G1 X145.005 Y77.844 E37.53252
G1 X145.193 Y79.519 E37.60497
G1 X145.193 Y94.486 E38.24846
G1 X144.796 Y96.903 E38.35379
G1 X144.082 Y98.429 E38.42623
G1 X143.433 Y99.467 E38.47885
G1 X142.971 Y100.137 E38.51385
G1 X142.232 Y101.112 E38.56645
G1 X141.280 Y102.225 E38.62942
G1 X108.138 Y138.220 E40.73315
G1 X107.458 Y138.930 E40.77543
G1 X106.570 Y139.772 E40.82805
G1 X105.316 Y140.819 E40.89825
G1 X104.329 Y141.542 E40.95086
G1 X103.651 Y141.993 E40.98588
G1 X102.628 Y142.609 E41.03722
G1 X101.522 Y143.198 E41.09111
G1 X100.411 Y143.712 E41.14371
G1 X99.275 Y144.164 E41.19632
G1 X98.115 Y144.555 E41.24893
G1 X96.936 Y144.882 E41.30156
G1 X95.338 Y145.218 E41.37175
G1 X94.127 Y145.394 E41.42436
G1 X93.317 Y145.474 E41.45938
G1 X92.124 Y145.538 E41.51072
G1 X90.871 Y145.538 E41.56460
G1 X89.649 Y145.471 E41.61722
G1 X88.433 Y145.338 E41.66983
G1 X87.225 Y145.138 E41.72245
G1 X86.030 Y144.874 E41.77506
G1 X84.462 Y144.421 E41.84525
G1 X83.693 Y144.153 E41.88028
G1 X82.556 Y143.698 E41.93291
G1 X81.446 Y143.182 E41.98552
G1 X80.367 Y142.607 E42.03812
G1 X79.319 Y141.974 E42.09073
G1 X78.308 Y141.285 E42.14336
G1 X77.335 Y140.543 E42.19596
G1 X76.427 Y139.768 E42.24728
G1 X75.232 Y138.613 E42.31875
G1 X74.409 Y137.707 E42.37136
G1 X73.636 Y136.759 E42.42397
G1 X73.150 Y136.104 E42.45904
G1 X72.466 Y135.089 E42.51166
G1 X71.783 Y133.935 E42.56931
G1 X71.269 Y132.957 E42.61681
G1 X70.688 Y131.681 E42.67709
G1 X70.285 Y130.643 E42.72498
G1 X69.807 Y127.998 E42.84055
G1 X69.807 Y117.998 E43.27050
G1 X70.285 Y115.353 E43.38607
G1 X70.688 Y114.314 E43.43396
G1 X71.119 Y113.347 E43.47951
G1 X71.605 Y112.387 E43.52574
G1 X72.232 Y111.285 E43.58025
G1 X72.466 Y110.906 E43.59942
G1 X73.150 Y109.892 E43.65203
G1 X73.888 Y108.915 E43.70465
G1 X74.409 Y108.288 E43.73970
G1 X107.767 Y72.044 E45.85758
G1 X108.188 Y72.350 F9000.000
G1 F1800
G1 X108.754 Y71.738 E45.89340
G1 X109.605 Y70.899 E45.94481
G1 X110.795 Y69.865 E46.01257
G1 X111.745 Y69.139 E46.06398
G1 X112.733 Y68.466 E46.11538
G1 X113.756 Y67.847 E46.16679
G1 X114.472 Y67.458 E46.20183
G1 X115.922 Y66.769 E46.27086
G1 X117.005 Y66.336 E46.32102
G1 X118.137 Y65.952 E46.37242
G1 X119.289 Y65.630 E46.42382
G1 X120.083 Y65.447 E46.45886
G1 X121.636 Y65.176 E46.52663
G1 X122.824 Y65.045 E46.57804
G1 X124.018 Y64.979 E46.62943
G1 X125.213 Y64.977 E46.68084
G1 X126.027 Y65.013 E46.71588
G1 X127.597 Y65.169 E46.78368
G1 X128.776 Y65.361 E46.83506
G1 X129.944 Y65.617 E46.88648
G1 X131.097 Y65.936 E46.93789
G1 X131.871 Y66.189 E46.97290
G1 X133.341 Y66.760 E47.04071
G1 X134.426 Y67.261 E47.09210
G1 X135.482 Y67.821 E47.14351
G1 X136.507 Y68.437 E47.19492
G1 X137.185 Y68.889 E47.22993
G1 X138.448 Y69.832 E47.29772
G1 X139.381 Y70.626 E47.35038
G1 X140.227 Y71.429 E47.40053
G1 X140.792 Y72.015 E47.43554
G1 X141.823 Y73.209 E47.50336
G1 X142.546 Y74.161 E47.55475
G1 X143.008 Y74.831 E47.58976
G1 X143.641 Y75.846 E47.64116
G1 X144.519 Y78.040 E47.74279
G1 X144.676 Y79.519 E47.80673
G1 X144.676 Y94.486 E48.45023
G1 X144.279 Y96.816 E48.55186
G1 X143.641 Y98.159 E48.61580
G1 X143.008 Y99.173 E48.66720
G1 X142.546 Y99.843 E48.70221
G1 X141.823 Y100.795 E48.75361
G1 X140.900 Y101.875 E48.81465
G1 X107.758 Y137.870 E50.91839
G1 X106.813 Y138.839 E50.97656
G1 X106.217 Y139.394 E51.01158
G1 X105.306 Y140.168 E51.06297
G1 X104.355 Y140.891 E51.11437
G1 X103.365 Y141.563 E51.16580
G1 X102.340 Y142.179 E51.21720
G1 X100.941 Y142.905 E51.28499
G1 X99.847 Y143.388 E51.33640
G1 X99.088 Y143.682 E51.37141
G1 X97.982 Y144.054 E51.42156
G1 X96.802 Y144.383 E51.47423
G1 X95.634 Y144.639 E51.52562
G1 X94.454 Y144.831 E51.57705
G1 X92.885 Y144.987 E51.64483
G1 X91.690 Y145.029 E51.69623
G1 X90.876 Y145.021 E51.73124
G1 X89.712 Y144.957 E51.78139
G1 X88.494 Y144.824 E51.83407
G1 X87.314 Y144.629 E51.88547
G1 X86.147 Y144.370 E51.93688
G1 X84.632 Y143.932 E52.00466
G1 X83.863 Y143.664 E52.03968
G1 X82.753 Y143.219 E52.09111
G1 X81.669 Y142.715 E52.14252
G1 X80.614 Y142.153 E52.19391
G1 X79.591 Y141.534 E52.24531
G1 X78.602 Y140.861 E52.29674
G1 X77.653 Y140.135 E52.34813
G1 X76.766 Y139.378 E52.39825
G1 X75.612 Y138.262 E52.46730
G1 X74.807 Y137.377 E52.51871
G1 X74.052 Y136.451 E52.57011
G1 X73.566 Y135.796 E52.60518
G1 X72.898 Y134.804 E52.65658
G1 X72.231 Y133.676 E52.71293
G1 X71.729 Y132.720 E52.75933
G1 X71.165 Y131.483 E52.81780
G1 X70.769 Y130.462 E52.86488
G1 X70.324 Y127.998 E52.97254
G1 X70.324 Y117.998 E53.40250
G1 X70.769 Y115.534 E53.51015
G1 X71.165 Y114.513 E53.55723
G1 X71.589 Y113.562 E53.60199
G1 X72.064 Y112.624 E53.64721
G1 X72.679 Y111.545 E53.70062
