; generated by Slic3r 1.3.0-dev on 2018-08-17 at 19:45:18

; external perimeters extrusion width = 0.44mm (2.38mm^3/s)
; perimeters extrusion width = 0.56mm (3.62mm^3/s)
; infill extrusion width = 0.50mm (5.48mm^3/s)
; solid infill extrusion width = 0.56mm (6.20mm^3/s)
; top infill extrusion width = 0.56mm (5.17mm^3/s)
; support material extrusion width = 0.44mm (3.18mm^3/s)

M107
M104 S210 ; set temperature
; -- START GCODE --
	G90                     ;set to absolute positioning
G28                     ;move to Home
G92 E0                  ;zero the extruded length
G1 F7200                ;set feedrate to travel_speed value
; -- end of START GCODE --
; Filament gcode

M109 S210 ; set temperature and wait for it to be reached
G21 ; set units to millimeters
G90 ; use absolute coordinates
M82 ; use absolute distances for extrusion
G92 E0
G1 Z0.200 F9000.000
G1 E-4.00000 F2400.00000
G92 E0
G1 X89.847 Y87.387 F9000.000
G1 E4.00000 F2400.00000
G1 F1800
G1 X90.857 Y86.430 E4.05985
G1 X91.726 Y85.690 E4.10891
G1 X92.182 Y85.326 E4.13401
G1 X93.309 Y84.498 E4.19414
G1 X94.200 Y83.907 E4.24008
G1 X95.398 Y83.197 E4.29997
G1 X96.634 Y82.556 E4.35982
G1 X97.904 Y81.984 E4.41970
G1 X99.204 Y81.484 E4.47960
G1 X100.315 Y81.123 E4.52984
G1 X100.876 Y80.962 E4.55494
G1 X102.234 Y80.628 E4.61506
G1 X103.241 Y80.430 E4.65916
G1 X104.620 Y80.231 E4.71907
G1 X106.005 Y80.109 E4.77887
G1 X107.397 Y80.064 E4.83875
G1 X108.789 Y80.097 E4.89862
G1 X109.998 Y80.191 E4.95076
G1 X110.578 Y80.257 E4.97586
G1 X111.961 Y80.468 E5.03598
G1 X112.923 Y80.661 E5.07817
G1 X114.274 Y81.002 E5.13810
G1 X115.603 Y81.417 E5.19795
G1 X116.906 Y81.906 E5.25781
G1 X118.180 Y82.467 E5.31766
G1 X119.301 Y83.035 E5.37167
G1 X119.812 Y83.317 E5.39677
G1 X121.008 Y84.042 E5.45690
G1 X121.788 Y84.564 E5.49724
G1 X122.906 Y85.393 E5.55711
G1 X123.977 Y86.284 E5.61701
G1 X124.996 Y87.233 E5.67686
G1 X125.960 Y88.237 E5.73671
G1 X126.807 Y89.222 E5.79258
G1 X127.172 Y89.679 E5.81768
G1 X128.000 Y90.806 E5.87781
G1 X128.497 Y91.550 E5.91631
G1 X129.215 Y92.743 E5.97617
G1 X129.865 Y93.974 E6.03602
G1 X130.445 Y95.240 E6.09589
G1 X130.954 Y96.535 E6.15574
G1 X131.390 Y97.858 E6.21559
G1 X131.751 Y99.203 E6.27549
G1 X132.030 Y100.529 E6.33374
G1 X132.128 Y101.104 E6.35884
G1 X132.308 Y102.491 E6.41897
G1 X132.409 Y103.886 E6.47910
G1 X132.433 Y105.282 E6.53912
G1 X132.378 Y106.672 E6.59892
G1 X132.246 Y108.059 E6.65882
G1 X132.037 Y109.434 E6.71865
G1 X131.871 Y110.270 E6.75530
G1 X131.537 Y111.628 E6.81542
G1 X131.375 Y112.189 E6.84052
G1 X130.954 Y113.464 E6.89826
G1 X130.445 Y114.761 E6.95814
G1 X129.865 Y116.026 E7.01798
G1 X129.215 Y117.257 E7.07783
G1 X128.496 Y118.450 E7.13774
G1 X128.000 Y119.194 E7.17620
G1 X127.172 Y120.321 E7.23633
G1 X126.807 Y120.778 E7.26143
G1 X125.960 Y121.763 E7.31731
G1 X124.996 Y122.767 E7.37717
G1 X123.977 Y123.716 E7.43704
G1 X122.907 Y124.606 E7.49685
G1 X121.788 Y125.437 E7.55679
G1 X121.008 Y125.958 E7.59711
G1 X119.812 Y126.683 E7.65724
G1 X119.301 Y126.965 E7.68234
G1 X118.180 Y127.533 E7.73635
G1 X116.907 Y128.093 E7.79618
G1 X115.603 Y128.583 E7.85607
G1 X114.274 Y128.998 E7.91592
G1 X112.925 Y129.339 E7.97577
G1 X111.961 Y129.532 E8.01803
G1 X110.578 Y129.743 E8.07815
G1 X109.998 Y129.809 E8.10326
G1 X108.788 Y129.903 E8.15545
G1 X107.397 Y129.936 E8.21526
G1 X106.005 Y129.891 E8.27514
G1 X104.618 Y129.769 E8.33501
G1 X103.239 Y129.570 E8.39493
G1 X102.234 Y129.372 E8.43895
G1 X100.876 Y129.038 E8.49907
G1 X100.315 Y128.877 E8.52418
G1 X99.203 Y128.516 E8.57446
G1 X97.903 Y128.016 E8.63434
G1 X96.634 Y127.444 E8.69419
G1 X95.398 Y126.803 E8.75405
G1 X94.200 Y126.094 E8.81391
G1 X93.309 Y125.502 E8.85987
G1 X92.182 Y124.674 E8.92000
G1 X91.726 Y124.310 E8.94510
G1 X90.857 Y123.570 E8.99419
G1 X89.847 Y122.612 E9.05403
G1 X88.901 Y121.610 E9.11327
G1 X88.189 Y120.773 E9.16053
G1 X87.335 Y119.666 E9.22066
G1 X86.997 Y119.190 E9.24576
G1 X86.384 Y118.264 E9.29350
G1 X85.679 Y117.069 E9.35313
G1 X85.123 Y115.994 E9.40518
G1 X84.568 Y114.790 E9.46219
G1 X84.066 Y113.518 E9.52100
G1 X83.868 Y112.952 E9.54678
G1 X83.519 Y111.836 E9.59702
G1 X83.162 Y110.428 E9.65948
G1 X82.892 Y109.032 E9.72063
G1 X82.700 Y107.592 E9.78309
G1 X82.592 Y106.143 E9.84556
G1 X82.567 Y105.284 E9.88249
G1 X82.592 Y103.857 E9.94386
G1 X82.690 Y102.517 E10.00165
G1 X82.757 Y101.921 E10.02744
G1 X82.969 Y100.536 E10.08768
G1 X83.169 Y99.542 E10.13128
G1 X83.527 Y98.134 E10.19372
G1 X83.958 Y96.778 E10.25488
G1 X84.351 Y95.736 E10.30279
G1 X84.894 Y94.483 E10.36148
G1 X85.522 Y93.225 E10.42193
G1 X85.820 Y92.684 E10.44850
G1 X86.544 Y91.488 E10.50863
G1 X87.166 Y90.566 E10.55642
G1 X88.004 Y89.453 E10.61634
G1 X88.892 Y88.400 E10.67554
G1 X89.805 Y87.430 E10.73283
G1 X90.214 Y87.752 F9000.000
G1 F1800
G1 X91.203 Y86.814 E10.79145
G1 X92.060 Y86.085 E10.83983
G1 X92.493 Y85.739 E10.86368
G1 X93.597 Y84.928 E10.92256
G1 X94.477 Y84.343 E10.96798
G1 X95.650 Y83.648 E11.02663
G1 X96.861 Y83.020 E11.08525
G1 X98.105 Y82.461 E11.14390
G1 X99.378 Y81.971 E11.20256
G1 X100.472 Y81.616 E11.25202
G1 X101.005 Y81.462 E11.27588
G1 X102.335 Y81.135 E11.33476
G1 X103.332 Y80.939 E11.37842
G1 X104.682 Y80.744 E11.43710
G1 X106.039 Y80.625 E11.49567
G1 X107.403 Y80.581 E11.55432
G1 X108.766 Y80.614 E11.61295
G1 X109.955 Y80.707 E11.66421
G1 X110.506 Y80.769 E11.68807
G1 X111.860 Y80.975 E11.74695
G1 X112.814 Y81.166 E11.78881
G1 X114.138 Y81.501 E11.84749
G1 X115.439 Y81.908 E11.90611
G1 X116.716 Y82.387 E11.96474
G1 X117.963 Y82.937 E12.02336
G1 X119.064 Y83.495 E12.07640
G1 X119.549 Y83.763 E12.10026
G1 X120.721 Y84.472 E12.15914
G1 X121.496 Y84.991 E12.19924
G1 X122.591 Y85.803 E12.25788
G1 X123.640 Y86.676 E12.31654
G1 X124.637 Y87.606 E12.37516
G1 X125.581 Y88.589 E12.43377
G1 X126.412 Y89.556 E12.48859
G1 X126.758 Y89.990 E12.51244
G1 X127.570 Y91.093 E12.57132
G1 X128.065 Y91.835 E12.60967
G1 X128.768 Y93.003 E12.66830
G1 X129.404 Y94.209 E12.72692
G1 X129.972 Y95.449 E12.78555
G1 X130.470 Y96.718 E12.84417
G1 X130.897 Y98.013 E12.90279
G1 X131.250 Y99.331 E12.96145
G1 X131.523 Y100.630 E13.01852
G1 X131.616 Y101.177 E13.04237
G1 X131.792 Y102.535 E13.10126
G1 X131.892 Y103.901 E13.16014
G1 X131.916 Y105.267 E13.21891
G1 X131.863 Y106.629 E13.27749
G1 X131.734 Y107.987 E13.33615
G1 X131.530 Y109.335 E13.39475
G1 X131.364 Y110.169 E13.43135
G1 X131.036 Y111.499 E13.49023
G1 X130.882 Y112.032 E13.51408
G1 X130.470 Y113.282 E13.57066
G1 X129.972 Y114.552 E13.62930
G1 X129.404 Y115.791 E13.68791
G1 X128.768 Y116.997 E13.74653
G1 X128.065 Y118.166 E13.80520
G1 X127.570 Y118.907 E13.84352
G1 X126.758 Y120.010 E13.90240
G1 X126.412 Y120.444 E13.92626
G1 X125.581 Y121.411 E13.98107
G1 X124.637 Y122.395 E14.03970
G1 X123.639 Y123.324 E14.09834
G1 X122.592 Y124.196 E14.15692
G1 X121.496 Y125.010 E14.21562
G1 X120.721 Y125.528 E14.25571
G1 X119.549 Y126.237 E14.31458
G1 X119.064 Y126.505 E14.33844
G1 X117.963 Y127.063 E14.39148
G1 X116.716 Y127.613 E14.45008
G1 X115.439 Y128.092 E14.50874
G1 X114.138 Y128.499 E14.56735
G1 X112.816 Y128.833 E14.62597
G1 X111.860 Y129.025 E14.66789
G1 X110.506 Y129.231 E14.72677
G1 X109.955 Y129.293 E14.75063
G1 X108.765 Y129.386 E14.80194
G1 X107.403 Y129.419 E14.86052
G1 X106.039 Y129.375 E14.91917
G1 X104.681 Y129.256 E14.97780
G1 X103.330 Y129.061 E15.03649
G1 X102.335 Y128.865 E15.08008
G1 X101.005 Y128.538 E15.13896
G1 X100.472 Y128.384 E15.16282
G1 X99.377 Y128.029 E15.21233
G1 X98.104 Y127.539 E15.27097
G1 X96.861 Y126.980 E15.32959
G1 X95.650 Y126.352 E15.38821
G1 X94.477 Y125.657 E15.44684
G1 X93.597 Y125.072 E15.49227
G1 X92.493 Y124.261 E15.55116
G1 X92.060 Y123.915 E15.57501
G1 X91.203 Y123.185 E15.62341
G1 X90.224 Y122.258 E15.68137
G1 X89.287 Y121.266 E15.74003
G1 X88.584 Y120.440 E15.78670
G1 X87.748 Y119.355 E15.84558
G1 X87.427 Y118.902 E15.86943
G1 X86.821 Y117.989 E15.91657
G1 X86.131 Y116.819 E15.97496
G1 X85.583 Y115.759 E16.02627
G1 X85.040 Y114.579 E16.08212
G1 X84.549 Y113.333 E16.13968
G1 X84.360 Y112.795 E16.16422
G1 X84.017 Y111.696 E16.21372
G1 X83.667 Y110.318 E16.27483
G1 X83.403 Y108.953 E16.33462
G1 X83.215 Y107.544 E16.39572
G1 X83.108 Y106.127 E16.45683
G1 X83.084 Y105.270 E16.49370
G1 X83.108 Y103.873 E16.55377
G1 X83.205 Y102.560 E16.61037
G1 X83.269 Y101.993 E16.63490
G1 X83.476 Y100.636 E16.69390
G1 X83.674 Y99.651 E16.73710
G1 X84.025 Y98.275 E16.79818
G1 X84.446 Y96.949 E16.85798
G1 X84.834 Y95.920 E16.90527
G1 X85.366 Y94.694 E16.96271
G1 X85.982 Y93.461 E17.02201
G1 X86.265 Y92.947 E17.04724
G1 X86.974 Y91.775 E17.10612
G1 X87.587 Y90.865 E17.15330
G1 X88.408 Y89.775 E17.21197
G1 X89.278 Y88.744 E17.26994
G1 X90.172 Y87.795 E17.32600
G1 X90.580 Y88.117 F9000.000
G1 F1800
G1 X91.549 Y87.199 E17.38339
G1 X92.393 Y86.480 E17.43109
G1 X92.804 Y86.152 E17.45369
G1 X93.884 Y85.358 E17.51133
G1 X94.754 Y84.780 E17.55622
G1 X95.903 Y84.100 E17.61364
G1 X97.088 Y83.485 E17.67103
G1 X98.305 Y82.937 E17.72844
G1 X99.552 Y82.458 E17.78586
G1 X100.629 Y82.109 E17.83455
G1 X101.135 Y81.963 E17.85716
G1 X102.436 Y81.642 E17.91479
G1 X103.423 Y81.448 E17.95803
G1 X104.745 Y81.257 E18.01546
G1 X106.074 Y81.141 E18.07281
G1 X107.408 Y81.098 E18.13022
G1 X108.743 Y81.130 E18.18762
G1 X109.911 Y81.222 E18.23801
G1 X110.434 Y81.281 E18.26062
G1 X111.759 Y81.482 E18.31825
G1 X112.706 Y81.672 E18.35978
G1 X114.001 Y81.999 E18.41723
G1 X115.275 Y82.398 E18.47461
G1 X116.525 Y82.868 E18.53201
G1 X117.746 Y83.406 E18.58940
G1 X118.826 Y83.954 E18.64147
G1 X119.287 Y84.208 E18.66408
G1 X120.434 Y84.902 E18.72171
G1 X121.204 Y85.417 E18.76158
G1 X122.276 Y86.213 E18.81898
G1 X123.303 Y87.068 E18.87641
G1 X124.279 Y87.978 E18.93380
G1 X125.203 Y88.941 E18.99117
G1 X126.017 Y89.890 E19.04492
G1 X126.345 Y90.300 E19.06753
G1 X127.140 Y91.380 E19.12516
G1 X127.633 Y92.119 E19.16337
G1 X128.321 Y93.263 E19.22077
G1 X128.943 Y94.444 E19.27815
G1 X129.499 Y95.658 E19.33555
G1 X129.986 Y96.900 E19.39294
G1 X130.403 Y98.168 E19.45033
G1 X130.749 Y99.458 E19.50775
G1 X131.016 Y100.731 E19.56364
G1 X131.104 Y101.249 E19.58624
G1 X131.277 Y102.578 E19.64388
G1 X131.376 Y103.915 E19.70151
G1 X131.399 Y105.253 E19.75905
G1 X131.348 Y106.586 E19.81639
G1 X131.222 Y107.916 E19.87382
G1 X131.022 Y109.235 E19.93119
G1 X130.857 Y110.068 E19.96774
G1 X130.536 Y111.370 E20.02537
G1 X130.390 Y111.875 E20.04797
G1 X129.987 Y113.099 E20.10339
G1 X129.499 Y114.343 E20.16081
G1 X128.944 Y115.556 E20.21818
G1 X128.321 Y116.736 E20.27557
G1 X127.633 Y117.881 E20.33300
G1 X127.140 Y118.620 E20.37118
G1 X126.345 Y119.700 E20.42882
G1 X126.017 Y120.110 E20.45142
G1 X125.203 Y121.059 E20.50517
G1 X124.279 Y122.022 E20.56257
G1 X123.302 Y122.933 E20.61997
G1 X122.277 Y123.786 E20.67732
G1 X121.204 Y124.583 E20.73479
G1 X120.434 Y125.098 E20.77464
G1 X119.287 Y125.792 E20.83227
G1 X118.826 Y126.046 E20.85488
G1 X117.746 Y126.594 E20.90695
G1 X116.525 Y127.132 E20.96432
G1 X115.275 Y127.602 E21.02174
G1 X114.001 Y128.001 E21.07912
G1 X112.707 Y128.328 E21.13650
G1 X111.759 Y128.518 E21.17809
G1 X110.434 Y128.719 E21.23573
G1 X109.911 Y128.778 E21.25833
G1 X108.742 Y128.870 E21.30878
G1 X107.408 Y128.902 E21.36613
G1 X106.074 Y128.859 E21.42354
G1 X104.744 Y128.743 E21.48094
G1 X103.421 Y128.552 E21.53839
G1 X102.436 Y128.358 E21.58156
G1 X101.135 Y128.037 E21.63919
G1 X100.629 Y127.891 E21.66180
G1 X99.551 Y127.542 E21.71053
G1 X98.305 Y127.063 E21.76793
G1 X97.088 Y126.515 E21.82532
G1 X95.903 Y125.900 E21.88271
G1 X94.754 Y125.220 E21.94011
G1 X93.884 Y124.642 E21.98502
G1 X92.804 Y123.848 E22.04265
G1 X92.393 Y123.520 E22.06526
G1 X91.548 Y122.801 E22.11298
G1 X90.590 Y121.893 E22.16971
G1 X89.673 Y120.922 E22.22713
G1 X88.979 Y120.106 E22.27321
G1 X88.161 Y119.044 E22.33084
G1 X87.857 Y118.615 E22.35345
G1 X87.259 Y117.713 E22.39996
G1 X86.584 Y116.568 E22.45713
G1 X86.043 Y115.523 E22.50771
G1 X85.512 Y114.367 E22.56240
G1 X85.032 Y113.149 E22.61871
G1 X84.853 Y112.638 E22.64200
G1 X84.514 Y111.555 E22.69077
G1 X84.173 Y110.208 E22.75051
G1 X83.914 Y108.874 E22.80894
G1 X83.730 Y107.497 E22.86868
G1 X83.625 Y106.111 E22.92843
G1 X83.601 Y105.255 E22.96524
G1 X83.625 Y103.889 E23.02401
G1 X83.721 Y102.604 E23.07942
G1 X83.781 Y102.065 E23.10271
G1 X83.983 Y100.737 E23.16046
G1 X84.179 Y99.761 E23.20326
G1 X84.523 Y98.415 E23.26298
G1 X84.934 Y97.120 E23.32142
G1 X85.317 Y96.104 E23.36809
G1 X85.838 Y94.906 E23.42428
G1 X86.443 Y93.696 E23.48241
G1 X86.711 Y93.209 E23.50632
G1 X87.404 Y92.062 E23.56395
G1 X88.009 Y91.164 E23.61051
G1 X88.813 Y90.097 E23.66795
G1 X89.664 Y89.088 E23.72469
G1 X90.538 Y88.160 E23.77951
G1 X90.946 Y88.482 F9000.000
G1 F1800
G1 X91.894 Y87.584 E23.83566
G1 X92.727 Y86.875 E23.88268
G1 X93.115 Y86.565 E23.90404
G1 X94.171 Y85.788 E23.96043
G1 X95.031 Y85.216 E24.00480
G1 X96.155 Y84.551 E24.06098
G1 X97.315 Y83.949 E24.11713
G1 X98.506 Y83.413 E24.17331
G1 X99.726 Y82.945 E24.22950
G1 X100.786 Y82.601 E24.27741
G1 X101.264 Y82.464 E24.29877
G1 X102.537 Y82.150 E24.35516
G1 X103.514 Y81.957 E24.39797
G1 X104.808 Y81.770 E24.45417
G1 X106.108 Y81.656 E24.51028
G1 X107.414 Y81.615 E24.56646
G1 X108.720 Y81.647 E24.62263
G1 X109.868 Y81.737 E24.67215
G1 X110.362 Y81.793 E24.69351
G1 X111.658 Y81.989 E24.74989
G1 X112.598 Y82.178 E24.79109
G1 X113.865 Y82.498 E24.84730
G1 X115.111 Y82.889 E24.90345
G1 X116.334 Y83.348 E24.95961
G1 X117.529 Y83.875 E25.01577
G1 X118.589 Y84.413 E25.06688
G1 X119.024 Y84.654 E25.08824
G1 X120.146 Y85.332 E25.14462
G1 X120.912 Y85.844 E25.18425
G1 X121.961 Y86.623 E25.24042
G1 X122.965 Y87.460 E25.29661
G1 X123.920 Y88.351 E25.35277
G1 X124.824 Y89.293 E25.40891
G1 X125.622 Y90.223 E25.46160
G1 X125.932 Y90.611 E25.48296
G1 X126.710 Y91.667 E25.53935
G1 X127.201 Y92.404 E25.57741
G1 X127.874 Y93.523 E25.63358
G1 X128.483 Y94.679 E25.68973
G1 X129.026 Y95.867 E25.74589
G1 X129.503 Y97.083 E25.80204
G1 X129.910 Y98.324 E25.85820
G1 X130.248 Y99.586 E25.91439
G1 X130.508 Y100.832 E25.96909
G1 X130.592 Y101.321 E25.99045
G1 X130.762 Y102.622 E26.04684
G1 X130.859 Y103.930 E26.10323
G1 X130.882 Y105.239 E26.15952
G1 X130.832 Y106.543 E26.21564
G1 X130.710 Y107.844 E26.27183
G1 X130.515 Y109.135 E26.32797
G1 X130.349 Y109.968 E26.36446
G1 X130.035 Y111.241 E26.42085
G1 X129.897 Y111.718 E26.44221
G1 X129.503 Y112.917 E26.49647
G1 X129.026 Y114.133 E26.55265
G1 X128.483 Y115.321 E26.60879
G1 X127.874 Y116.476 E26.66494
G1 X127.201 Y117.597 E26.72114
G1 X126.710 Y118.333 E26.75918
G1 X125.932 Y119.389 E26.81557
G1 X125.622 Y119.777 E26.83693
G1 X124.824 Y120.707 E26.88961
G1 X123.920 Y121.650 E26.94578
G1 X122.965 Y122.541 E27.00194
G1 X121.962 Y123.376 E27.05807
G1 X120.912 Y124.156 E27.11429
G1 X120.146 Y124.668 E27.15391
G1 X119.024 Y125.346 E27.21029
G1 X118.589 Y125.587 E27.23165
G1 X117.529 Y126.125 E27.28276
G1 X116.335 Y126.652 E27.33889
G1 X115.111 Y127.111 E27.39508
G1 X113.865 Y127.502 E27.45123
G1 X112.599 Y127.822 E27.50738
G1 X111.658 Y128.011 E27.54863
G1 X110.362 Y128.207 E27.60502
G1 X109.868 Y128.263 E27.62638
G1 X108.719 Y128.353 E27.67595
G1 X107.414 Y128.385 E27.73207
G1 X106.108 Y128.344 E27.78825
G1 X104.806 Y128.229 E27.84441
G1 X103.512 Y128.043 E27.90063
G1 X102.537 Y127.850 E27.94337
G1 X101.264 Y127.536 E27.99975
G1 X100.786 Y127.399 E28.02111
G1 X99.725 Y127.055 E28.06907
G1 X98.506 Y126.586 E28.12524
G1 X97.315 Y126.051 E28.18139
G1 X96.155 Y125.449 E28.23755
G1 X95.031 Y124.784 E28.29372
G1 X94.171 Y124.213 E28.33810
G1 X93.115 Y123.435 E28.39449
G1 X92.727 Y123.125 E28.41585
G1 X91.894 Y122.416 E28.46288
G1 X90.957 Y121.528 E28.51838
G1 X90.059 Y120.579 E28.57457
G1 X89.374 Y119.772 E28.62005
G1 X88.574 Y118.733 E28.67644
G1 X88.287 Y118.328 E28.69780
G1 X87.697 Y117.438 E28.74370
G1 X87.036 Y116.318 E28.79964
G1 X86.504 Y115.288 E28.84948
G1 X85.984 Y114.156 E28.90301
G1 X85.515 Y112.964 E28.95808
G1 X85.346 Y112.481 E28.98012
G1 X85.012 Y111.415 E29.02815
G1 X84.678 Y110.098 E29.08653
G1 X84.425 Y108.795 E29.14360
G1 X84.245 Y107.450 E29.20198
G1 X84.142 Y106.095 E29.26037
G1 X84.118 Y105.241 E29.29713
G1 X84.142 Y103.905 E29.35459
