; generated by Slic3r 1.3.0-dev on 2018-08-18 at 15:39:32

; external perimeters extrusion width = 0.44mm (2.38mm^3/s)
; perimeters extrusion width = 0.56mm (3.62mm^3/s)
; infill extrusion width = 0.50mm (5.48mm^3/s)
; solid infill extrusion width = 0.56mm (6.20mm^3/s)
; top infill extrusion width = 0.56mm (5.17mm^3/s)

M107
M104 S210 ; set temperature
; -- START GCODE --
	G90                     ;set to absolute positioning
G28                     ;move to Home
G92 E0                  ;zero the extruded length
G1 F7200                ;set feedrate to travel_speed value
; -- end of START GCODE --
; Filament gcode

M109 S210 ; set temperature and wait for it to be reached
G21 ; set units to millimeters
G90 ; use absolute coordinates
M82 ; use absolute distances for extrusion
G92 E0
G1 Z0.200 F9000.000
G1 E-4.00000 F2400.00000
G92 E0
G1 X89.704 Y87.248 F9000.000
G1 E4.00000 F2400.00000
G1 F1800
G1 X90.722 Y86.283 E4.06033
G1 X91.599 Y85.535 E4.10988
G1 X92.060 Y85.168 E4.13522
G1 X93.196 Y84.333 E4.19582
G1 X94.095 Y83.736 E4.24225
G1 X95.303 Y83.021 E4.30260
G1 X96.549 Y82.374 E4.36295
G1 X97.829 Y81.799 E4.42329
G1 X99.140 Y81.295 E4.48367
G1 X100.257 Y80.932 E4.53416
G1 X100.823 Y80.769 E4.55950
G1 X102.192 Y80.433 E4.62010
G1 X103.209 Y80.233 E4.66468
G1 X104.599 Y80.032 E4.72504
G1 X105.996 Y79.909 E4.78534
G1 X107.399 Y79.864 E4.84572
G1 X108.802 Y79.898 E4.90606
G1 X110.017 Y79.992 E4.95843
G1 X110.602 Y80.058 E4.98378
G1 X111.996 Y80.271 E5.04438
G1 X112.969 Y80.466 E5.08706
G1 X114.331 Y80.810 E5.14744
G1 X115.670 Y81.229 E5.20780
G1 X116.984 Y81.722 E5.26811
G1 X118.269 Y82.288 E5.32847
G1 X119.394 Y82.858 E5.38271
G1 X119.910 Y83.143 E5.40805
G1 X121.116 Y83.873 E5.46866
G1 X121.905 Y84.401 E5.50948
G1 X123.032 Y85.238 E5.56984
G1 X124.111 Y86.136 E5.63020
G1 X125.138 Y87.092 E5.69054
G1 X126.110 Y88.104 E5.75086
G1 X126.961 Y89.094 E5.80698
G1 X127.328 Y89.554 E5.83232
G1 X128.163 Y90.690 E5.89293
G1 X128.666 Y91.444 E5.93188
G1 X129.390 Y92.647 E5.99223
G1 X130.046 Y93.888 E6.05261
G1 X130.630 Y95.164 E6.11293
G1 X131.143 Y96.470 E6.17326
G1 X131.566 Y97.750 E6.23124
G1 X131.729 Y98.317 E6.25658
G1 X132.066 Y99.686 E6.31719
G1 X132.234 Y100.532 E6.35431
G1 X132.445 Y101.919 E6.41462
G1 X132.578 Y103.317 E6.47501
G1 X132.633 Y104.718 E6.53529
G1 X132.609 Y106.125 E6.59579
G1 X132.507 Y107.531 E6.65639
G1 X132.325 Y108.929 E6.71700
G1 X132.226 Y109.510 E6.74234
G1 X131.946 Y110.842 E6.80087
G1 X131.582 Y112.198 E6.86122
G1 X131.143 Y113.530 E6.92155
G1 X130.630 Y114.836 E6.98187
G1 X130.045 Y116.112 E7.04221
G1 X129.390 Y117.353 E7.10255
G1 X128.666 Y118.556 E7.16292
G1 X128.163 Y119.310 E7.20187
G1 X127.328 Y120.446 E7.26248
G1 X126.961 Y120.906 E7.28782
G1 X126.110 Y121.896 E7.34394
G1 X125.138 Y122.908 E7.40426
G1 X124.111 Y123.865 E7.46461
G1 X123.032 Y124.762 E7.52495
G1 X121.904 Y125.599 E7.58535
G1 X121.116 Y126.127 E7.62614
G1 X119.910 Y126.857 E7.68675
G1 X119.394 Y127.142 E7.71209
G1 X118.269 Y127.712 E7.76633
G1 X116.985 Y128.278 E7.82664
G1 X115.670 Y128.771 E7.88702
G1 X114.331 Y129.190 E7.94736
G1 X112.970 Y129.534 E8.00768
G1 X111.996 Y129.729 E8.05042
G1 X110.602 Y129.942 E8.11102
G1 X110.017 Y130.008 E8.13636
G1 X108.801 Y130.102 E8.18877
G1 X107.399 Y130.136 E8.24908
G1 X105.996 Y130.091 E8.30943
G1 X104.598 Y129.968 E8.36978
G1 X103.208 Y129.767 E8.43017
G1 X102.192 Y129.567 E8.47469
G1 X100.823 Y129.231 E8.53530
G1 X100.257 Y129.068 E8.56064
G1 X99.139 Y128.705 E8.61118
G1 X97.828 Y128.201 E8.67153
G1 X96.549 Y127.626 E8.73185
G1 X95.304 Y126.979 E8.79217
G1 X94.095 Y126.264 E8.85255
G1 X93.196 Y125.667 E8.89897
G1 X92.060 Y124.832 E8.95958
G1 X91.599 Y124.465 E8.98492
G1 X90.722 Y123.717 E9.03448
G1 X89.718 Y122.766 E9.09392
G1 X88.754 Y121.746 E9.15430
G1 X88.034 Y120.900 E9.20203
G1 X87.173 Y119.784 E9.26264
G1 X86.832 Y119.303 E9.28798
G1 X86.213 Y118.368 E9.33620
G1 X85.500 Y117.160 E9.39652
G1 X84.942 Y116.080 E9.44879
G1 X84.384 Y114.866 E9.50622
G1 X83.878 Y113.586 E9.56539
G1 X83.678 Y113.015 E9.59142
G1 X83.326 Y111.889 E9.64215
G1 X82.966 Y110.469 E9.70512
G1 X82.695 Y109.066 E9.76654
G1 X82.501 Y107.615 E9.82951
G1 X82.392 Y106.154 E9.89247
G1 X82.367 Y105.284 E9.92990
G1 X82.392 Y103.846 E9.99177
G1 X82.491 Y102.499 E10.04982
G1 X82.558 Y101.897 E10.07584
G1 X82.772 Y100.501 E10.13659
G1 X82.974 Y99.495 E10.18070
G1 X83.336 Y98.077 E10.24364
G1 X83.768 Y96.715 E10.30506
G1 X84.166 Y95.659 E10.35358
G1 X84.713 Y94.396 E10.41275
G1 X85.343 Y93.137 E10.47330
G1 X85.646 Y92.585 E10.50038
G1 X86.377 Y91.379 E10.56099
G1 X87.004 Y90.448 E10.60928
G1 X87.849 Y89.326 E10.66965
G1 X88.740 Y88.269 E10.72908
G1 X89.662 Y87.291 E10.78686
G1 X90.070 Y87.613 F9000.000
G1 F1800
G1 X91.068 Y86.667 E10.84597
G1 X91.932 Y85.930 E10.89483
G1 X92.370 Y85.581 E10.91892
G1 X93.483 Y84.763 E10.97828
G1 X94.372 Y84.173 E11.02418
G1 X95.556 Y83.472 E11.08330
G1 X96.776 Y82.839 E11.14241
G1 X98.030 Y82.275 E11.20152
G1 X99.314 Y81.782 E11.26066
G1 X100.414 Y81.425 E11.31038
G1 X100.952 Y81.270 E11.33447
G1 X102.293 Y80.940 E11.39383
G1 X103.300 Y80.742 E11.43798
G1 X104.661 Y80.545 E11.49711
G1 X106.030 Y80.425 E11.55618
G1 X107.405 Y80.381 E11.61532
G1 X108.779 Y80.414 E11.67443
G1 X109.973 Y80.507 E11.72592
G1 X110.530 Y80.570 E11.75002
G1 X111.895 Y80.778 E11.80938
G1 X112.861 Y80.972 E11.85172
G1 X114.194 Y81.309 E11.91087
G1 X115.507 Y81.719 E11.96999
G1 X116.793 Y82.202 E12.02907
G1 X118.051 Y82.757 E12.08820
G1 X119.156 Y83.318 E12.14147
G1 X119.647 Y83.588 E12.16557
G1 X120.828 Y84.303 E12.22493
G1 X121.613 Y84.828 E12.26551
G1 X122.717 Y85.648 E12.32464
G1 X123.774 Y86.527 E12.38376
G1 X124.780 Y87.465 E12.44287
G1 X125.731 Y88.456 E12.50196
G1 X126.566 Y89.428 E12.55701
G1 X126.915 Y89.865 E12.58111
G1 X127.733 Y90.978 E12.64047
G1 X128.235 Y91.728 E12.67928
G1 X128.943 Y92.907 E12.73840
G1 X129.585 Y94.123 E12.79754
G1 X130.157 Y95.373 E12.85663
G1 X130.659 Y96.652 E12.91572
G1 X131.073 Y97.907 E12.97255
G1 X131.229 Y98.446 E12.99664
G1 X131.559 Y99.786 E13.05600
G1 X131.727 Y100.632 E13.09308
G1 X131.933 Y101.991 E13.15215
G1 X132.063 Y103.360 E13.21130
G1 X132.116 Y104.733 E13.27036
G1 X132.092 Y106.111 E13.32961
G1 X131.991 Y107.488 E13.38897
G1 X131.813 Y108.857 E13.44833
G1 X131.719 Y109.409 E13.47242
G1 X131.445 Y110.714 E13.52977
G1 X131.089 Y112.042 E13.58888
G1 X130.659 Y113.348 E13.64798
G1 X130.157 Y114.627 E13.70707
G1 X129.585 Y115.877 E13.76617
G1 X128.943 Y117.093 E13.82528
G1 X128.234 Y118.272 E13.88442
G1 X127.733 Y119.022 E13.92322
G1 X126.915 Y120.135 E13.98258
G1 X126.566 Y120.572 E14.00668
G1 X125.731 Y121.544 E14.06173
G1 X124.780 Y122.535 E14.12082
G1 X123.774 Y123.473 E14.17994
G1 X122.717 Y124.352 E14.23905
G1 X121.612 Y125.172 E14.29821
G1 X120.828 Y125.697 E14.33877
G1 X119.647 Y126.412 E14.39812
G1 X119.156 Y126.682 E14.42222
G1 X118.051 Y127.243 E14.47549
G1 X116.794 Y127.797 E14.53458
G1 X115.506 Y128.281 E14.59372
G1 X114.194 Y128.691 E14.65282
G1 X112.862 Y129.028 E14.71191
G1 X111.895 Y129.222 E14.75431
G1 X110.530 Y129.430 E14.81367
G1 X109.973 Y129.493 E14.83777
G1 X108.778 Y129.586 E14.88930
G1 X107.405 Y129.619 E14.94837
G1 X106.030 Y129.575 E15.00750
G1 X104.661 Y129.455 E15.06661
G1 X103.299 Y129.258 E15.12577
G1 X102.293 Y129.060 E15.16986
G1 X100.952 Y128.730 E15.22922
G1 X100.414 Y128.575 E15.25332
G1 X99.313 Y128.218 E15.30307
G1 X98.029 Y127.725 E15.36219
G1 X96.776 Y127.161 E15.42128
G1 X95.556 Y126.528 E15.48037
G1 X94.372 Y125.827 E15.53951
G1 X93.483 Y125.237 E15.58541
G1 X92.370 Y124.419 E15.64477
G1 X91.932 Y124.070 E15.66887
G1 X91.067 Y123.332 E15.71774
G1 X90.084 Y122.402 E15.77595
G1 X89.140 Y121.402 E15.83509
G1 X88.429 Y120.566 E15.88223
G1 X87.587 Y119.473 E15.94159
G1 X87.262 Y119.016 E15.96569
G1 X86.651 Y118.093 E16.01329
G1 X85.953 Y116.909 E16.07239
G1 X85.402 Y115.844 E16.12391
G1 X84.856 Y114.655 E16.18019
G1 X84.361 Y113.402 E16.23811
G1 X84.171 Y112.858 E16.26289
G1 X83.824 Y111.748 E16.31289
G1 X83.471 Y110.359 E16.37450
G1 X83.206 Y108.988 E16.43456
G1 X83.016 Y107.567 E16.49617
G1 X82.909 Y106.139 E16.55777
G1 X82.884 Y105.270 E16.59514
G1 X82.909 Y103.861 E16.65570
G1 X83.006 Y102.542 E16.71257
G1 X83.070 Y101.970 E16.73734
G1 X83.279 Y100.602 E16.79684
G1 X83.479 Y99.605 E16.84055
G1 X83.834 Y98.217 E16.90214
G1 X84.256 Y96.886 E16.96220
G1 X84.649 Y95.843 E17.01009
G1 X85.185 Y94.608 E17.06802
G1 X85.803 Y93.372 E17.12740
G1 X86.092 Y92.847 E17.15315
G1 X86.807 Y91.666 E17.21251
G1 X87.426 Y90.747 E17.26018
G1 X88.253 Y89.648 E17.31932
G1 X89.126 Y88.613 E17.37752
G1 X90.028 Y87.656 E17.43407
G1 X90.436 Y87.978 F9000.000
G1 F1800
G1 X91.413 Y87.052 E17.49194
G1 X92.266 Y86.325 E17.54011
G1 X92.681 Y85.994 E17.56296
G1 X93.770 Y85.193 E17.62107
G1 X94.650 Y84.609 E17.66645
G1 X95.808 Y83.924 E17.72433
G1 X97.003 Y83.304 E17.78222
G1 X98.231 Y82.751 E17.84009
G1 X99.488 Y82.268 E17.89800
G1 X100.571 Y81.918 E17.94693
G1 X101.081 Y81.770 E17.96978
G1 X102.394 Y81.447 E18.02789
G1 X103.391 Y81.251 E18.07162
G1 X104.724 Y81.058 E18.12951
G1 X106.064 Y80.941 E18.18735
G1 X107.410 Y80.898 E18.24525
G1 X108.756 Y80.931 E18.30313
G1 X109.930 Y81.023 E18.35375
G1 X110.458 Y81.082 E18.37660
G1 X111.794 Y81.285 E18.43471
G1 X112.752 Y81.477 E18.47673
G1 X114.058 Y81.807 E18.53464
G1 X115.343 Y82.210 E18.59253
G1 X116.602 Y82.683 E18.65038
G1 X117.834 Y83.226 E18.70826
G1 X118.919 Y83.777 E18.76057
G1 X119.384 Y84.034 E18.78342
G1 X120.541 Y84.733 E18.84153
G1 X121.321 Y85.255 E18.88188
G1 X122.402 Y86.058 E18.93977
G1 X123.436 Y86.919 E18.99766
G1 X124.421 Y87.837 E19.05553
G1 X125.352 Y88.808 E19.11339
G1 X126.171 Y89.761 E19.16738
G1 X126.502 Y90.176 E19.19023
G1 X127.303 Y91.265 E19.24834
G1 X127.803 Y92.013 E19.28702
G1 X128.496 Y93.167 E19.34490
G1 X129.124 Y94.358 E19.40280
G1 X129.684 Y95.582 E19.46066
G1 X130.175 Y96.835 E19.51852
G1 X130.580 Y98.065 E19.57419
G1 X130.728 Y98.575 E19.59704
G1 X131.052 Y99.887 E19.65515
G1 X131.220 Y100.732 E19.69218
G1 X131.421 Y102.062 E19.75002
G1 X131.547 Y103.403 E19.80793
G1 X131.599 Y104.747 E19.86576
G1 X131.575 Y106.096 E19.92377
G1 X131.476 Y107.444 E19.98188
G1 X131.301 Y108.784 E20.04000
G1 X131.212 Y109.308 E20.06284
G1 X130.944 Y110.587 E20.11900
G1 X130.596 Y111.887 E20.17688
G1 X130.175 Y113.165 E20.23475
G1 X129.684 Y114.418 E20.29261
G1 X129.124 Y115.642 E20.35048
G1 X128.496 Y116.833 E20.40835
G1 X127.803 Y117.987 E20.46625
G1 X127.303 Y118.735 E20.50492
G1 X126.502 Y119.824 E20.56303
G1 X126.171 Y120.239 E20.58588
G1 X125.352 Y121.192 E20.63987
G1 X124.421 Y122.163 E20.69773
G1 X123.436 Y123.081 E20.75561
G1 X122.402 Y123.942 E20.81348
G1 X121.320 Y124.746 E20.87141
G1 X120.541 Y125.267 E20.91173
G1 X119.384 Y125.966 E20.96984
G1 X118.919 Y126.223 E20.99269
G1 X117.834 Y126.774 E21.04499
G1 X116.603 Y127.317 E21.10285
G1 X115.342 Y127.790 E21.16075
G1 X114.058 Y128.193 E21.21862
G1 X112.753 Y128.522 E21.27648
G1 X111.794 Y128.715 E21.31855
G1 X110.458 Y128.918 E21.37666
G1 X109.930 Y128.977 E21.39951
G1 X108.755 Y129.069 E21.45017
G1 X107.410 Y129.102 E21.50801
G1 X106.064 Y129.059 E21.56590
G1 X104.723 Y128.942 E21.62378
G1 X103.390 Y128.749 E21.68170
G1 X102.394 Y128.553 E21.72537
G1 X101.081 Y128.230 E21.78348
G1 X100.571 Y128.082 E21.80633
G1 X99.487 Y127.731 E21.85530
G1 X98.230 Y127.248 E21.91319
G1 X97.003 Y126.696 E21.97105
G1 X95.808 Y126.077 E22.02890
G1 X94.650 Y125.391 E22.08681
G1 X93.770 Y124.807 E22.13219
G1 X92.681 Y124.006 E22.19030
G1 X92.266 Y123.675 E22.21315
G1 X91.413 Y122.948 E22.26134
G1 X90.451 Y122.037 E22.31831
G1 X89.526 Y121.058 E22.37622
G1 X88.824 Y120.233 E22.42277
G1 X88.000 Y119.162 E22.48089
G1 X87.692 Y118.729 E22.50373
G1 X87.088 Y117.818 E22.55072
G1 X86.405 Y116.658 E22.60859
G1 X85.862 Y115.609 E22.65938
G1 X85.328 Y114.444 E22.71449
G1 X84.844 Y113.218 E22.77117
G1 X84.663 Y112.701 E22.79470
G1 X84.321 Y111.607 E22.84397
G1 X83.977 Y110.249 E22.90422
G1 X83.717 Y108.909 E22.96291
G1 X83.531 Y107.520 E23.02316
G1 X83.426 Y106.123 E23.08340
G1 X83.401 Y105.255 E23.12072
G1 X83.426 Y103.877 E23.17998
G1 X83.521 Y102.586 E23.23565
G1 X83.582 Y102.042 E23.25918
G1 X83.786 Y100.703 E23.31743
G1 X83.985 Y99.715 E23.36074
G1 X84.331 Y98.358 E23.42097
G1 X84.744 Y97.057 E23.47967
G1 X85.132 Y96.028 E23.52694
G1 X85.657 Y94.819 E23.58362
G1 X86.263 Y93.607 E23.64185
G1 X86.537 Y93.110 E23.66626
G1 X87.236 Y91.954 E23.72437
G1 X87.848 Y91.046 E23.77142
G1 X88.658 Y89.970 E23.82932
G1 X89.512 Y88.957 E23.88629
G1 X90.395 Y88.021 E23.94161
G1 X90.803 Y88.343 F9000.000
G1 F1800
G1 X91.759 Y87.437 E23.99824
G1 X92.600 Y86.720 E24.04574
G1 X92.992 Y86.407 E24.06734
G1 X94.058 Y85.623 E24.12420
G1 X94.927 Y85.046 E24.16906
G1 X96.060 Y84.375 E24.22571
G1 X97.230 Y83.768 E24.28236
G1 X98.432 Y83.228 E24.33900
G1 X99.662 Y82.755 E24.39567
G1 X100.728 Y82.410 E24.44383
G1 X101.210 Y82.271 E24.46543
G1 X102.494 Y81.954 E24.52230
G1 X103.482 Y81.760 E24.56559
G1 X104.787 Y81.572 E24.62225
G1 X106.098 Y81.457 E24.67885
G1 X107.416 Y81.415 E24.73553
G1 X108.733 Y81.447 E24.79217
G1 X109.886 Y81.538 E24.84192
G1 X110.386 Y81.594 E24.86352
G1 X111.693 Y81.793 E24.92039
G1 X112.644 Y81.983 E24.96207
G1 X113.922 Y82.306 E25.01874
G1 X115.179 Y82.700 E25.07540
G1 X116.412 Y83.164 E25.13202
G1 X117.617 Y83.696 E25.18867
G1 X118.682 Y84.236 E25.24001
G1 X119.122 Y84.479 E25.26161
G1 X120.254 Y85.163 E25.31848
G1 X121.029 Y85.682 E25.35859
G1 X122.087 Y86.468 E25.41525
G1 X123.099 Y87.311 E25.47190
G1 X124.062 Y88.210 E25.52854
G1 X124.974 Y89.161 E25.58517
G1 X125.775 Y90.095 E25.63809
G1 X126.089 Y90.487 E25.65969
G1 X126.873 Y91.552 E25.71656
G1 X127.371 Y92.297 E25.75509
G1 X128.049 Y93.427 E25.81174
G1 X128.664 Y94.593 E25.86841
G1 X129.212 Y95.791 E25.92504
G1 X129.692 Y97.017 E25.98166
G1 X130.088 Y98.222 E26.03617
G1 X130.227 Y98.704 E26.05777
G1 X130.545 Y99.988 E26.11464
G1 X130.712 Y100.832 E26.15161
G1 X130.909 Y102.134 E26.20823
G1 X131.032 Y103.446 E26.26490
G1 X131.082 Y104.761 E26.32150
G1 X131.058 Y106.082 E26.37827
G1 X130.961 Y107.401 E26.43514
G1 X130.789 Y108.712 E26.49200
G1 X130.705 Y109.207 E26.51360
G1 X130.443 Y110.459 E26.56857
G1 X130.103 Y111.732 E26.62522
G1 X129.692 Y112.983 E26.68185
G1 X129.211 Y114.209 E26.73848
G1 X128.663 Y115.407 E26.79512
G1 X128.049 Y116.573 E26.85175
G1 X127.371 Y117.703 E26.90842
G1 X126.873 Y118.448 E26.94695
G1 X126.089 Y119.513 E27.00381
G1 X125.775 Y119.905 E27.02541
G1 X124.974 Y120.839 E27.07834
G1 X124.062 Y121.790 E27.13497
G1 X123.099 Y122.689 E27.19162
G1 X122.087 Y123.532 E27.24826
G1 X121.028 Y124.319 E27.30495
G1 X120.254 Y124.837 E27.34503
G1 X119.122 Y125.521 E27.40190
G1 X118.682 Y125.764 E27.42350
G1 X117.617 Y126.304 E27.47483
G1 X116.412 Y126.836 E27.53145
G1 X115.179 Y127.300 E27.58813
G1 X113.922 Y127.694 E27.64476
G1 X112.645 Y128.017 E27.70139
G1 X111.693 Y128.207 E27.74312
G1 X110.386 Y128.406 E27.79998
G1 X109.886 Y128.462 E27.82158
G1 X108.732 Y128.553 E27.87137
G1 X107.416 Y128.585 E27.92798
G1 X106.099 Y128.543 E27.98464
G1 X104.786 Y128.428 E28.04128
G1 X103.481 Y128.240 E28.09797
G1 X102.494 Y128.046 E28.14121
G1 X101.210 Y127.729 E28.19808
G1 X100.728 Y127.590 E28.21968
G1 X99.661 Y127.244 E28.26787
G1 X98.431 Y126.772 E28.32453
G1 X97.230 Y126.232 E28.38115
G1 X96.061 Y125.625 E28.43778
G1 X94.927 Y124.954 E28.49444
G1 X94.058 Y124.377 E28.53930
G1 X92.992 Y123.593 E28.59617
G1 X92.600 Y123.280 E28.61777
G1 X91.758 Y122.563 E28.66528
G1 X90.817 Y121.672 E28.72102
G1 X89.912 Y120.714 E28.77769
G1 X89.219 Y119.899 E28.82365
G1 X88.413 Y118.851 E28.88052
G1 X88.122 Y118.441 E28.90212
G1 X87.526 Y117.542 E28.94849
G1 X86.857 Y116.408 E29.00512
G1 X86.323 Y115.373 E29.05518
G1 X85.800 Y114.233 E29.10914
G1 X85.327 Y113.033 E29.16457
G1 X85.156 Y112.544 E29.18685
G1 X84.819 Y111.467 E29.23538
G1 X84.482 Y110.139 E29.29427
G1 X84.228 Y108.830 E29.35160
G1 X84.046 Y107.473 E29.41049
G1 X83.942 Y106.107 E29.46938
G1 X83.918 Y105.241 E29.50663
G1 X83.942 Y103.893 E29.56459
G1 X84.037 Y102.629 E29.61907
G1 X84.094 Y102.114 E29.64135
