; generated by Slic3r 1.3.0-dev on 2019-02-07 at 11:30:08

; external perimeters extrusion width = 0.44mm (2.38mm^3/s)
; perimeters extrusion width = 0.56mm (3.62mm^3/s)
; infill extrusion width = 0.50mm (5.48mm^3/s)
; solid infill extrusion width = 0.56mm (6.20mm^3/s)
; top infill extrusion width = 0.56mm (5.17mm^3/s)
; support material extrusion width = 0.44mm (3.18mm^3/s)

M107
M104 S210 ; set temperature
; -- START GCODE --
	G90                     ;set to absolute positioning
G28                     ;move to Home
G92 E0                  ;zero the extruded length
G1 F7200                ;set feedrate to travel_speed value
; -- end of START GCODE --
; Filament gcode

M109 S210 ; set temperature and wait for it to be reached
G21 ; set units to millimeters
G90 ; use absolute coordinates
M82 ; use absolute distances for extrusion
G92 E0
G1 Z0.200 F9000.000
G1 E-4.00000 F2400.00000
G92 E0
G1 X89.761 Y81.428 F9000.000
G1 E4.00000 F2400.00000
G1 F1800
G1 X92.126 Y79.856 E4.12213
G1 X94.835 Y79.001 E4.24427
G1 X96.500 Y78.863 E4.31610
G1 X118.500 Y78.863 E5.26199
G1 X121.313 Y79.261 E5.38413
G1 X123.904 Y80.424 E5.50626
G1 X126.072 Y82.261 E5.62840
G1 X127.644 Y84.626 E5.75053
G1 X128.499 Y87.335 E5.87267
G1 X128.637 Y89.000 E5.94449
G1 X128.637 Y121.000 E7.32034
G1 X128.239 Y123.813 E7.44248
G1 X127.076 Y126.404 E7.56461
G1 X125.239 Y128.572 E7.68675
G1 X122.874 Y130.144 E7.80888
G1 X120.165 Y130.999 E7.93102
G1 X118.500 Y131.137 E8.00284
G1 X96.500 Y131.137 E8.94874
G1 X93.687 Y130.739 E9.07088
G1 X91.096 Y129.576 E9.19301
G1 X88.928 Y127.739 E9.31515
G1 X87.356 Y125.374 E9.43728
G1 X86.501 Y122.665 E9.55942
G1 X86.363 Y121.000 E9.63124
G1 X86.363 Y89.000 E11.00709
G1 X86.761 Y86.187 E11.12923
G1 X87.924 Y83.596 E11.25136
G1 X89.722 Y81.474 E11.37092
G1 X90.267 Y81.673 F9000.000
G1 F1800
G1 X92.610 Y80.202 E11.48988
G1 X96.500 Y79.380 E11.66081
G1 X118.500 Y79.380 E12.60670
G1 X121.238 Y79.778 E12.72567
G1 X123.750 Y80.939 E12.84463
G1 X125.827 Y82.767 E12.96359
G1 X127.298 Y85.110 E13.08256
G1 X128.120 Y89.000 E13.25348
G1 X128.120 Y121.000 E14.62933
G1 X127.722 Y123.738 E14.74830
G1 X126.561 Y126.250 E14.86726
G1 X124.733 Y128.327 E14.98622
G1 X122.390 Y129.798 E15.10519
G1 X118.500 Y130.620 E15.27611
G1 X96.500 Y130.620 E16.22201
G1 X93.762 Y130.222 E16.34097
G1 X91.250 Y129.061 E16.45994
G1 X89.173 Y127.233 E16.57890
G1 X87.702 Y124.890 E16.69786
G1 X86.880 Y121.000 E16.86879
G1 X86.880 Y89.000 E18.24464
G1 X87.278 Y86.262 E18.36361
G1 X88.439 Y83.750 E18.48257
G1 X90.227 Y81.718 E18.59895
G1 X90.772 Y81.926 F9000.000
G1 F1800
G1 X93.091 Y80.560 E18.71466
G1 X96.500 Y79.898 E18.86397
G1 X118.500 Y79.898 E19.80987
G1 X121.162 Y80.295 E19.92557
G1 X123.590 Y81.454 E20.04128
G1 X125.574 Y83.272 E20.15698
G1 X126.940 Y85.591 E20.27268
G1 X127.602 Y89.000 E20.42200
G1 X127.602 Y121.000 E21.79785
G1 X127.205 Y123.662 E21.91355
G1 X126.046 Y126.090 E22.02926
G1 X124.228 Y128.074 E22.14496
G1 X121.909 Y129.440 E22.26067
G1 X118.500 Y130.102 E22.40998
G1 X96.500 Y130.102 E23.35588
G1 X93.838 Y129.705 E23.47158
G1 X91.410 Y128.546 E23.58728
G1 X89.426 Y126.728 E23.70299
G1 X88.060 Y124.409 E23.81869
G1 X87.398 Y121.000 E23.96801
G1 X87.398 Y89.000 E25.34386
G1 X87.795 Y86.338 E25.45956
G1 X88.954 Y83.910 E25.57527
G1 X90.732 Y81.970 E25.68839
G1 X91.276 Y82.187 F9000.000
G1 F1800
G1 X93.568 Y80.931 E25.80074
G1 X96.500 Y80.415 E25.92876
G1 X118.500 Y80.415 E26.87466
G1 X121.083 Y80.812 E26.98701
G1 X123.426 Y81.968 E27.09937
G1 X125.313 Y83.776 E27.21172
G1 X126.569 Y86.068 E27.32407
G1 X127.085 Y89.000 E27.45209
G1 X127.085 Y121.000 E28.82794
G1 X126.688 Y123.583 E28.94029
G1 X125.532 Y125.926 E29.05264
G1 X123.724 Y127.813 E29.16500
G1 X121.432 Y129.069 E29.27735
G1 X118.500 Y129.585 E29.40537
G1 X96.500 Y129.585 E30.35127
G1 X93.917 Y129.188 E30.46362
G1 X91.574 Y128.032 E30.57597
G1 X89.687 Y126.224 E30.68832
G1 X88.431 Y123.932 E30.80067
G1 X87.915 Y121.000 E30.92870
G1 X87.915 Y89.000 E32.30455
G1 X88.312 Y86.417 E32.41690
G1 X89.468 Y84.074 E32.52925
G1 X91.235 Y82.230 E32.63902
G1 X91.778 Y82.458 F9000.000
G1 F1800
G1 X94.039 Y81.316 E32.74792
G1 X96.500 Y80.932 E32.85501
G1 X118.500 Y80.932 E33.80090
G1 X121.001 Y81.329 E33.90980
G1 X123.256 Y82.483 E34.01869
G1 X125.042 Y84.278 E34.12759
G1 X126.184 Y86.539 E34.23648
G1 X126.568 Y89.000 E34.34358
G1 X126.568 Y121.000 E35.71943
G1 X126.171 Y123.501 E35.82832
G1 X125.017 Y125.756 E35.93722
G1 X123.222 Y127.542 E36.04611
G1 X120.961 Y128.684 E36.15501
G1 X118.500 Y129.068 E36.26210
G1 X96.500 Y129.068 E37.20800
G1 X93.999 Y128.671 E37.31689
G1 X91.744 Y127.517 E37.42579
G1 X89.958 Y125.722 E37.53468
G1 X88.816 Y123.461 E37.64358
G1 X88.432 Y121.000 E37.75067
G1 X88.432 Y89.000 E39.12652
G1 X88.829 Y86.499 E39.23541
G1 X89.983 Y84.244 E39.34431
G1 X91.736 Y82.500 E39.45062
G1 X92.278 Y82.739 F9000.000
G1 F1800
G1 X94.505 Y81.717 E39.55595
G1 X96.500 Y81.449 E39.64251
G1 X118.500 Y81.449 E40.58840
G1 X120.917 Y81.846 E40.69373
G1 X123.080 Y82.996 E40.79905
G1 X124.761 Y84.778 E40.90438
G1 X125.783 Y87.005 E41.00971
G1 X126.051 Y89.000 E41.09626
G1 X126.051 Y121.000 E42.47211
G1 X125.654 Y123.417 E42.57744
G1 X124.504 Y125.580 E42.68277
G1 X122.722 Y127.261 E42.78809
G1 X120.495 Y128.283 E42.89342
G1 X118.500 Y128.551 E42.97997
G1 X96.500 Y128.551 E43.92587
G1 X94.083 Y128.154 E44.03120
G1 X91.920 Y127.004 E44.13652
G1 X90.239 Y125.222 E44.24185
G1 X89.217 Y122.995 E44.34717
G1 X88.949 Y121.000 E44.43373
G1 X88.949 Y89.000 E45.80958
G1 X89.346 Y86.583 E45.91491
G1 X90.496 Y84.420 E46.02023
G1 X92.235 Y82.780 E46.12298
G1 X92.776 Y83.032 F9000.000
G1 F1800
G1 X94.963 Y82.136 E46.22461
G1 X96.500 Y81.966 E46.29108
G1 X118.500 Y81.966 E47.23698
G1 X120.830 Y82.363 E47.33861
G1 X122.897 Y83.510 E47.44024
G1 X124.468 Y85.276 E47.54187
G1 X125.364 Y87.463 E47.64350
G1 X125.534 Y89.000 E47.70997
G1 X125.534 Y121.000 E49.08582
G1 X125.137 Y123.330 E49.18745
G1 X123.990 Y125.397 E49.28908
G1 X122.224 Y126.968 E49.39071
G1 X120.037 Y127.864 E49.49235
G1 X118.500 Y128.034 E49.55882
G1 X96.500 Y128.034 E50.50471
G1 X94.170 Y127.637 E50.60635
G1 X92.103 Y126.490 E50.70798
G1 X90.532 Y124.724 E50.80961
G1 X89.636 Y122.537 E50.91124
G1 X89.466 Y121.000 E50.97771
G1 X89.466 Y89.000 E52.35356
G1 X89.863 Y86.670 E52.45519
G1 X91.010 Y84.603 E52.55682
G1 X92.731 Y83.072 E52.65587
G1 X93.271 Y83.339 F9000.000
G1 F1800
G1 X96.500 Y82.483 E52.79950
G1 X118.500 Y82.483 E53.74539
G1 X120.740 Y82.880 E53.84319
G1 X122.707 Y84.022 E53.94099
G1 X124.161 Y85.771 E54.03878
G1 X125.017 Y89.000 E54.18241
G1 X125.017 Y121.000 E55.55826
G1 X124.620 Y123.240 E55.65605
G1 X123.478 Y125.207 E55.75385
G1 X121.729 Y126.661 E55.85165
G1 X118.500 Y127.517 E55.99527
G1 X96.500 Y127.517 E56.94117
G1 X94.260 Y127.120 E57.03896
G1 X92.293 Y125.978 E57.13676
G1 X90.839 Y124.229 E57.23456
G1 X89.983 Y121.000 E57.37818
G1 X89.983 Y89.000 E58.75403
G1 X90.380 Y86.760 E58.85183
G1 X91.522 Y84.793 E58.94962
G1 X93.225 Y83.377 E59.04484
G1 E55.04484 F2400.00000
G92 E0
G1 X117.306 Y119.806 F9000.000
G1 E4.00000 F2400.00000
G1 F1800
G1 X97.694 Y119.806 E4.84321
G1 X97.694 Y111.194 E5.21347
G1 X117.306 Y111.194 E6.05668
G1 X117.306 Y119.746 E6.42437
G1 X117.823 Y120.323 F9000.000
G1 F1800
G1 X97.177 Y120.323 E7.31204
G1 X97.177 Y110.677 E7.72677
G1 X117.823 Y110.677 E8.61444
G1 X117.823 Y120.263 E9.02659
G1 X118.280 Y120.780 F9000.000
G1 F1800
G1 X96.720 Y120.780 E9.73844
G1 X96.720 Y110.220 E10.08711
G1 X118.280 Y110.220 E10.79896
G1 X118.280 Y120.720 E11.14564
G1 X117.885 Y120.720 F9000.000
G1 X116.734 Y119.344 F9000.000
G1 F1800
G1 X116.844 Y119.234 E11.15247
G1 X116.844 Y118.487 E11.18530
G1 X115.987 Y119.344 E11.23856
G1 X115.239 Y119.344 E11.27139
G1 X116.844 Y117.739 E11.37108
G1 X116.844 Y116.992 E11.40392
G1 X114.492 Y119.344 E11.55004
G1 X113.745 Y119.344 E11.58287
G1 X116.844 Y116.245 E11.77543
G1 X116.844 Y115.497 E11.80827
G1 X112.997 Y119.344 E12.04726
G1 X112.250 Y119.344 E12.08009
G1 X116.844 Y114.750 E12.36552
G1 X116.844 Y114.003 E12.39835
G1 X111.503 Y119.344 E12.73021
G1 X110.756 Y119.344 E12.76304
G1 X116.844 Y113.256 E13.14133
G1 X116.844 Y112.508 E13.17417
G1 X110.008 Y119.344 E13.59889
G1 X109.261 Y119.344 E13.63173
G1 X116.844 Y111.761 E14.10289
G1 X116.844 Y111.656 E14.10748
G1 X116.201 Y111.656 E14.13572
G1 X108.514 Y119.344 E14.61338
G1 X107.766 Y119.344 E14.64621
G1 X115.454 Y111.656 E15.12387
G1 X114.706 Y111.656 E15.15671
G1 X107.019 Y119.344 E15.63437
G1 X106.272 Y119.344 E15.66720
G1 X113.959 Y111.656 E16.14486
G1 X113.212 Y111.656 E16.17769
G1 X105.525 Y119.344 E16.65535
G1 X104.777 Y119.344 E16.68819
G1 X112.465 Y111.656 E17.16585
G1 X111.717 Y111.656 E17.19868
G1 X104.030 Y119.344 E17.67634
G1 X103.283 Y119.344 E17.70918
G1 X110.970 Y111.656 E18.18684
G1 X110.223 Y111.656 E18.21967
G1 X102.535 Y119.344 E18.69733
G1 X101.788 Y119.344 E18.73016
G1 X109.475 Y111.656 E19.20782
G1 X108.728 Y111.656 E19.24066
G1 X101.041 Y119.344 E19.71832
G1 X100.294 Y119.344 E19.75115
G1 X107.981 Y111.656 E20.22881
G1 X107.234 Y111.656 E20.26164
G1 X99.546 Y119.344 E20.73930
G1 X98.799 Y119.344 E20.77214
G1 X106.486 Y111.656 E21.24980
G1 X105.739 Y111.656 E21.28263
G1 X98.156 Y119.239 E21.75379
G1 X98.156 Y118.492 E21.78663
G1 X104.992 Y111.656 E22.21136
G1 X104.244 Y111.656 E22.24419
G1 X98.156 Y117.744 E22.62248
G1 X98.156 Y116.997 E22.65532
G1 X103.497 Y111.656 E22.98718
G1 X102.750 Y111.656 E23.02001
G1 X98.156 Y116.250 E23.30544
G1 X98.156 Y115.503 E23.33827
G1 X102.003 Y111.656 E23.57727
G1 X101.255 Y111.656 E23.61010
G1 X98.156 Y114.755 E23.80266
G1 X98.156 Y114.008 E23.83550
G1 X100.508 Y111.656 E23.98162
G1 X99.761 Y111.656 E24.01446
G1 X98.156 Y113.261 E24.11415
G1 X98.156 Y112.514 E24.14698
G1 X99.014 Y111.656 E24.20025
G1 X98.266 Y111.656 E24.23308
G1 X98.157 Y111.766 E24.23989
G1 E20.23989 F2400.00000
G92 E0
G1 X117.306 Y98.806 F9000.000
G1 E4.00000 F2400.00000
G1 F1800
G1 X97.694 Y98.806 E4.84321
G1 X97.694 Y90.194 E5.21347
G1 X117.306 Y90.194 E6.05668
G1 X117.306 Y98.746 E6.42437
G1 X117.823 Y99.323 F9000.000
G1 F1800
G1 X97.177 Y99.323 E7.31204
G1 X97.177 Y89.677 E7.72677
G1 X117.823 Y89.677 E8.61444
G1 X117.823 Y99.263 E9.02659
G1 X118.280 Y99.780 F9000.000
G1 F1800
G1 X96.720 Y99.780 E9.73844
G1 X96.720 Y89.220 E10.08711
G1 X118.280 Y89.220 E10.79896
G1 X118.280 Y99.720 E11.14564
G1 X117.885 Y99.720 F9000.000
G1 X116.734 Y98.344 F9000.000
G1 F1800
G1 X116.844 Y98.234 E11.15247
G1 X116.844 Y97.487 E11.18530
G1 X115.987 Y98.344 E11.23856
G1 X115.239 Y98.344 E11.27139
G1 X116.844 Y96.739 E11.37108
G1 X116.844 Y95.992 E11.40392
G1 X114.492 Y98.344 E11.55004
G1 X113.745 Y98.344 E11.58287
G1 X116.844 Y95.245 E11.77543
G1 X116.844 Y94.497 E11.80827
G1 X112.997 Y98.344 E12.04726
G1 X112.250 Y98.344 E12.08009
G1 X116.844 Y93.750 E12.36552
G1 X116.844 Y93.003 E12.39835
G1 X111.503 Y98.344 E12.73021
G1 X110.756 Y98.344 E12.76304
G1 X116.844 Y92.256 E13.14133
G1 X116.844 Y91.508 E13.17417
G1 X110.008 Y98.344 E13.59889
G1 X109.261 Y98.344 E13.63173
G1 X116.844 Y90.761 E14.10289
G1 X116.844 Y90.656 E14.10748
G1 X116.201 Y90.656 E14.13572
G1 X108.514 Y98.344 E14.61338
G1 X107.766 Y98.344 E14.64621
G1 X115.454 Y90.656 E15.12387
G1 X114.706 Y90.656 E15.15671
G1 X107.019 Y98.344 E15.63437
G1 X106.272 Y98.344 E15.66720
G1 X113.959 Y90.656 E16.14486
G1 X113.212 Y90.656 E16.17769
G1 X105.525 Y98.344 E16.65535
G1 X104.777 Y98.344 E16.68819
G1 X112.465 Y90.656 E17.16585
G1 X111.717 Y90.656 E17.19868
G1 X104.030 Y98.344 E17.67634
G1 X103.283 Y98.344 E17.70918
G1 X110.970 Y90.656 E18.18684
G1 X110.223 Y90.656 E18.21967
G1 X102.535 Y98.344 E18.69733
G1 X101.788 Y98.344 E18.73016
G1 X109.475 Y90.656 E19.20782
G1 X108.728 Y90.656 E19.24066
G1 X101.041 Y98.344 E19.71832
G1 X100.294 Y98.344 E19.75115
G1 X107.981 Y90.656 E20.22881
G1 X107.234 Y90.656 E20.26164
G1 X99.546 Y98.344 E20.73930
G1 X98.799 Y98.344 E20.77214
G1 X106.486 Y90.656 E21.24980
G1 X105.739 Y90.656 E21.28263
G1 X98.156 Y98.239 E21.75379
G1 X98.156 Y97.492 E21.78663
G1 X104.992 Y90.656 E22.21135
G1 X104.244 Y90.656 E22.24419
G1 X98.156 Y96.744 E22.62248
G1 X98.156 Y95.997 E22.65532
G1 X103.497 Y90.656 E22.98718
G1 X102.750 Y90.656 E23.02001
G1 X98.156 Y95.250 E23.30544
G1 X98.156 Y94.503 E23.33827
G1 X102.003 Y90.656 E23.57727
G1 X101.255 Y90.656 E23.61010
G1 X98.156 Y93.755 E23.80266
G1 X98.156 Y93.008 E23.83549
G1 X100.508 Y90.656 E23.98162
G1 X99.761 Y90.656 E24.01446
G1 X98.156 Y92.261 E24.11415
G1 X98.156 Y91.514 E24.14698
G1 X99.014 Y90.656 E24.20024
G1 X98.266 Y90.656 E24.23308
G1 X98.157 Y90.766 E24.23989
G1 Z0.200 F9000.000
M106 S198.9
M104 S220 ; set temperature
G1 Z0.400 F9000.000
G1 E20.23989 F2400.00000
G92 E0
G1 X117.306 Y111.194 F9000.000
G1 E4.00000 F2400.00000
G1 F2100
G1 X117.306 Y119.806 E4.37026
G1 X97.694 Y119.806 E5.21347
G1 X97.694 Y111.194 E5.58374
G1 X117.246 Y111.194 E6.42437
G1 X117.823 Y110.677 F9000.000
G1 F2100
G1 X117.823 Y120.323 E6.83909
G1 X97.177 Y120.323 E7.72677
G1 X97.177 Y110.677 E8.14150
G1 X117.763 Y110.677 E9.02659
G1 X118.280 Y110.220 F9000.000
G1 F1800
G1 X118.280 Y120.780 E9.37525
G1 X96.720 Y120.780 E10.08711
G1 X96.720 Y110.220 E10.43577
G1 X118.220 Y110.220 E11.14564
G1 X118.135 Y110.593 F9000.000
G1 X116.844 Y111.766 F9000.000
G1 F3600
G1 X116.734 Y111.656 E11.15247
G1 X115.987 Y111.656 E11.18530
G1 X116.844 Y112.513 E11.23856
G1 X116.844 Y113.261 E11.27139
G1 X115.239 Y111.656 E11.37108
G1 X114.492 Y111.656 E11.40392
G1 X116.844 Y114.008 E11.55004
G1 X116.844 Y114.755 E11.58287
G1 X113.745 Y111.656 E11.77543
G1 X112.997 Y111.656 E11.80827
G1 X116.844 Y115.503 E12.04726
G1 X116.844 Y116.250 E12.08009
G1 X112.250 Y111.656 E12.36552
G1 X111.503 Y111.656 E12.39835
G1 X116.844 Y116.997 E12.73021
G1 X116.844 Y117.744 E12.76304
G1 X110.756 Y111.656 E13.14133
G1 X110.008 Y111.656 E13.17417
G1 X116.844 Y118.492 E13.59889
G1 X116.844 Y119.239 E13.63173
G1 X109.261 Y111.656 E14.10289
G1 X108.514 Y111.656 E14.13572
G1 X116.201 Y119.344 E14.61338
G1 X115.454 Y119.344 E14.64621
G1 X107.766 Y111.656 E15.12387
G1 X107.019 Y111.656 E15.15671
G1 X114.706 Y119.344 E15.63437
G1 X113.959 Y119.344 E15.66720
G1 X106.272 Y111.656 E16.14486
G1 X105.525 Y111.656 E16.17769
G1 X113.212 Y119.344 E16.65535
G1 X112.465 Y119.344 E16.68819
G1 X104.777 Y111.656 E17.16585
G1 X104.030 Y111.656 E17.19868
G1 X111.717 Y119.344 E17.67634
G1 X110.970 Y119.344 E17.70917
G1 X103.283 Y111.656 E18.18683
G1 X102.535 Y111.656 E18.21967
G1 X110.223 Y119.344 E18.69733
G1 X109.475 Y119.344 E18.73016
G1 X101.788 Y111.656 E19.20782
G1 X101.041 Y111.656 E19.24065
G1 X108.728 Y119.344 E19.71831
G1 X107.981 Y119.344 E19.75115
G1 X100.294 Y111.656 E20.22881
G1 X99.546 Y111.656 E20.26164
G1 X107.234 Y119.344 E20.73930
G1 X106.486 Y119.344 E20.77214
G1 X98.799 Y111.656 E21.24980
G1 X98.156 Y111.656 E21.27803
G1 X98.156 Y111.761 E21.28263
G1 X105.739 Y119.344 E21.75379
G1 X104.992 Y119.344 E21.78662
G1 X98.156 Y112.508 E22.21135
G1 X98.156 Y113.256 E22.24419
G1 X104.244 Y119.344 E22.62248
G1 X103.497 Y119.344 E22.65531
G1 X98.156 Y114.003 E22.98718
G1 X98.156 Y114.750 E23.02001
G1 X102.750 Y119.344 E23.30544
G1 X102.003 Y119.344 E23.33827
G1 X98.156 Y115.497 E23.57727
G1 X98.156 Y116.245 E23.61010
G1 X101.255 Y119.344 E23.80266
G1 X100.508 Y119.344 E23.83549
G1 X98.156 Y116.992 E23.98162
G1 X98.156 Y117.739 E24.01445
G1 X99.761 Y119.344 E24.11415
G1 X99.014 Y119.344 E24.14698
G1 X98.156 Y118.486 E24.20024
G1 X98.156 Y119.234 E24.23308
G1 X98.266 Y119.343 E24.23989
G1 E20.23989 F2400.00000
G92 E0
G1 X117.306 Y98.806 F9000.000
G1 E4.00000 F2400.00000
G1 F2100
G1 X97.694 Y98.806 E4.84321
G1 X97.694 Y90.194 E5.21347
G1 X117.306 Y90.194 E6.05668
G1 X117.306 Y98.746 E6.42437
G1 X117.823 Y99.323 F9000.000
G1 F2100
G1 X97.177 Y99.323 E7.31204
G1 X97.177 Y89.677 E7.72677
G1 X117.823 Y89.677 E8.61444
G1 X117.823 Y99.263 E9.02659
G1 X118.280 Y99.780 F9000.000
G1 F1800
G1 X96.720 Y99.780 E9.73844
G1 X96.720 Y89.220 E10.08711
G1 X118.280 Y89.220 E10.79896
G1 X118.280 Y99.720 E11.14564
G1 X117.885 Y99.720 F9000.000
G1 X116.844 Y90.766 F9000.000
