; generated by Slic3r 1.3.0-dev on 2020-09-29 at 21:19:01

; external perimeters extrusion width = 0.44mm (2.38mm^3/s)
; perimeters extrusion width = 0.56mm (3.62mm^3/s)
; infill extrusion width = 0.50mm (5.48mm^3/s)
; solid infill extrusion width = 0.56mm (6.20mm^3/s)
; top infill extrusion width = 0.56mm (5.17mm^3/s)

M104 S215 ; set temperature
G28 ; home all axes
G1 Z5 F5000 ; lift nozzle

; Filament gcode

M109 S215 ; set temperature and wait for it to be reached
G21 ; set units to millimeters
G90 ; use absolute coordinates
M82 ; use absolute distances for extrusion
G92 E0
G1 Z0.200 F9000.000
G1 E-2.00000 F2400.00000
G92 E0
G1 X36.276 Y55.187 F9000.000
G1 E2.00000 F2400.00000
G1 F1800
G1 X38.568 Y53.931 E2.11235
G1 X41.500 Y53.415 E2.24037
G1 X158.500 Y53.415 E7.27083
G1 X161.083 Y53.812 E7.38318
G1 X163.426 Y54.968 E7.49553
G1 X165.313 Y56.776 E7.60788
G1 X166.569 Y59.068 E7.72023
G1 X167.085 Y62.000 E7.84826
G1 X167.085 Y138.000 E11.11590
G1 X166.688 Y140.583 E11.22826
G1 X165.532 Y142.926 E11.34061
G1 X163.724 Y144.813 E11.45296
G1 X161.432 Y146.069 E11.56531
G1 X158.500 Y146.585 E11.69333
G1 X41.500 Y146.585 E16.72379
G1 X38.917 Y146.188 E16.83614
G1 X36.574 Y145.032 E16.94849
G1 X34.687 Y143.224 E17.06084
G1 X33.431 Y140.932 E17.17319
G1 X32.915 Y138.000 E17.30122
G1 X32.915 Y62.000 E20.56886
G1 X33.312 Y59.417 E20.68121
G1 X34.468 Y57.074 E20.79356
G1 X36.235 Y55.230 E20.90334
G1 X36.778 Y55.458 F9000.000
G1 F1800
G1 X39.039 Y54.316 E21.01223
G1 X41.500 Y53.932 E21.11932
G1 X158.500 Y53.932 E26.14978
G1 X161.001 Y54.329 E26.25867
G1 X163.256 Y55.483 E26.36757
G1 X165.042 Y57.278 E26.47646
G1 X166.184 Y59.539 E26.58536
G1 X166.568 Y62.000 E26.69245
G1 X166.568 Y138.000 E29.96010
G1 X166.171 Y140.501 E30.06899
G1 X165.017 Y142.756 E30.17789
G1 X163.222 Y144.542 E30.28678
G1 X160.961 Y145.684 E30.39568
G1 X158.500 Y146.068 E30.50277
G1 X41.500 Y146.068 E35.53322
G1 X38.999 Y145.671 E35.64212
G1 X36.744 Y144.517 E35.75101
G1 X34.958 Y142.722 E35.85991
G1 X33.816 Y140.461 E35.96880
G1 X33.432 Y138.000 E36.07589
G1 X33.432 Y62.000 E39.34354
G1 X33.829 Y59.499 E39.45243
G1 X34.983 Y57.244 E39.56133
G1 X36.736 Y55.500 E39.66764
G1 X37.278 Y55.739 F9000.000
G1 F1800
G1 X39.505 Y54.717 E39.77297
G1 X41.500 Y54.449 E39.85953
G1 X158.500 Y54.449 E44.88998
G1 X160.917 Y54.846 E44.99531
G1 X163.080 Y55.996 E45.10063
G1 X164.761 Y57.778 E45.20596
G1 X165.783 Y60.005 E45.31129
G1 X166.051 Y62.000 E45.39784
G1 X166.051 Y138.000 E48.66549
G1 X165.654 Y140.417 E48.77082
G1 X164.504 Y142.580 E48.87614
G1 X162.722 Y144.261 E48.98147
G1 X160.495 Y145.283 E49.08679
G1 X158.500 Y145.551 E49.17335
G1 X41.500 Y145.551 E54.20380
G1 X39.083 Y145.154 E54.30913
G1 X36.920 Y144.004 E54.41446
G1 X35.239 Y142.222 E54.51978
G1 X34.217 Y139.995 E54.62511
G1 X33.949 Y138.000 E54.71166
G1 X33.949 Y62.000 E57.97931
G1 X34.346 Y59.583 E58.08464
G1 X35.496 Y57.420 E58.18996
G1 X37.235 Y55.780 E58.29271
G1 X37.776 Y56.032 F9000.000
G1 F1800
G1 X39.963 Y55.136 E58.39434
G1 X41.500 Y54.966 E58.46081
G1 X158.500 Y54.966 E63.49127
G1 X160.830 Y55.363 E63.59290
G1 X162.897 Y56.510 E63.69453
G1 X164.468 Y58.276 E63.79616
G1 X165.364 Y60.463 E63.89779
G1 X165.534 Y62.000 E63.96426
G1 X165.534 Y138.000 E67.23191
G1 X165.137 Y140.330 E67.33354
G1 X163.990 Y142.397 E67.43517
G1 X162.224 Y143.968 E67.53680
G1 X160.037 Y144.864 E67.63843
G1 X158.500 Y145.034 E67.70490
G1 X41.500 Y145.034 E72.73535
G1 X39.170 Y144.637 E72.83698
G1 X37.103 Y143.490 E72.93862
G1 X35.532 Y141.724 E73.04025
G1 X34.636 Y139.537 E73.14188
G1 X34.466 Y138.000 E73.20835
G1 X34.466 Y62.000 E76.47599
G1 X34.863 Y59.670 E76.57762
G1 X36.010 Y57.603 E76.67926
G1 X37.731 Y56.072 E76.77831
G1 X38.271 Y56.339 F9000.000
G1 F1800
G1 X41.500 Y55.483 E76.92193
G1 X158.500 Y55.483 E81.95239
G1 X160.740 Y55.880 E82.05018
G1 X162.707 Y57.022 E82.14798
G1 X164.161 Y58.771 E82.24577
G1 X165.017 Y62.000 E82.38940
G1 X165.017 Y138.000 E85.65705
G1 X164.620 Y140.240 E85.75484
G1 X163.478 Y142.207 E85.85264
G1 X161.729 Y143.661 E85.95043
G1 X158.500 Y144.517 E86.09406
G1 X41.500 Y144.517 E91.12451
G1 X39.260 Y144.120 E91.22231
G1 X37.293 Y142.978 E91.32011
G1 X35.839 Y141.229 E91.41790
G1 X34.983 Y138.000 E91.56153
G1 X34.983 Y62.000 E94.82917
G1 X35.380 Y59.760 E94.92697
G1 X36.522 Y57.793 E95.02477
G1 X38.225 Y56.377 E95.11998
G1 E93.11998 F2400.00000
G92 E0
G1 X152.354 Y133.606 F9000.000
G1 E2.00000 F2400.00000
G1 F1800
G1 X152.490 Y133.162 E2.01994
G1 X152.627 Y132.884 E2.03328
G1 X152.930 Y132.485 E2.05479
G1 X153.316 Y132.170 E2.07622
G1 X153.592 Y132.019 E2.08976
G1 X154.062 Y131.863 E2.11105
G1 X154.524 Y131.822 E2.13101
G1 X154.834 Y131.846 E2.14438
G1 X155.317 Y131.977 E2.16587
G1 X155.754 Y132.217 E2.18732
G1 X155.997 Y132.417 E2.20085
G1 X156.317 Y132.794 E2.22210
G1 X156.529 Y133.207 E2.24208
G1 X156.623 Y133.504 E2.25548
G1 X156.680 Y133.983 E2.27620
G1 X156.659 Y134.293 E2.28959
G1 X156.554 Y134.726 E2.30872
G1 X156.431 Y135.012 E2.32213
G1 X156.151 Y135.426 E2.34359
G1 X155.782 Y135.763 E2.36508
G1 X155.517 Y135.926 E2.37845
G1 X155.087 Y136.101 E2.39842
G1 X154.598 Y136.177 E2.41970
G1 X154.283 Y136.169 E2.43323
G1 X153.796 Y136.065 E2.45467
G1 X153.345 Y135.849 E2.47617
G1 X153.095 Y135.664 E2.48952
G1 X152.772 Y135.331 E2.50947
G1 X152.518 Y134.906 E2.53080
G1 X152.408 Y134.611 E2.54433
G1 X152.322 Y134.120 E2.56574
G1 X152.351 Y133.666 E2.58531
G1 X152.807 Y133.688 F9000.000
G1 F1800
G1 X152.916 Y133.331 E2.59763
G1 X153.018 Y133.126 E2.60521
G1 X153.261 Y132.805 E2.61850
G1 X153.572 Y132.551 E2.63176
G1 X153.775 Y132.440 E2.63940
G1 X154.155 Y132.314 E2.65263
G1 X154.527 Y132.281 E2.66495
G1 X154.756 Y132.298 E2.67254
G1 X155.144 Y132.404 E2.68582
G1 X155.497 Y132.597 E2.69909
G1 X155.675 Y132.744 E2.70672
G1 X155.934 Y133.049 E2.71994
G1 X156.105 Y133.381 E2.73227
G1 X156.174 Y133.601 E2.73986
G1 X156.221 Y133.994 E2.75295
G1 X156.205 Y134.224 E2.76055
G1 X156.119 Y134.581 E2.77267
G1 X156.028 Y134.792 E2.78027
G1 X155.803 Y135.125 E2.79354
G1 X155.506 Y135.396 E2.80682
G1 X155.310 Y135.517 E2.81441
G1 X154.964 Y135.657 E2.82674
G1 X154.568 Y135.719 E2.83996
G1 X154.337 Y135.713 E2.84759
G1 X153.944 Y135.629 E2.86086
G1 X153.582 Y135.455 E2.87415
G1 X153.397 Y135.319 E2.88173
G1 X153.137 Y135.051 E2.89405
G1 X152.931 Y134.707 E2.90729
G1 X152.851 Y134.490 E2.91492
G1 X152.781 Y134.095 E2.92818
G1 X152.803 Y133.748 E2.93965
G1 X152.807 Y133.688 F9000.000
G1 E0.93965 F2400.00000
G92 E0
G1 X155.343 Y136.555 F9000.000
G1 E2.00000 F2400.00000
G1 F1800
G1 X155.752 Y136.389 E2.01899
G1 X156.095 Y136.178 E2.03632
G1 X156.546 Y135.766 E2.06255
G1 X156.886 Y135.262 E2.08873
G1 X157.058 Y134.863 E2.10741
G1 X157.306 Y134.914 E2.11827
G1 X157.306 Y136.806 E2.19961
G1 X155.391 Y136.806 E2.28192
G1 X155.354 Y136.614 E2.29033
G1 E0.29033 F2400.00000
G92 E0
G1 X157.068 Y65.126 F9000.000
G1 E2.00000 F2400.00000
G1 F1800
G1 X156.750 Y64.504 E2.03001
G1 X156.361 Y64.047 E2.05583
G1 X156.045 Y63.787 E2.07342
G1 X155.390 Y63.427 E2.10554
G1 X155.450 Y63.194 E2.11589
G1 X157.306 Y63.194 E2.19567
G1 X157.306 Y65.068 E2.27624
G1 X157.127 Y65.111 E2.28416
G1 X156.554 Y65.288 F9000.000
G1 F1800
G1 X156.623 Y65.504 E2.29392
G1 X156.680 Y65.983 E2.31464
G1 X156.659 Y66.294 E2.32804
G1 X156.554 Y66.726 E2.34717
G1 X156.431 Y67.012 E2.36058
G1 X156.151 Y67.426 E2.38204
G1 X155.782 Y67.763 E2.40352
G1 X155.517 Y67.926 E2.41690
G1 X155.087 Y68.101 E2.43687
G1 X154.598 Y68.177 E2.45815
G1 X154.284 Y68.169 E2.47168
G1 X153.796 Y68.065 E2.49312
G1 X153.345 Y67.849 E2.51462
G1 X153.095 Y67.664 E2.52797
G1 X152.772 Y67.331 E2.54792
G1 X152.518 Y66.906 E2.56924
G1 X152.408 Y66.611 E2.58278
G1 X152.322 Y66.120 E2.60419
G1 X152.354 Y65.606 E2.62634
G1 X152.490 Y65.162 E2.64628
G1 X152.627 Y64.884 E2.65962
G1 X152.930 Y64.485 E2.68114
G1 X153.316 Y64.170 E2.70257
G1 X153.592 Y64.019 E2.71610
G1 X154.062 Y63.863 E2.73739
G1 X154.524 Y63.822 E2.75735
G1 X154.834 Y63.846 E2.77072
G1 X155.317 Y63.977 E2.79221
G1 X155.754 Y64.217 E2.81366
G1 X155.997 Y64.417 E2.82720
G1 X156.317 Y64.794 E2.84844
G1 X156.536 Y65.230 E2.86946
G1 X156.119 Y65.425 F9000.000
G1 F1800
G1 X156.174 Y65.601 E2.87555
G1 X156.221 Y65.994 E2.88863
G1 X156.205 Y66.224 E2.89623
G1 X156.119 Y66.581 E2.90835
G1 X156.028 Y66.792 E2.91595
G1 X155.803 Y67.125 E2.92922
G1 X155.506 Y67.396 E2.94250
G1 X155.310 Y67.517 E2.95009
G1 X154.964 Y67.657 E2.96242
G1 X154.568 Y67.719 E2.97564
G1 X154.337 Y67.713 E2.98327
G1 X153.944 Y67.629 E2.99654
G1 X153.582 Y67.455 E3.00983
G1 X153.397 Y67.319 E3.01741
G1 X153.137 Y67.051 E3.02973
G1 X152.931 Y66.707 E3.04297
G1 X152.851 Y66.490 E3.05060
G1 X152.781 Y66.095 E3.06386
G1 X152.807 Y65.688 E3.07731
G1 X152.916 Y65.331 E3.08963
G1 X153.018 Y65.126 E3.09721
G1 X153.261 Y64.805 E3.11049
G1 X153.572 Y64.551 E3.12376
G1 X153.775 Y64.440 E3.13139
G1 X154.155 Y64.314 E3.14462
G1 X154.527 Y64.281 E3.15695
G1 X154.756 Y64.298 E3.16453
G1 X155.144 Y64.404 E3.17781
G1 X155.497 Y64.597 E3.19109
G1 X155.675 Y64.744 E3.19872
G1 X155.934 Y65.049 E3.21193
G1 X156.098 Y65.369 E3.22379
G1 X156.301 Y65.448 F9000.000
G1 X157.058 Y66.863 F9000.000
G1 F1800
G1 X157.306 Y66.914 E3.23466
G1 X157.306 Y133.068 E6.07898
G1 X157.068 Y133.126 E6.08948
G1 X156.750 Y132.504 E6.11949
G1 X156.361 Y132.047 E6.14531
G1 X156.045 Y131.787 E6.16290
G1 X155.512 Y131.494 E6.18907
G1 X154.923 Y131.334 E6.21531
G1 X154.521 Y131.303 E6.23262
G1 X153.956 Y131.354 E6.25701
G1 X153.385 Y131.543 E6.28290
G1 X153.025 Y131.740 E6.30050
G1 X152.555 Y132.124 E6.32663
G1 X152.186 Y132.611 E6.35291
G1 X152.008 Y132.971 E6.37018
G1 X151.842 Y133.513 E6.39453
G1 X151.802 Y134.149 E6.42193
G1 X151.907 Y134.747 E6.44803
G1 X152.049 Y135.130 E6.46563
G1 X152.359 Y135.648 E6.49157
G1 X152.754 Y136.055 E6.51594
G1 X153.077 Y136.294 E6.53322
G1 X153.641 Y136.564 E6.56013
G1 X153.586 Y136.806 E6.57078
G1 X46.391 Y136.806 E11.17966
G1 X46.343 Y136.555 E11.19065
G1 X46.752 Y136.389 E11.20964
G1 X47.095 Y136.178 E11.22696
G1 X47.546 Y135.766 E11.25319
G1 X47.886 Y135.262 E11.27937
G1 X48.046 Y134.890 E11.29675
G1 X48.172 Y134.372 E11.31968
G1 X48.199 Y133.969 E11.33704
G1 X48.130 Y133.395 E11.36192
G1 X48.009 Y133.010 E11.37927
G1 X47.750 Y132.504 E11.40369
G1 X47.361 Y132.047 E11.42951
G1 X47.045 Y131.787 E11.44710
G1 X46.512 Y131.494 E11.47327
G1 X45.923 Y131.334 E11.49951
G1 X45.521 Y131.303 E11.51682
G1 X44.956 Y131.354 E11.54121
G1 X44.384 Y131.543 E11.56710
G1 X44.025 Y131.740 E11.58470
G1 X43.555 Y132.124 E11.61083
G1 X43.186 Y132.611 E11.63711
G1 X43.008 Y132.971 E11.65438
G1 X42.959 Y133.132 E11.66160
G1 X42.694 Y133.092 E11.67309
G1 X42.694 Y66.908 E14.51872
G1 X42.949 Y66.862 E14.52987
G1 X43.049 Y67.130 E14.54220
G1 X43.359 Y67.648 E14.56814
G1 X43.754 Y68.055 E14.59251
G1 X44.077 Y68.294 E14.60979
G1 X44.628 Y68.558 E14.63605
G1 X45.222 Y68.685 E14.66220
G1 X45.632 Y68.695 E14.67980
G1 X46.226 Y68.602 E14.70566
G1 X46.752 Y68.389 E14.73006
G1 X47.095 Y68.178 E14.74739
G1 X47.546 Y67.766 E14.77362
G1 X47.886 Y67.262 E14.79980
G1 X48.046 Y66.890 E14.81718
G1 X48.172 Y66.372 E14.84010
G1 X48.199 Y65.969 E14.85746
G1 X48.130 Y65.395 E14.88234
G1 X48.009 Y65.010 E14.89969
G1 X47.750 Y64.504 E14.92412
G1 X47.361 Y64.047 E14.94993
G1 X47.045 Y63.787 E14.96753
G1 X46.390 Y63.427 E14.99964
G1 X46.450 Y63.194 E15.00999
G1 X153.608 Y63.194 E19.61727
G1 X153.650 Y63.455 E19.62862
G1 X153.385 Y63.543 E19.64064
G1 X153.025 Y63.740 E19.65824
G1 X152.555 Y64.124 E19.68437
G1 X152.186 Y64.611 E19.71065
G1 X152.008 Y64.971 E19.72791
G1 X151.842 Y65.513 E19.75227
G1 X151.802 Y66.149 E19.77966
G1 X151.907 Y66.747 E19.80577
G1 X152.049 Y67.130 E19.82337
G1 X152.359 Y67.648 E19.84931
G1 X152.754 Y68.055 E19.87368
G1 X153.077 Y68.294 E19.89096
G1 X153.628 Y68.558 E19.91722
G1 X154.222 Y68.685 E19.94337
G1 X154.632 Y68.695 E19.96097
G1 X155.226 Y68.602 E19.98683
G1 X155.752 Y68.389 E20.01123
G1 X156.095 Y68.178 E20.02856
G1 X156.546 Y67.766 E20.05479
G1 X156.886 Y67.262 E20.08097
G1 X157.035 Y66.918 E20.09707
G1 E18.09707 F2400.00000
G92 E0
G1 X47.680 Y65.983 F9000.000
G1 E2.00000 F2400.00000
G1 F1800
G1 X47.659 Y66.294 E2.01340
G1 X47.554 Y66.726 E2.03253
G1 X47.431 Y67.012 E2.04593
G1 X47.151 Y67.426 E2.06739
G1 X46.782 Y67.763 E2.08888
G1 X46.517 Y67.926 E2.10226
G1 X46.087 Y68.101 E2.12223
G1 X45.598 Y68.177 E2.14350
G1 X45.283 Y68.169 E2.15703
G1 X44.796 Y68.065 E2.17847
G1 X44.345 Y67.849 E2.19998
G1 X44.095 Y67.664 E2.21333
G1 X43.772 Y67.331 E2.23328
G1 X43.518 Y66.906 E2.25460
G1 X43.408 Y66.611 E2.26813
G1 X43.322 Y66.120 E2.28955
G1 X43.354 Y65.606 E2.31170
G1 X43.490 Y65.162 E2.33164
G1 X43.627 Y64.884 E2.34498
G1 X43.930 Y64.485 E2.36649
G1 X44.316 Y64.170 E2.38792
G1 X44.592 Y64.019 E2.40145
G1 X45.062 Y63.863 E2.42275
G1 X45.524 Y63.822 E2.44271
G1 X45.834 Y63.846 E2.45608
G1 X46.317 Y63.977 E2.47757
G1 X46.754 Y64.217 E2.49902
G1 X46.997 Y64.417 E2.51255
G1 X47.317 Y64.794 E2.53380
G1 X47.529 Y65.207 E2.55378
G1 X47.623 Y65.504 E2.56717
G1 X47.673 Y65.923 E2.58531
G1 X47.221 Y65.994 F9000.000
G1 F1800
G1 X47.205 Y66.224 E2.59291
G1 X47.119 Y66.581 E2.60503
G1 X47.028 Y66.792 E2.61263
G1 X46.803 Y67.125 E2.62590
G1 X46.506 Y67.396 E2.63918
G1 X46.310 Y67.517 E2.64677
G1 X45.964 Y67.657 E2.65910
G1 X45.568 Y67.719 E2.67232
G1 X45.337 Y67.713 E2.67995
G1 X44.944 Y67.629 E2.69322
G1 X44.582 Y67.455 E2.70651
G1 X44.397 Y67.319 E2.71409
G1 X44.137 Y67.051 E2.72641
G1 X43.931 Y66.707 E2.73965
G1 X43.851 Y66.490 E2.74728
G1 X43.781 Y66.095 E2.76054
G1 X43.807 Y65.688 E2.77399
G1 X43.916 Y65.331 E2.78631
G1 X44.018 Y65.126 E2.79389
G1 X44.261 Y64.805 E2.80717
G1 X44.572 Y64.551 E2.82044
G1 X44.775 Y64.440 E2.82807
G1 X45.155 Y64.314 E2.84130
G1 X45.527 Y64.281 E2.85362
G1 X45.756 Y64.298 E2.86121
G1 X46.144 Y64.404 E2.87449
G1 X46.497 Y64.597 E2.88777
G1 X46.675 Y64.744 E2.89539
G1 X46.934 Y65.049 E2.90861
G1 X47.105 Y65.381 E2.92094
G1 X47.174 Y65.601 E2.92854
G1 X47.214 Y65.935 E2.93965
G1 X47.221 Y65.994 F9000.000
G1 E0.93965 F2400.00000
G92 E0
G1 X44.650 Y63.455 F9000.000
G1 E2.00000 F2400.00000
G1 F1800
G1 X44.385 Y63.543 E2.01202
G1 X44.025 Y63.740 E2.02962
G1 X43.555 Y64.124 E2.05575
G1 X43.186 Y64.611 E2.08202
G1 X43.008 Y64.971 E2.09929
G1 X42.959 Y65.132 E2.10651
G1 X42.694 Y65.092 E2.11801
G1 X42.694 Y63.194 E2.19961
G1 X44.608 Y63.194 E2.28189
G1 X44.640 Y63.396 E2.29067
G1 E0.29067 F2400.00000
G92 E0
G1 X45.524 Y131.822 F9000.000
G1 E2.00000 F2400.00000
G1 F1800
G1 X45.834 Y131.846 E2.01337
G1 X46.317 Y131.977 E2.03486
G1 X46.754 Y132.217 E2.05631
G1 X46.997 Y132.417 E2.06984
G1 X47.317 Y132.794 E2.09109
G1 X47.529 Y133.207 E2.11107
G1 X47.623 Y133.504 E2.12446
G1 X47.680 Y133.983 E2.14518
G1 X47.659 Y134.294 E2.15858
G1 X47.554 Y134.726 E2.17771
G1 X47.431 Y135.012 E2.19112
G1 X47.151 Y135.426 E2.21258
G1 X46.782 Y135.763 E2.23406
G1 X46.517 Y135.926 E2.24744
G1 X46.087 Y136.101 E2.26741
G1 X45.598 Y136.177 E2.28869
G1 X45.283 Y136.169 E2.30222
G1 X44.796 Y136.065 E2.32366
G1 X44.345 Y135.849 E2.34516
G1 X44.095 Y135.664 E2.35851
G1 X43.772 Y135.331 E2.37846
G1 X43.518 Y134.906 E2.39978
G1 X43.408 Y134.611 E2.41332
G1 X43.322 Y134.120 E2.43473
G1 X43.354 Y133.606 E2.45688
G1 X43.490 Y133.162 E2.47682
G1 X43.627 Y132.884 E2.49016
G1 X43.930 Y132.485 E2.51167
G1 X44.316 Y132.170 E2.53310
G1 X44.592 Y132.019 E2.54664
G1 X45.062 Y131.863 E2.56793
G1 X45.465 Y131.827 E2.58531
G1 X45.527 Y132.281 F9000.000
G1 F1800
G1 X45.756 Y132.298 E2.59290
G1 X46.144 Y132.404 E2.60618
G1 X46.497 Y132.597 E2.61945
G1 X46.675 Y132.744 E2.62708
G1 X46.934 Y133.049 E2.64030
G1 X47.105 Y133.381 E2.65263
G1 X47.174 Y133.601 E2.66023
G1 X47.221 Y133.994 E2.67332
G1 X47.205 Y134.224 E2.68091
G1 X47.119 Y134.581 E2.69303
G1 X47.028 Y134.792 E2.70063
G1 X46.803 Y135.125 E2.71390
G1 X46.506 Y135.396 E2.72718
G1 X46.310 Y135.517 E2.73477
G1 X45.964 Y135.657 E2.74710
G1 X45.568 Y135.719 E2.76032
G1 X45.337 Y135.713 E2.76795
G1 X44.944 Y135.629 E2.78122
G1 X44.582 Y135.455 E2.79451
G1 X44.397 Y135.319 E2.80209
G1 X44.137 Y135.051 E2.81441
G1 X43.931 Y134.707 E2.82765
