; generated by Slic3r 1.3.0-dev on 2018-08-19 at 10:50:54

; external perimeters extrusion width = 0.44mm (2.38mm^3/s)
; perimeters extrusion width = 0.56mm (3.62mm^3/s)
; infill extrusion width = 0.50mm (5.48mm^3/s)
; solid infill extrusion width = 0.56mm (6.20mm^3/s)
; top infill extrusion width = 0.56mm (5.17mm^3/s)

M107
M104 S210 ; set temperature
; -- START GCODE --
	G90                     ;set to absolute positioning
G28                     ;move to Home
G92 E0                  ;zero the extruded length
G1 F7200                ;set feedrate to travel_speed value
; -- end of START GCODE --
; Filament gcode

M109 S210 ; set temperature and wait for it to be reached
G21 ; set units to millimeters
G90 ; use absolute coordinates
M82 ; use absolute distances for extrusion
G92 E0
G1 Z0.200 F9000.000
G1 E-4.00000 F2400.00000
G92 E0
G1 X88.354 Y93.308 F9000.000
G1 E4.00000 F2400.00000
G1 F1800
G1 X89.276 Y92.491 E4.05297
G1 X90.031 Y91.909 E4.09396
G1 X90.587 Y91.526 E4.12297
G1 X91.483 Y90.977 E4.16815
G1 X92.573 Y90.405 E4.22111
G1 X93.446 Y90.021 E4.26210
G1 X94.077 Y89.782 E4.29112
G1 X95.253 Y89.415 E4.34408
G1 X96.275 Y89.170 E4.38926
G1 X97.214 Y89.006 E4.43025
G1 X97.884 Y88.925 E4.45927
G1 X98.835 Y88.859 E4.50026
G1 X99.451 Y88.846 E4.52675
G1 X115.549 Y88.846 E5.21886
G1 X116.165 Y88.859 E5.24535
G1 X117.116 Y88.925 E5.28634
G1 X117.786 Y89.006 E5.31536
G1 X118.997 Y89.228 E5.36832
G1 X119.747 Y89.415 E5.40152
G1 X120.659 Y89.691 E5.44251
G1 X121.811 Y90.128 E5.49548
G1 X122.427 Y90.405 E5.52449
G1 X123.275 Y90.840 E5.56548
G1 X124.413 Y91.526 E5.62264
G1 X124.969 Y91.909 E5.65165
G1 X125.724 Y92.491 E5.69264
G1 X126.443 Y93.117 E5.73363
G1 X126.957 Y93.612 E5.76431
G1 X127.383 Y94.057 E5.79080
G1 X128.009 Y94.776 E5.83179
G1 X128.591 Y95.531 E5.87278
G1 X128.974 Y96.087 E5.90180
G1 X129.660 Y97.225 E5.95895
G1 X130.095 Y98.073 E5.99994
G1 X130.479 Y98.946 E6.04093
G1 X130.718 Y99.577 E6.06995
G1 X131.010 Y100.485 E6.11093
G1 X131.330 Y101.775 E6.16809
G1 X131.452 Y102.439 E6.19710
G1 X131.575 Y103.384 E6.23809
G1 X131.641 Y104.335 E6.27908
G1 X131.654 Y105.049 E6.30976
G1 X131.641 Y105.665 E6.33625
G1 X131.575 Y106.616 E6.37724
G1 X131.494 Y107.286 E6.40626
G1 X131.330 Y108.225 E6.44724
G1 X131.010 Y109.515 E6.50440
G1 X130.718 Y110.423 E6.54539
G1 X130.372 Y111.311 E6.58638
G1 X129.973 Y112.177 E6.62738
G1 X129.467 Y113.115 E6.67320
G1 X128.974 Y113.913 E6.71354
G1 X128.425 Y114.693 E6.75454
G1 X127.831 Y115.438 E6.79553
G1 X127.192 Y116.146 E6.83652
G1 X126.443 Y116.883 E6.88170
G1 X125.724 Y117.509 E6.92269
G1 X124.969 Y118.091 E6.96368
G1 X124.179 Y118.625 E7.00467
G1 X123.275 Y119.160 E7.04985
G1 X122.427 Y119.595 E7.09084
G1 X121.554 Y119.979 E7.13184
G1 X120.659 Y120.309 E7.17282
G1 X119.747 Y120.585 E7.21382
G1 X118.997 Y120.772 E7.24702
G1 X118.061 Y120.952 E7.28801
G1 X117.116 Y121.075 E7.32900
G1 X115.886 Y121.149 E7.38196
G1 X99.451 Y121.154 E8.08859
G1 X98.835 Y121.141 E8.11508
G1 X97.884 Y121.075 E8.15607
G1 X97.214 Y120.994 E8.18508
G1 X96.003 Y120.772 E8.23805
G1 X95.253 Y120.585 E8.27125
G1 X94.341 Y120.309 E8.31224
G1 X93.189 Y119.872 E8.36520
G1 X92.323 Y119.473 E8.40620
G1 X91.385 Y118.967 E8.45202
G1 X90.587 Y118.474 E8.49236
G1 X89.807 Y117.925 E8.53336
G1 X89.062 Y117.331 E8.57435
G1 X88.354 Y116.692 E8.61534
G1 X87.617 Y115.943 E8.66052
G1 X86.991 Y115.224 E8.70151
G1 X86.409 Y114.469 E8.74250
G1 X85.875 Y113.679 E8.78349
G1 X85.340 Y112.775 E8.82867
G1 X84.905 Y111.927 E8.86966
G1 X84.521 Y111.054 E8.91065
G1 X84.191 Y110.159 E8.95165
G1 X83.885 Y109.138 E8.99747
G1 X83.670 Y108.225 E9.03782
G1 X83.506 Y107.286 E9.07881
G1 X83.378 Y106.058 E9.13188
G1 X83.347 Y105.337 E9.16289
G1 X83.347 Y104.663 E9.19190
G1 X83.375 Y103.991 E9.22081
G1 X83.506 Y102.714 E9.27598
G1 X83.670 Y101.775 E9.31697
G1 X83.885 Y100.862 E9.35732
G1 X84.191 Y99.841 E9.40314
G1 X84.521 Y98.946 E9.44414
G1 X84.905 Y98.073 E9.48513
G1 X85.340 Y97.225 E9.52612
G1 X85.875 Y96.321 E9.57130
G1 X86.409 Y95.531 E9.61229
G1 X86.991 Y94.776 E9.65328
G1 X87.617 Y94.057 E9.69427
G1 X88.311 Y93.349 E9.73687
G1 X88.708 Y93.684 F9000.000
G1 F1800
G1 X89.607 Y92.888 E9.78850
G1 X90.338 Y92.326 E9.82814
G1 X90.868 Y91.960 E9.85581
G1 X91.737 Y91.427 E9.89965
G1 X92.800 Y90.869 E9.95127
G1 X93.644 Y90.499 E9.99092
G1 X94.246 Y90.270 E10.01859
G1 X95.392 Y89.913 E10.07021
G1 X96.384 Y89.676 E10.11405
G1 X97.292 Y89.518 E10.15370
G1 X97.931 Y89.440 E10.18137
G1 X98.851 Y89.376 E10.22101
G1 X99.451 Y89.363 E10.24683
G1 X115.549 Y89.363 E10.93895
G1 X116.149 Y89.376 E10.96476
G1 X117.069 Y89.440 E11.00441
G1 X117.708 Y89.518 E11.03208
G1 X118.889 Y89.734 E11.08371
G1 X119.608 Y89.913 E11.11556
G1 X120.491 Y90.180 E11.15521
G1 X121.613 Y90.605 E11.20684
G1 X122.200 Y90.869 E11.23451
G1 X123.021 Y91.290 E11.27415
G1 X124.132 Y91.960 E11.32996
G1 X124.662 Y92.326 E11.35764
G1 X125.393 Y92.888 E11.39728
G1 X126.089 Y93.493 E11.43693
G1 X126.592 Y93.977 E11.46694
G1 X127.007 Y94.411 E11.49275
G1 X127.612 Y95.107 E11.53240
G1 X128.174 Y95.838 E11.57205
G1 X128.540 Y96.368 E11.59972
G1 X129.210 Y97.479 E11.65553
G1 X129.631 Y98.300 E11.69518
G1 X130.001 Y99.144 E11.73483
G1 X130.230 Y99.746 E11.76250
G1 X130.512 Y100.624 E11.80215
G1 X130.824 Y101.884 E11.85796
G1 X130.982 Y102.792 E11.89761
G1 X131.060 Y103.431 E11.92528
G1 X131.124 Y104.351 E11.96492
G1 X131.137 Y105.049 E11.99493
G1 X131.124 Y105.649 E12.02075
G1 X131.060 Y106.569 E12.06040
G1 X130.982 Y107.208 E12.08807
G1 X130.825 Y108.116 E12.12771
G1 X130.512 Y109.376 E12.18353
G1 X130.230 Y110.254 E12.22318
G1 X129.895 Y111.113 E12.26282
G1 X129.509 Y111.951 E12.30247
G1 X129.019 Y112.856 E12.34673
G1 X128.540 Y113.632 E12.38596
G1 X128.009 Y114.387 E12.42561
G1 X127.434 Y115.107 E12.46525
G1 X126.816 Y115.792 E12.50490
G1 X126.089 Y116.507 E12.54874
G1 X125.393 Y117.112 E12.58839
G1 X124.662 Y117.674 E12.62803
G1 X123.898 Y118.191 E12.66768
G1 X123.021 Y118.709 E12.71152
G1 X122.200 Y119.131 E12.75117
G1 X121.356 Y119.501 E12.79082
G1 X120.491 Y119.820 E12.83046
G1 X119.608 Y120.087 E12.87011
G1 X118.889 Y120.266 E12.90197
G1 X117.983 Y120.440 E12.94162
G1 X117.069 Y120.560 E12.98127
G1 X115.871 Y120.632 E13.03289
G1 X99.451 Y120.637 E13.73884
G1 X98.851 Y120.624 E13.76466
G1 X97.931 Y120.560 E13.80431
G1 X97.292 Y120.482 E13.83198
G1 X96.111 Y120.266 E13.88360
G1 X95.392 Y120.087 E13.91546
G1 X94.509 Y119.820 E13.95510
G1 X93.387 Y119.395 E14.00673
G1 X92.549 Y119.009 E14.04638
G1 X91.643 Y118.519 E14.09064
G1 X90.868 Y118.040 E14.12986
G1 X90.113 Y117.509 E14.16951
G1 X89.393 Y116.934 E14.20916
G1 X88.708 Y116.316 E14.24881
G1 X87.993 Y115.589 E14.29264
G1 X87.388 Y114.893 E14.33229
G1 X86.826 Y114.162 E14.37194
G1 X86.309 Y113.398 E14.41159
G1 X85.790 Y112.521 E14.45543
G1 X85.369 Y111.700 E14.49507
G1 X84.999 Y110.856 E14.53472
G1 X84.680 Y109.991 E14.57437
G1 X84.385 Y109.004 E14.61863
G1 X84.176 Y108.116 E14.65785
G1 X84.018 Y107.208 E14.69750
G1 X83.894 Y106.024 E14.74867
G1 X83.864 Y105.322 E14.77890
G1 X83.864 Y104.678 E14.80657
G1 X83.891 Y104.025 E14.83469
G1 X84.018 Y102.792 E14.88796
G1 X84.176 Y101.884 E14.92761
G1 X84.385 Y100.996 E14.96683
G1 X84.680 Y100.009 E15.01109
G1 X84.999 Y99.144 E15.05074
G1 X85.369 Y98.300 E15.09039
G1 X85.790 Y97.479 E15.13004
G1 X86.309 Y96.602 E15.17388
G1 X86.826 Y95.838 E15.21353
G1 X87.388 Y95.107 E15.25317
G1 X87.993 Y94.411 E15.29282
G1 X88.665 Y93.726 E15.33408
G1 X89.063 Y94.061 F9000.000
G1 F1800
G1 X89.938 Y93.285 E15.38436
G1 X90.644 Y92.742 E15.42266
G1 X91.148 Y92.395 E15.44899
G1 X91.991 Y91.878 E15.49149
G1 X93.026 Y91.334 E15.54176
G1 X93.842 Y90.976 E15.58007
G1 X94.415 Y90.759 E15.60640
G1 X95.531 Y90.411 E15.65668
G1 X96.492 Y90.181 E15.69917
G1 X97.370 Y90.029 E15.73747
G1 X97.978 Y89.955 E15.76380
G1 X98.867 Y89.893 E15.80211
G1 X99.451 Y89.880 E15.82725
G1 X115.549 Y89.880 E16.51937
G1 X116.133 Y89.893 E16.54451
G1 X117.022 Y89.955 E16.58282
G1 X117.630 Y90.029 E16.60915
G1 X118.780 Y90.240 E16.65943
G1 X119.737 Y90.486 E16.70192
G1 X120.322 Y90.668 E16.72825
G1 X121.158 Y90.976 E16.76655
G1 X121.974 Y91.334 E16.80486
G1 X122.767 Y91.741 E16.84316
G1 X123.852 Y92.395 E16.89763
G1 X124.356 Y92.742 E16.92396
G1 X125.062 Y93.285 E16.96227
G1 X125.735 Y93.870 E17.00057
G1 X126.157 Y94.274 E17.02572
G1 X126.630 Y94.765 E17.05505
G1 X127.215 Y95.438 E17.09336
G1 X127.758 Y96.144 E17.13166
G1 X128.105 Y96.648 E17.15799
G1 X128.759 Y97.733 E17.21246
G1 X129.044 Y98.276 E17.23878
G1 X129.417 Y99.085 E17.27709
G1 X129.741 Y99.915 E17.31539
G1 X130.014 Y100.763 E17.35370
G1 X130.319 Y101.992 E17.40817
G1 X130.429 Y102.594 E17.43450
G1 X130.545 Y103.478 E17.47280
G1 X130.607 Y104.367 E17.51110
G1 X130.620 Y104.951 E17.53625
G1 X130.607 Y105.633 E17.56559
G1 X130.545 Y106.522 E17.60389
G1 X130.471 Y107.130 E17.63022
G1 X130.319 Y108.008 E17.66852
G1 X130.014 Y109.237 E17.72299
G1 X129.832 Y109.822 E17.74932
G1 X129.524 Y110.658 E17.78762
G1 X129.166 Y111.474 E17.82593
G1 X128.759 Y112.267 E17.86424
G1 X128.257 Y113.118 E17.90673
G1 X127.758 Y113.856 E17.94504
G1 X127.215 Y114.562 E17.98334
G1 X126.630 Y115.235 E18.02165
G1 X125.937 Y115.939 E18.06414
G1 X125.276 Y116.536 E18.10245
G1 X124.580 Y117.092 E18.14075
G1 X123.852 Y117.605 E18.17906
G1 X123.098 Y118.072 E18.21717
G1 X122.224 Y118.544 E18.25985
G1 X121.415 Y118.917 E18.29816
G1 X120.585 Y119.241 E18.33646
G1 X119.737 Y119.514 E18.37477
G1 X118.780 Y119.760 E18.41727
G1 X117.630 Y119.971 E18.46754
G1 X116.745 Y120.070 E18.50585
G1 X115.855 Y120.116 E18.54415
G1 X99.145 Y120.116 E19.26260
G1 X97.978 Y120.045 E19.31288
G1 X97.370 Y119.971 E19.33920
G1 X96.492 Y119.819 E19.37751
G1 X95.263 Y119.514 E19.43198
G1 X94.678 Y119.332 E19.45830
G1 X93.842 Y119.024 E19.49661
G1 X93.026 Y118.666 E19.53492
G1 X91.991 Y118.122 E19.58520
G1 X91.148 Y117.605 E19.62769
G1 X90.420 Y117.092 E19.66600
G1 X89.724 Y116.536 E19.70430
G1 X89.063 Y115.939 E19.74261
G1 X88.370 Y115.235 E19.78510
G1 X87.785 Y114.562 E19.82340
G1 X87.242 Y113.856 E19.86171
G1 X86.743 Y113.118 E19.90001
G1 X86.241 Y112.267 E19.94251
G1 X85.834 Y111.474 E19.98081
G1 X85.476 Y110.658 E20.01912
G1 X85.168 Y109.822 E20.05742
G1 X84.884 Y108.870 E20.10012
G1 X84.681 Y108.008 E20.13822
G1 X84.529 Y107.130 E20.17653
G1 X84.410 Y105.990 E20.22580
G1 X84.381 Y105.306 E20.25524
G1 X84.381 Y104.694 E20.28156
G1 X84.407 Y104.058 E20.30891
G1 X84.529 Y102.870 E20.36028
G1 X84.681 Y101.992 E20.39858
G1 X84.884 Y101.130 E20.43668
G1 X85.168 Y100.178 E20.47938
G1 X85.476 Y99.342 E20.51769
G1 X85.834 Y98.526 E20.55599
G1 X86.241 Y97.733 E20.59429
G1 X86.743 Y96.882 E20.63679
G1 X87.242 Y96.144 E20.67510
G1 X87.785 Y95.438 E20.71340
G1 X88.370 Y94.765 E20.75170
G1 X89.019 Y94.102 E20.79162
G1 X89.417 Y94.437 F9000.000
G1 F1800
G1 X90.269 Y93.682 E20.84056
G1 X90.951 Y93.159 E20.87752
G1 X91.429 Y92.829 E20.90250
G1 X92.245 Y92.328 E20.94365
G1 X93.253 Y91.799 E20.99259
G1 X94.040 Y91.454 E21.02955
G1 X94.583 Y91.248 E21.05454
G1 X95.670 Y90.909 E21.10347
G1 X96.601 Y90.687 E21.14462
G1 X97.448 Y90.540 E21.18159
G1 X98.025 Y90.470 E21.20657
G1 X98.882 Y90.410 E21.24353
G1 X99.451 Y90.397 E21.26801
G1 X116.118 Y90.410 E21.98459
G1 X116.975 Y90.470 E22.02155
G1 X117.552 Y90.540 E22.04654
G1 X118.672 Y90.745 E22.09548
G1 X119.599 Y90.984 E22.13663
G1 X120.153 Y91.157 E22.16161
G1 X120.960 Y91.454 E22.19857
G1 X121.747 Y91.799 E22.23553
G1 X122.513 Y92.191 E22.27250
G1 X123.571 Y92.829 E22.32562
G1 X124.049 Y93.159 E22.35061
G1 X124.731 Y93.682 E22.38757
G1 X125.380 Y94.246 E22.42453
G1 X125.792 Y94.640 E22.44901
G1 X126.254 Y95.120 E22.47767
G1 X126.818 Y95.769 E22.51463
G1 X127.341 Y96.451 E22.55159
G1 X127.671 Y96.929 E22.57658
G1 X128.309 Y97.987 E22.62970
G1 X128.579 Y98.502 E22.65469
G1 X128.939 Y99.282 E22.69165
G1 X129.252 Y100.083 E22.72861
G1 X129.516 Y100.901 E22.76557
G1 X129.813 Y102.101 E22.81870
G1 X129.960 Y102.948 E22.85566
G1 X130.030 Y103.525 E22.88065
G1 X130.090 Y104.382 E22.91761
G1 X130.103 Y104.951 E22.94208
G1 X130.090 Y105.618 E22.97075
G1 X130.030 Y106.475 E23.00771
G1 X129.960 Y107.052 E23.03270
G1 X129.813 Y107.899 E23.06965
G1 X129.516 Y109.099 E23.12278
G1 X129.343 Y109.653 E23.14777
G1 X129.046 Y110.460 E23.18473
G1 X128.701 Y111.247 E23.22169
G1 X128.309 Y112.013 E23.25865
G1 X127.823 Y112.837 E23.29980
G1 X127.341 Y113.549 E23.33677
G1 X126.818 Y114.231 E23.37373
G1 X126.254 Y114.880 E23.41069
G1 X125.583 Y115.563 E23.45184
G1 X124.945 Y116.139 E23.48881
G1 X124.274 Y116.676 E23.52577
G1 X123.571 Y117.171 E23.56273
G1 X122.839 Y117.624 E23.59972
G1 X121.998 Y118.079 E23.64084
G1 X121.218 Y118.439 E23.67781
G1 X120.417 Y118.752 E23.71477
G1 X119.599 Y119.016 E23.75173
G1 X118.672 Y119.255 E23.79288
G1 X117.828 Y119.418 E23.82984
G1 X116.975 Y119.530 E23.86681
G1 X115.839 Y119.599 E23.91574
G1 X99.161 Y119.599 E24.63284
G1 X98.025 Y119.530 E24.68178
G1 X97.448 Y119.460 E24.70676
G1 X96.601 Y119.313 E24.74373
G1 X95.401 Y119.016 E24.79685
G1 X94.583 Y118.752 E24.83381
G1 X94.040 Y118.546 E24.85880
G1 X93.253 Y118.201 E24.89576
G1 X92.245 Y117.672 E24.94470
G1 X91.429 Y117.171 E24.98585
G1 X90.726 Y116.676 E25.02281
G1 X90.055 Y116.139 E25.05977
G1 X89.417 Y115.563 E25.09674
G1 X88.746 Y114.880 E25.13789
G1 X88.182 Y114.231 E25.17485
G1 X87.659 Y113.549 E25.21181
G1 X87.177 Y112.837 E25.24877
G1 X86.691 Y112.013 E25.28992
G1 X86.299 Y111.247 E25.32689
G1 X85.954 Y110.460 E25.36385
G1 X85.657 Y109.653 E25.40081
G1 X85.384 Y108.737 E25.44194
G1 X85.187 Y107.899 E25.47892
G1 X85.040 Y107.052 E25.51589
G1 X84.926 Y105.956 E25.56326
G1 X84.898 Y105.291 E25.59191
G1 X84.923 Y104.092 E25.64344
G1 X85.040 Y102.948 E25.69291
G1 X85.187 Y102.101 E25.72987
G1 X85.384 Y101.263 E25.76686
G1 X85.657 Y100.347 E25.80798
G1 X85.954 Y99.540 E25.84495
G1 X86.299 Y98.753 E25.88191
G1 X86.691 Y97.987 E25.91887
G1 X87.177 Y97.163 E25.96002
G1 X87.659 Y96.451 E25.99699
G1 X88.182 Y95.769 E26.03395
G1 X88.746 Y95.120 E26.07091
G1 X89.374 Y94.479 E26.10948
G1 X89.771 Y94.814 F9000.000
G1 F1800
G1 X90.600 Y94.080 E26.15708
G1 X91.257 Y93.575 E26.19270
G1 X91.710 Y93.263 E26.21634
G1 X92.499 Y92.779 E26.25614
G1 X93.479 Y92.264 E26.30374
G1 X94.238 Y91.932 E26.33936
G1 X94.752 Y91.737 E26.36300
G1 X95.809 Y91.407 E26.41059
G1 X96.709 Y91.192 E26.45040
G1 X97.526 Y91.051 E26.48602
G1 X98.071 Y90.985 E26.50966
G1 X98.898 Y90.926 E26.54528
G1 X99.451 Y90.914 E26.56908
G1 X116.102 Y90.926 E27.28500
G1 X116.929 Y90.985 E27.32061
G1 X117.474 Y91.051 E27.34426
G1 X118.563 Y91.251 E27.39185
G1 X119.460 Y91.482 E27.43166
G1 X119.985 Y91.646 E27.45530
G1 X120.762 Y91.932 E27.49092
G1 X121.521 Y92.264 E27.52654
G1 X122.259 Y92.642 E27.56216
G1 X123.290 Y93.263 E27.61394
G1 X123.743 Y93.575 E27.63758
G1 X124.400 Y94.080 E27.67320
G1 X125.026 Y94.623 E27.70882
G1 X125.426 Y95.005 E27.73263
G1 X125.877 Y95.474 E27.76062
G1 X126.420 Y96.100 E27.79624
G1 X126.925 Y96.757 E27.83185
G1 X127.237 Y97.210 E27.85550
G1 X127.858 Y98.241 E27.90728
G1 X128.236 Y98.979 E27.94290
G1 X128.462 Y99.480 E27.96654
G1 X128.763 Y100.252 E28.00216
G1 X129.018 Y101.040 E28.03778
G1 X129.308 Y102.209 E28.08956
G1 X129.407 Y102.750 E28.11320
G1 X129.515 Y103.571 E28.14882
G1 X129.574 Y104.398 E28.18444
G1 X129.586 Y104.951 E28.20824
G1 X129.574 Y105.602 E28.23624
G1 X129.515 Y106.429 E28.27185
G1 X129.449 Y106.974 E28.29550
G1 X129.308 Y107.791 E28.33111
G1 X129.018 Y108.960 E28.38290
G1 X128.854 Y109.485 E28.40654
G1 X128.568 Y110.262 E28.44216
G1 X128.236 Y111.021 E28.47778
G1 X127.858 Y111.759 E28.51340
G1 X127.388 Y112.556 E28.55320
G1 X126.925 Y113.243 E28.58883
G1 X126.420 Y113.900 E28.62444
G1 X125.877 Y114.526 E28.66006
G1 X125.229 Y115.186 E28.69987
G1 X124.614 Y115.742 E28.73549
G1 X123.967 Y116.259 E28.77111
G1 X123.290 Y116.737 E28.80673
G1 X122.665 Y117.127 E28.83842
G1 X121.772 Y117.614 E28.88216
G1 X121.020 Y117.962 E28.91778
G1 X120.248 Y118.263 E28.95340
G1 X119.460 Y118.518 E28.98902
G1 X118.563 Y118.749 E29.02883
G1 X117.750 Y118.907 E29.06444
G1 X116.929 Y119.015 E29.10007
G1 X115.824 Y119.082 E29.14766
