; generated by Slic3r 1.3.0-dev on 2018-08-19 at 11:50:41

; external perimeters extrusion width = 0.44mm (2.38mm^3/s)
; perimeters extrusion width = 0.56mm (3.62mm^3/s)
; infill extrusion width = 0.50mm (5.48mm^3/s)
; solid infill extrusion width = 0.56mm (6.20mm^3/s)
; top infill extrusion width = 0.56mm (5.17mm^3/s)

M107
M104 S210 ; set temperature
; -- START GCODE --
	G90                     ;set to absolute positioning
G28                     ;move to Home
G92 E0                  ;zero the extruded length
G1 F7200                ;set feedrate to travel_speed value
; -- end of START GCODE --
; Filament gcode

M109 S210 ; set temperature and wait for it to be reached
G21 ; set units to millimeters
G90 ; use absolute coordinates
M82 ; use absolute distances for extrusion
G92 E0
G1 Z0.200 F9000.000
G1 E-4.00000 F2400.00000
G92 E0
G1 X90.061 Y94.015 F9000.000
G1 E4.00000 F2400.00000
G1 F1800
G1 X90.893 Y93.278 E4.04778
G1 X91.599 Y92.732 E4.08617
G1 X92.155 Y92.349 E4.11519
G1 X93.000 Y91.833 E4.15777
G1 X93.984 Y91.316 E4.20554
G1 X94.599 Y91.039 E4.23455
G1 X95.432 Y90.717 E4.27294
G1 X96.493 Y90.386 E4.32072
G1 X97.455 Y90.154 E4.36330
G1 X98.119 Y90.032 E4.39232
G1 X99.005 Y89.918 E4.43071
G1 X99.896 Y89.857 E4.46911
G1 X100.451 Y89.846 E4.49300
G1 X115.104 Y89.857 E5.12301
G1 X115.995 Y89.918 E5.16140
G1 X116.665 Y89.999 E5.19042
G1 X117.758 Y90.199 E5.23819
G1 X118.507 Y90.386 E5.27139
G1 X119.362 Y90.645 E5.30979
G1 X120.401 Y91.039 E5.35756
G1 X121.016 Y91.316 E5.38657
G1 X121.810 Y91.726 E5.42497
G1 X122.845 Y92.349 E5.47693
G1 X123.400 Y92.732 E5.50594
G1 X124.107 Y93.278 E5.54434
G1 X124.780 Y93.865 E5.58273
G1 X125.250 Y94.319 E5.61081
G1 X125.635 Y94.720 E5.63470
G1 X126.222 Y95.393 E5.67310
G1 X126.638 Y95.924 E5.70211
G1 X127.151 Y96.655 E5.74051
G1 X127.774 Y97.690 E5.79247
G1 X128.184 Y98.484 E5.83086
G1 X128.544 Y99.301 E5.86926
G1 X128.855 Y100.138 E5.90765
G1 X129.055 Y100.782 E5.93666
G1 X129.346 Y101.955 E5.98863
G1 X129.501 Y102.835 E6.02702
G1 X129.582 Y103.505 E6.05603
G1 X129.643 Y104.396 E6.09443
G1 X129.654 Y105.049 E6.12251
G1 X129.643 Y105.604 E6.14640
G1 X129.582 Y106.495 E6.18480
G1 X129.501 Y107.165 E6.21381
G1 X129.346 Y108.045 E6.25220
G1 X129.055 Y109.218 E6.30417
G1 X128.783 Y110.068 E6.34256
G1 X128.461 Y110.901 E6.38095
G1 X128.088 Y111.712 E6.41935
G1 X127.611 Y112.598 E6.46258
G1 X127.151 Y113.345 E6.50033
G1 X126.638 Y114.076 E6.53872
G1 X126.082 Y114.775 E6.57712
G1 X125.485 Y115.439 E6.61551
G1 X124.780 Y116.135 E6.65810
G1 X124.107 Y116.722 E6.69649
G1 X123.400 Y117.268 E6.73488
G1 X122.662 Y117.769 E6.77328
G1 X121.810 Y118.274 E6.81586
G1 X121.016 Y118.684 E6.85426
G1 X120.199 Y119.044 E6.89265
G1 X119.362 Y119.355 E6.93104
G1 X118.507 Y119.614 E6.96944
G1 X117.758 Y119.801 E7.00264
G1 X116.881 Y119.968 E7.04103
G1 X115.995 Y120.082 E7.07943
G1 X114.886 Y120.149 E7.12720
G1 X99.896 Y120.143 E7.77172
G1 X99.222 Y120.102 E7.80074
G1 X98.335 Y120.001 E7.83913
G1 X97.242 Y119.801 E7.88690
G1 X96.493 Y119.614 E7.92010
G1 X95.638 Y119.355 E7.95850
G1 X94.599 Y118.961 E8.00627
G1 X93.788 Y118.588 E8.04467
G1 X92.902 Y118.111 E8.08790
G1 X92.155 Y117.651 E8.12565
G1 X91.424 Y117.138 E8.16404
G1 X90.725 Y116.582 E8.20243
G1 X90.061 Y115.985 E8.24083
G1 X89.365 Y115.280 E8.28341
G1 X88.778 Y114.607 E8.32181
G1 X88.232 Y113.900 E8.36020
G1 X87.731 Y113.162 E8.39860
G1 X87.226 Y112.310 E8.44118
G1 X86.816 Y111.516 E8.47957
G1 X86.456 Y110.699 E8.51797
G1 X86.145 Y109.862 E8.55636
G1 X85.856 Y108.899 E8.59959
G1 X85.654 Y108.045 E8.63734
G1 X85.499 Y107.165 E8.67573
G1 X85.376 Y105.997 E8.72622
G1 X85.347 Y105.337 E8.75462
G1 X85.347 Y104.663 E8.78363
G1 X85.373 Y104.051 E8.80994
G1 X85.499 Y102.835 E8.86252
G1 X85.654 Y101.955 E8.90091
G1 X85.856 Y101.101 E8.93866
G1 X86.145 Y100.138 E8.98190
G1 X86.456 Y99.301 E9.02029
G1 X86.816 Y98.484 E9.05868
G1 X87.226 Y97.690 E9.09708
G1 X87.731 Y96.838 E9.13966
G1 X88.232 Y96.099 E9.17806
G1 X88.778 Y95.393 E9.21645
G1 X89.365 Y94.720 E9.25484
G1 X90.018 Y94.057 E9.29485
G1 X90.415 Y94.391 F9000.000
G1 F1800
G1 X91.224 Y93.675 E9.34128
G1 X91.906 Y93.149 E9.37833
G1 X92.436 Y92.783 E9.40600
G1 X93.254 Y92.283 E9.44724
G1 X94.210 Y91.781 E9.49367
G1 X94.797 Y91.517 E9.52134
G1 X95.600 Y91.205 E9.55839
G1 X96.632 Y90.884 E9.60482
G1 X97.564 Y90.659 E9.64606
G1 X98.197 Y90.543 E9.67373
G1 X99.052 Y90.433 E9.71078
G1 X99.911 Y90.374 E9.74784
G1 X100.451 Y90.363 E9.77106
G1 X115.089 Y90.374 E10.40039
G1 X115.948 Y90.433 E10.43745
G1 X116.587 Y90.510 E10.46512
G1 X117.650 Y90.705 E10.51155
G1 X118.368 Y90.884 E10.54341
G1 X119.193 Y91.134 E10.58046
G1 X120.203 Y91.517 E10.62689
G1 X120.790 Y91.781 E10.65456
G1 X121.556 Y92.176 E10.69161
G1 X122.564 Y92.783 E10.74223
G1 X123.094 Y93.149 E10.76990
G1 X123.776 Y93.675 E10.80695
G1 X124.426 Y94.242 E10.84400
G1 X124.885 Y94.684 E10.87141
G1 X125.258 Y95.074 E10.89463
G1 X125.825 Y95.724 E10.93169
G1 X126.222 Y96.230 E10.95936
G1 X126.717 Y96.936 E10.99641
G1 X127.324 Y97.944 E11.04702
G1 X127.719 Y98.710 E11.08408
G1 X128.066 Y99.499 E11.12113
G1 X128.295 Y100.100 E11.14880
G1 X128.557 Y100.921 E11.18585
G1 X128.841 Y102.064 E11.23647
G1 X128.990 Y102.913 E11.27352
G1 X129.067 Y103.552 E11.30119
G1 X129.126 Y104.411 E11.33824
G1 X129.137 Y105.049 E11.36565
G1 X129.126 Y105.589 E11.38887
G1 X129.067 Y106.448 E11.42593
G1 X128.990 Y107.087 E11.45360
G1 X128.841 Y107.936 E11.49065
G1 X128.557 Y109.079 E11.54126
G1 X128.295 Y109.900 E11.57832
G1 X127.983 Y110.703 E11.61537
G1 X127.623 Y111.486 E11.65242
G1 X127.164 Y112.339 E11.69408
G1 X126.717 Y113.064 E11.73071
G1 X126.222 Y113.770 E11.76776
G1 X125.685 Y114.444 E11.80482
G1 X125.109 Y115.085 E11.84187
G1 X124.426 Y115.758 E11.88311
G1 X123.776 Y116.325 E11.92016
G1 X123.094 Y116.851 E11.95721
G1 X122.381 Y117.335 E11.99426
G1 X121.556 Y117.824 E12.03550
G1 X120.790 Y118.219 E12.07256
G1 X120.001 Y118.566 E12.10961
G1 X119.193 Y118.866 E12.14666
G1 X118.368 Y119.116 E12.18371
G1 X117.650 Y119.295 E12.21557
G1 X116.803 Y119.457 E12.25262
G1 X115.948 Y119.567 E12.28967
G1 X114.870 Y119.632 E12.33610
G1 X99.911 Y119.626 E12.97928
G1 X99.269 Y119.587 E13.00695
G1 X98.413 Y119.490 E13.04400
G1 X97.350 Y119.295 E13.09043
G1 X96.632 Y119.116 E13.12229
G1 X95.807 Y118.866 E13.15934
G1 X94.797 Y118.483 E13.20577
G1 X94.014 Y118.123 E13.24282
G1 X93.161 Y117.664 E13.28448
G1 X92.436 Y117.217 E13.32111
G1 X91.730 Y116.722 E13.35816
G1 X91.056 Y116.185 E13.39522
G1 X90.415 Y115.609 E13.43227
G1 X89.742 Y114.926 E13.47351
G1 X89.175 Y114.276 E13.51056
G1 X88.649 Y113.594 E13.54761
G1 X88.165 Y112.881 E13.58467
G1 X87.676 Y112.056 E13.62590
G1 X87.281 Y111.290 E13.66296
G1 X86.934 Y110.501 E13.70001
G1 X86.634 Y109.693 E13.73706
G1 X86.356 Y108.765 E13.77872
G1 X86.159 Y107.936 E13.81535
G1 X86.010 Y107.087 E13.85240
G1 X85.892 Y105.964 E13.90099
G1 X85.864 Y105.322 E13.92860
G1 X85.864 Y104.678 E13.95627
G1 X85.889 Y104.085 E13.98179
G1 X86.010 Y102.913 E14.03247
G1 X86.159 Y102.064 E14.06953
G1 X86.356 Y101.235 E14.10615
G1 X86.634 Y100.307 E14.14782
G1 X86.934 Y99.499 E14.18487
G1 X87.281 Y98.710 E14.22192
G1 X87.676 Y97.944 E14.25897
G1 X88.165 Y97.119 E14.30021
G1 X88.649 Y96.406 E14.33727
G1 X89.175 Y95.724 E14.37431
G1 X89.742 Y95.074 E14.41137
G1 X90.372 Y94.433 E14.45003
G1 X90.770 Y94.768 F9000.000
G1 F1800
G1 X91.555 Y94.072 E14.49512
G1 X92.212 Y93.565 E14.53082
G1 X92.716 Y93.218 E14.55716
G1 X93.508 Y92.734 E14.59705
G1 X94.437 Y92.246 E14.64214
G1 X94.995 Y91.995 E14.66847
G1 X95.769 Y91.694 E14.70417
G1 X96.770 Y91.382 E14.74926
G1 X97.672 Y91.165 E14.78916
G1 X98.275 Y91.054 E14.81548
G1 X99.098 Y90.948 E14.85119
G1 X99.927 Y90.891 E14.88690
G1 X100.451 Y90.880 E14.90945
G1 X115.073 Y90.891 E15.53812
G1 X115.684 Y90.928 E15.56445
G1 X116.510 Y91.021 E15.60016
G1 X117.541 Y91.210 E15.64524
G1 X118.230 Y91.382 E15.67576
G1 X119.025 Y91.623 E15.71147
G1 X120.005 Y91.995 E15.75656
G1 X120.563 Y92.246 E15.78288
G1 X121.302 Y92.626 E15.81859
G1 X122.284 Y93.218 E15.86787
G1 X122.788 Y93.565 E15.89420
G1 X123.445 Y94.072 E15.92990
G1 X124.071 Y94.618 E15.96561
G1 X124.519 Y95.050 E15.99235
G1 X124.882 Y95.429 E16.01490
G1 X125.428 Y96.055 E16.05061
G1 X125.805 Y96.537 E16.07694
G1 X126.282 Y97.216 E16.11264
G1 X126.874 Y98.198 E16.16192
G1 X127.254 Y98.937 E16.19763
G1 X127.589 Y99.697 E16.23334
G1 X127.877 Y100.475 E16.26905
G1 X128.059 Y101.060 E16.29537
G1 X128.335 Y102.172 E16.34465
G1 X128.479 Y102.990 E16.38036
G1 X128.552 Y103.598 E16.40668
G1 X128.609 Y104.427 E16.44239
G1 X128.620 Y105.049 E16.46913
G1 X128.609 Y105.573 E16.49168
G1 X128.552 Y106.402 E16.52739
G1 X128.479 Y107.010 E16.55372
G1 X128.335 Y107.828 E16.58942
G1 X128.059 Y108.940 E16.63870
G1 X127.806 Y109.731 E16.67441
G1 X127.505 Y110.505 E16.71012
G1 X127.158 Y111.260 E16.74583
G1 X126.716 Y112.081 E16.78592
G1 X126.282 Y112.784 E16.82143
G1 X125.805 Y113.463 E16.85714
G1 X125.288 Y114.113 E16.89285
G1 X124.732 Y114.730 E16.92856
G1 X124.071 Y115.382 E16.96846
G1 X123.445 Y115.928 E17.00417
G1 X122.788 Y116.435 E17.03988
G1 X122.100 Y116.901 E17.07558
G1 X121.302 Y117.374 E17.11548
G1 X120.563 Y117.754 E17.15119
G1 X119.803 Y118.089 E17.18690
G1 X119.025 Y118.377 E17.22260
G1 X118.230 Y118.618 E17.25832
G1 X117.541 Y118.789 E17.28883
G1 X116.725 Y118.946 E17.32454
G1 X115.902 Y119.052 E17.36025
G1 X114.855 Y119.116 E17.40534
G1 X99.927 Y119.109 E18.04717
G1 X99.316 Y119.072 E18.07350
G1 X98.490 Y118.979 E18.10921
G1 X97.459 Y118.789 E18.15429
G1 X96.770 Y118.618 E18.18481
G1 X95.975 Y118.377 E18.22052
G1 X94.995 Y118.005 E18.26560
G1 X94.240 Y117.658 E18.30131
G1 X93.419 Y117.216 E18.34141
G1 X92.716 Y116.782 E18.37692
G1 X92.037 Y116.305 E18.41263
G1 X91.387 Y115.788 E18.44834
G1 X90.770 Y115.232 E18.48404
G1 X90.118 Y114.571 E18.52394
G1 X89.572 Y113.945 E18.55965
G1 X89.065 Y113.288 E18.59536
G1 X88.599 Y112.600 E18.63107
G1 X88.126 Y111.802 E18.67097
G1 X87.746 Y111.063 E18.70668
G1 X87.411 Y110.303 E18.74238
G1 X87.123 Y109.525 E18.77809
G1 X86.855 Y108.631 E18.81819
G1 X86.665 Y107.828 E18.85370
G1 X86.521 Y107.010 E18.88941
G1 X86.408 Y105.930 E18.93609
G1 X86.381 Y105.306 E18.96292
G1 X86.405 Y104.119 E19.01397
G1 X86.521 Y102.991 E19.06275
G1 X86.665 Y102.172 E19.09846
G1 X86.855 Y101.369 E19.13397
G1 X87.123 Y100.475 E19.17407
G1 X87.411 Y99.697 E19.20978
G1 X87.746 Y98.937 E19.24548
G1 X88.126 Y98.198 E19.28119
G1 X88.599 Y97.400 E19.32109
G1 X89.065 Y96.712 E19.35680
G1 X89.572 Y96.055 E19.39251
G1 X90.118 Y95.429 E19.42822
G1 X90.727 Y94.810 E19.46554
G1 X91.124 Y95.144 F9000.000
G1 F1800
G1 X91.886 Y94.470 E19.50928
G1 X92.519 Y93.982 E19.54365
G1 X92.997 Y93.652 E19.56863
G1 X93.762 Y93.184 E19.60718
G1 X94.663 Y92.711 E19.65093
G1 X95.193 Y92.473 E19.67592
G1 X95.938 Y92.183 E19.71028
G1 X96.909 Y91.880 E19.75403
G1 X97.781 Y91.670 E19.79258
G1 X98.353 Y91.566 E19.81756
G1 X99.145 Y91.463 E19.85193
G1 X99.943 Y91.408 E19.88630
G1 X100.451 Y91.397 E19.90817
G1 X115.057 Y91.408 E20.53617
G1 X115.855 Y91.463 E20.57053
G1 X116.432 Y91.533 E20.59552
G1 X117.432 Y91.716 E20.63926
G1 X118.091 Y91.880 E20.66843
G1 X118.856 Y92.112 E20.70280
G1 X119.807 Y92.473 E20.74655
G1 X120.337 Y92.711 E20.77153
G1 X121.048 Y93.077 E20.80590
G1 X122.003 Y93.652 E20.85383
G1 X122.481 Y93.982 E20.87882
G1 X123.114 Y94.470 E20.91318
G1 X123.717 Y94.995 E20.94755
G1 X124.153 Y95.416 E20.97361
G1 X124.505 Y95.783 E20.99549
G1 X125.030 Y96.386 E21.02986
G1 X125.389 Y96.843 E21.05484
G1 X125.848 Y97.497 E21.08921
G1 X126.423 Y98.452 E21.13714
G1 X126.789 Y99.163 E21.17151
G1 X127.111 Y99.895 E21.20587
G1 X127.388 Y100.644 E21.24024
G1 X127.561 Y101.199 E21.26522
G1 X127.830 Y102.281 E21.31315
G1 X127.934 Y102.852 E21.33814
G1 X128.037 Y103.645 E21.37250
G1 X128.092 Y104.443 E21.40687
G1 X128.103 Y105.049 E21.43294
G1 X128.092 Y105.557 E21.45481
G1 X128.037 Y106.355 E21.48918
G1 X127.967 Y106.932 E21.51416
G1 X127.830 Y107.719 E21.54853
G1 X127.561 Y108.801 E21.59646
G1 X127.317 Y109.562 E21.63083
G1 X127.027 Y110.307 E21.66519
G1 X126.693 Y111.033 E21.69956
G1 X126.268 Y111.822 E21.73809
G1 X125.848 Y112.503 E21.77248
G1 X125.389 Y113.157 E21.80685
G1 X124.891 Y113.782 E21.84121
G1 X124.356 Y114.376 E21.87558
G1 X123.717 Y115.005 E21.91413
G1 X123.114 Y115.530 E21.94850
G1 X122.481 Y116.018 E21.98286
G1 X121.820 Y116.467 E22.01723
G1 X121.048 Y116.923 E22.05578
G1 X120.337 Y117.289 E22.09015
G1 X119.605 Y117.611 E22.12452
G1 X118.856 Y117.888 E22.15888
G1 X118.091 Y118.120 E22.19325
G1 X117.432 Y118.284 E22.22242
G1 X116.648 Y118.434 E22.25678
G1 X115.855 Y118.537 E22.29115
G1 X114.839 Y118.599 E22.33490
G1 X99.943 Y118.592 E22.97539
G1 X99.363 Y118.557 E23.00037
G1 X98.568 Y118.467 E23.03474
G1 X97.568 Y118.284 E23.07848
G1 X96.909 Y118.120 E23.10765
G1 X96.144 Y117.888 E23.14202
G1 X95.193 Y117.527 E23.18576
G1 X94.467 Y117.193 E23.22013
G1 X93.678 Y116.768 E23.25866
G1 X92.997 Y116.348 E23.29305
G1 X92.343 Y115.889 E23.32741
G1 X91.718 Y115.391 E23.36178
G1 X91.124 Y114.856 E23.39615
G1 X90.495 Y114.217 E23.43470
G1 X89.970 Y113.614 E23.46907
G1 X89.482 Y112.981 E23.50343
G1 X89.033 Y112.320 E23.53780
G1 X88.577 Y111.548 E23.57635
G1 X88.211 Y110.837 E23.61072
G1 X87.889 Y110.105 E23.64509
G1 X87.612 Y109.356 E23.67945
G1 X87.355 Y108.497 E23.71798
G1 X87.170 Y107.719 E23.75237
G1 X87.033 Y106.932 E23.78674
G1 X86.924 Y105.896 E23.83152
G1 X86.898 Y105.291 E23.85757
G1 X86.921 Y104.153 E23.90649
G1 X87.033 Y103.068 E23.95337
G1 X87.170 Y102.281 E23.98774
G1 X87.355 Y101.503 E24.02212
G1 X87.612 Y100.644 E24.06066
G1 X87.889 Y99.895 E24.09502
G1 X88.211 Y99.163 E24.12939
G1 X88.577 Y98.452 E24.16375
G1 X89.033 Y97.680 E24.20231
G1 X89.482 Y97.019 E24.23667
G1 X89.970 Y96.386 E24.27104
G1 X90.495 Y95.783 E24.30541
G1 X91.081 Y95.186 E24.34138
G1 X91.478 Y95.521 F9000.000
G1 F1800
G1 X92.217 Y94.867 E24.38378
G1 X92.825 Y94.398 E24.41680
G1 X93.278 Y94.086 E24.44045
G1 X94.016 Y93.634 E24.47766
G1 X94.889 Y93.176 E24.52006
G1 X95.391 Y92.950 E24.54370
G1 X96.106 Y92.672 E24.57672
G1 X97.048 Y92.378 E24.61913
G1 X97.889 Y92.176 E24.65634
G1 X98.430 Y92.077 E24.67998
G1 X99.192 Y91.978 E24.71300
G1 X99.958 Y91.925 E24.74602
G1 X100.451 Y91.914 E24.76723
G1 X115.042 Y91.925 E25.39455
G1 X115.808 Y91.978 E25.42758
G1 X116.354 Y92.044 E25.45122
G1 X117.324 Y92.222 E25.49362
G1 X118.162 Y92.437 E25.53083
G1 X118.687 Y92.601 E25.55448
G1 X119.408 Y92.867 E25.58750
G1 X120.111 Y93.176 E25.62052
G1 X120.794 Y93.527 E25.65354
G1 X121.722 Y94.086 E25.70013
G1 X122.175 Y94.398 E25.72377
G1 X122.783 Y94.867 E25.75680
G1 X123.363 Y95.371 E25.78982
G1 X123.719 Y95.712 E25.81103
G1 X124.129 Y96.137 E25.83642
G1 X124.633 Y96.717 E25.86944
G1 X124.972 Y97.150 E25.89309
G1 X125.414 Y97.778 E25.92611
G1 X125.973 Y98.706 E25.97270
G1 X126.228 Y99.193 E25.99634
G1 X126.550 Y99.891 E26.02936
G1 X126.828 Y100.606 E26.06238
G1 X127.063 Y101.338 E26.09541
G1 X127.324 Y102.389 E26.14200
G1 X127.456 Y103.146 E26.17502
G1 X127.522 Y103.692 E26.19866
G1 X127.575 Y104.458 E26.23169
G1 X127.586 Y104.951 E26.25289
G1 X127.575 Y105.542 E26.27829
G1 X127.522 Y106.308 E26.31131
G1 X127.456 Y106.854 E26.33495
G1 X127.324 Y107.611 E26.36797
G1 X127.063 Y108.662 E26.41456
G1 X126.899 Y109.187 E26.43821
G1 X126.633 Y109.908 E26.47123
G1 X126.324 Y110.611 E26.50425
G1 X125.973 Y111.294 E26.53728
G1 X125.533 Y112.039 E26.57449
G1 X125.102 Y112.675 E26.60751
G1 X124.633 Y113.283 E26.64053
G1 X124.129 Y113.863 E26.67355
G1 X123.521 Y114.479 E26.71077
G1 X122.951 Y114.993 E26.74379
G1 X122.350 Y115.472 E26.77681
G1 X121.722 Y115.914 E26.80983
G1 X121.063 Y116.320 E26.84311
G1 X120.307 Y116.728 E26.88007
G1 X119.609 Y117.050 E26.91309
G1 X118.894 Y117.328 E26.94611
G1 X118.162 Y117.563 E26.97914
G1 X117.324 Y117.778 E27.01635
G1 X116.570 Y117.923 E27.04937
G1 X115.808 Y118.022 E27.08239
G1 X114.824 Y118.082 E27.12480
G1 X100.176 Y118.082 E27.75456
G1 X99.192 Y118.022 E27.79697
G1 X98.646 Y117.956 E27.82061
G1 X97.889 Y117.824 E27.85363
G1 X96.838 Y117.563 E27.90022
G1 X96.313 Y117.399 E27.92386
