; generated by Slic3r 1.3.0-dev on 2019-04-07 at 17:06:18

; external perimeters extrusion width = 0.44mm (2.38mm^3/s)
; perimeters extrusion width = 0.56mm (3.62mm^3/s)
; infill extrusion width = 0.50mm (5.48mm^3/s)
; solid infill extrusion width = 0.56mm (6.20mm^3/s)
; top infill extrusion width = 0.56mm (5.17mm^3/s)

M107
M104 S205 ; set temperature
; -- START GCODE --
	G90                     ;set to absolute positioning
G28                     ;move to Home
G92 E0                  ;zero the extruded length
G1 F7200                ;set feedrate to travel_speed value
; -- end of START GCODE --
; Filament gcode

M109 S205 ; set temperature and wait for it to be reached
G21 ; set units to millimeters
G90 ; use absolute coordinates
M82 ; use absolute distances for extrusion
G92 E0
G1 Z0.200 F9000.000
G1 E-4.00000 F2400.00000
G92 E0
G1 X83.370 Y92.054 F9000.000
G1 E4.00000 F2400.00000
G1 F1800
G1 X92.241 Y85.028 E4.48656
G1 X93.009 Y84.476 E4.52720
G1 X94.619 Y83.429 E4.60978
G1 X95.750 Y82.793 E4.66558
G1 X97.481 Y81.960 E4.74816
G1 X98.684 Y81.473 E4.80395
G1 X100.507 Y80.869 E4.88652
G1 X101.762 Y80.540 E4.94233
G1 X103.647 Y80.173 E5.02490
G1 X104.935 Y80.007 E5.08070
G1 X106.832 Y79.885 E5.16245
G1 X108.149 Y79.884 E5.21907
G1 X110.065 Y80.007 E5.30164
G1 X111.353 Y80.173 E5.35744
G1 X113.238 Y80.540 E5.44002
G1 X114.493 Y80.869 E5.49582
G1 X116.298 Y81.467 E5.57756
G1 X117.519 Y81.960 E5.63419
G1 X119.250 Y82.793 E5.71677
G1 X120.381 Y83.429 E5.77256
G1 X121.991 Y84.476 E5.85514
G1 X122.759 Y85.028 E5.89578
G1 X131.630 Y92.054 E6.38234
G1 X133.588 Y94.112 E6.50448
G1 X134.897 Y96.633 E6.62661
G1 X135.466 Y99.630 E6.75780
G1 X135.629 Y104.268 E6.95732
G1 X135.622 Y106.101 E7.03615
G1 X135.466 Y110.370 E7.21978
G1 X134.966 Y113.166 E7.34192
G1 X133.710 Y115.713 E7.46405
G1 X131.630 Y117.946 E7.59524
G1 X122.759 Y124.972 E8.08180
G1 X121.992 Y125.524 E8.12242
G1 X120.381 Y126.571 E8.20502
G1 X119.250 Y127.207 E8.26081
G1 X117.519 Y128.040 E8.34339
G1 X116.316 Y128.527 E8.39919
G1 X114.493 Y129.131 E8.48177
G1 X113.238 Y129.460 E8.53757
G1 X111.353 Y129.827 E8.62014
G1 X110.047 Y129.994 E8.67673
G1 X108.149 Y130.116 E8.75851
G1 X106.851 Y130.116 E8.81431
G1 X104.935 Y129.993 E8.89689
G1 X103.647 Y129.827 E8.95268
G1 X101.762 Y129.460 E9.03526
G1 X100.507 Y129.131 E9.09106
G1 X98.684 Y128.527 E9.17363
G1 X97.481 Y128.040 E9.22943
G1 X95.750 Y127.207 E9.31201
G1 X94.619 Y126.571 E9.36781
G1 X93.009 Y125.524 E9.45038
G1 X92.241 Y124.972 E9.49103
G1 X83.370 Y117.946 E9.97758
G1 X81.412 Y115.888 E10.09972
G1 X80.103 Y113.367 E10.22185
G1 X79.530 Y110.266 E10.35746
G1 X79.432 Y106.375 E10.52479
G1 X79.435 Y103.359 E10.65447
G1 X79.530 Y99.734 E10.81037
G1 X80.002 Y96.933 E10.93251
G1 X81.232 Y94.373 E11.05464
G1 X83.329 Y92.098 E11.18767
G1 X83.691 Y92.459 F9000.000
G1 F1800
G1 X92.562 Y85.433 E11.67423
G1 X93.291 Y84.909 E11.71280
G1 X94.901 Y83.862 E11.79538
G1 X95.974 Y83.259 E11.84833
G1 X97.688 Y82.434 E11.93009
G1 X98.847 Y81.964 E11.98385
G1 X100.670 Y81.359 E12.06643
G1 X101.861 Y81.047 E12.11938
G1 X103.746 Y80.680 E12.20195
G1 X104.968 Y80.523 E12.25491
G1 X106.865 Y80.401 E12.33665
G1 X108.116 Y80.400 E12.39043
G1 X110.032 Y80.523 E12.47300
G1 X111.254 Y80.680 E12.52596
G1 X113.139 Y81.047 E12.60853
G1 X114.330 Y81.359 E12.66149
G1 X116.153 Y81.964 E12.74407
G1 X117.295 Y82.426 E12.79701
G1 X119.026 Y83.259 E12.87959
G1 X120.099 Y83.863 E12.93254
G1 X121.709 Y84.910 E13.01512
G1 X122.438 Y85.433 E13.05369
G1 X131.309 Y92.459 E13.54024
G1 X133.208 Y94.471 E13.65921
G1 X134.457 Y96.940 E13.77817
G1 X134.950 Y99.649 E13.89656
G1 X135.112 Y104.268 E14.09527
G1 X135.105 Y106.083 E14.17328
G1 X134.950 Y110.351 E14.35692
G1 X134.452 Y113.073 E14.47588
G1 X133.201 Y115.540 E14.59484
G1 X131.309 Y117.541 E14.71323
G1 X122.438 Y124.567 E15.19979
G1 X121.710 Y125.090 E15.23833
G1 X120.099 Y126.137 E15.32093
G1 X119.026 Y126.741 E15.37388
G1 X117.295 Y127.574 E15.45646
G1 X116.153 Y128.036 E15.50942
G1 X114.330 Y128.641 E15.59199
G1 X113.139 Y128.953 E15.64494
G1 X111.254 Y129.320 E15.72751
G1 X110.014 Y129.478 E15.78126
G1 X108.116 Y129.600 E15.86304
G1 X106.884 Y129.600 E15.91599
G1 X104.968 Y129.477 E15.99857
G1 X103.746 Y129.320 E16.05152
G1 X101.861 Y128.953 E16.13409
G1 X100.670 Y128.641 E16.18705
G1 X98.847 Y128.036 E16.26962
G1 X97.705 Y127.574 E16.32258
G1 X95.974 Y126.741 E16.40515
G1 X94.901 Y126.137 E16.45810
G1 X93.291 Y125.091 E16.54068
G1 X92.562 Y124.567 E16.57925
G1 X83.691 Y117.541 E17.06581
G1 X81.792 Y115.529 E17.18477
G1 X80.543 Y113.060 E17.30373
G1 X80.047 Y110.252 E17.42631
G1 X79.949 Y106.375 E17.59306
G1 X79.952 Y103.373 E17.72216
G1 X80.047 Y99.748 E17.87806
G1 X80.517 Y97.021 E17.99702
G1 X81.743 Y94.541 E18.11599
G1 X83.650 Y92.503 E18.23599
G1 X84.012 Y92.864 F9000.000
G1 F1800
G1 X92.883 Y85.838 E18.72255
G1 X93.573 Y85.343 E18.75905
G1 X95.183 Y84.296 E18.84162
G1 X96.198 Y83.725 E18.89173
G1 X97.929 Y82.892 E18.97431
G1 X99.009 Y82.455 E19.02441
G1 X100.832 Y81.850 E19.10698
G1 X101.960 Y81.555 E19.15709
G1 X103.845 Y81.188 E19.23966
G1 X105.001 Y81.039 E19.28977
G1 X106.898 Y80.917 E19.37151
G1 X108.083 Y80.916 E19.42245
G1 X109.999 Y81.039 E19.50502
G1 X111.155 Y81.188 E19.55513
G1 X113.040 Y81.555 E19.63770
G1 X114.168 Y81.850 E19.68781
G1 X115.991 Y82.455 E19.77039
G1 X117.071 Y82.892 E19.82049
G1 X118.802 Y83.725 E19.90307
G1 X119.817 Y84.296 E19.95317
G1 X121.427 Y85.343 E20.03575
G1 X122.117 Y85.838 E20.07224
G1 X130.988 Y92.864 E20.55880
G1 X132.827 Y94.829 E20.67450
G1 X134.012 Y97.245 E20.79021
G1 X134.433 Y99.668 E20.89595
G1 X134.595 Y104.268 E21.09386
G1 X134.589 Y106.064 E21.17106
G1 X134.433 Y110.332 E21.35469
G1 X133.938 Y112.977 E21.47040
G1 X132.692 Y115.362 E21.58610
G1 X130.988 Y117.136 E21.69185
G1 X122.117 Y124.162 E22.17840
G1 X121.428 Y124.657 E22.21488
G1 X119.817 Y125.704 E22.29748
G1 X118.802 Y126.275 E22.34758
G1 X117.071 Y127.108 E22.43016
G1 X115.990 Y127.545 E22.48027
G1 X114.168 Y128.150 E22.56284
G1 X113.040 Y128.445 E22.61294
G1 X111.155 Y128.812 E22.69552
G1 X110.000 Y128.961 E22.74560
G1 X108.083 Y129.084 E22.82820
G1 X106.917 Y129.084 E22.87831
G1 X105.001 Y128.961 E22.96088
G1 X103.845 Y128.812 E23.01099
G1 X101.960 Y128.445 E23.09356
G1 X100.832 Y128.150 E23.14367
G1 X99.010 Y127.545 E23.22624
G1 X97.929 Y127.108 E23.27635
G1 X96.198 Y126.275 E23.35892
G1 X95.183 Y125.704 E23.40903
G1 X93.573 Y124.657 E23.49160
G1 X92.883 Y124.162 E23.52810
G1 X84.012 Y117.136 E24.01466
G1 X82.173 Y115.171 E24.13036
G1 X80.988 Y112.755 E24.24607
G1 X80.564 Y110.239 E24.35579
G1 X80.466 Y106.375 E24.52195
G1 X80.469 Y103.386 E24.65047
G1 X80.564 Y99.761 E24.80637
G1 X81.032 Y97.111 E24.92207
G1 X82.253 Y94.714 E25.03778
G1 X83.971 Y92.908 E25.14492
G1 X84.333 Y93.270 F9000.000
G1 F1800
G1 X93.204 Y86.244 E25.63147
G1 X93.855 Y85.776 E25.66590
G1 X95.465 Y84.729 E25.74848
G1 X96.423 Y84.191 E25.79573
G1 X98.154 Y83.358 E25.87832
G1 X99.172 Y82.946 E25.92557
G1 X100.995 Y82.341 E26.00814
G1 X102.058 Y82.062 E26.05540
G1 X103.944 Y81.696 E26.13798
G1 X105.034 Y81.555 E26.18524
G1 X106.951 Y81.432 E26.26784
G1 X108.050 Y81.432 E26.31507
G1 X109.966 Y81.555 E26.39764
G1 X111.056 Y81.696 E26.44491
G1 X112.942 Y82.062 E26.52748
G1 X114.005 Y82.341 E26.57474
G1 X115.828 Y82.946 E26.65732
G1 X116.847 Y83.358 E26.70457
G1 X118.577 Y84.191 E26.78715
G1 X119.535 Y84.730 E26.83441
G1 X121.146 Y85.777 E26.91699
G1 X121.796 Y86.244 E26.95141
G1 X130.667 Y93.270 E27.43796
G1 X132.445 Y95.185 E27.55032
G1 X133.564 Y97.546 E27.66267
G1 X133.916 Y99.687 E27.75595
G1 X134.078 Y104.268 E27.95304
G1 X134.072 Y106.045 E28.02943
G1 X133.916 Y110.313 E28.21306
G1 X133.425 Y112.879 E28.32542
G1 X132.184 Y115.179 E28.43777
G1 X130.667 Y116.730 E28.53105
G1 X121.796 Y123.756 E29.01761
G1 X121.146 Y124.223 E29.05201
G1 X119.535 Y125.270 E29.13461
G1 X118.577 Y125.809 E29.18186
G1 X116.847 Y126.642 E29.26444
G1 X115.828 Y127.054 E29.31170
G1 X114.005 Y127.659 E29.39427
G1 X112.942 Y127.938 E29.44153
G1 X111.056 Y128.304 E29.52411
G1 X109.967 Y128.445 E29.57134
G1 X108.050 Y128.568 E29.65394
G1 X106.950 Y128.568 E29.70120
G1 X105.034 Y128.445 E29.78378
G1 X103.944 Y128.304 E29.83104
G1 X102.058 Y127.938 E29.91361
G1 X100.995 Y127.659 E29.96087
G1 X99.172 Y127.054 E30.04344
G1 X98.153 Y126.642 E30.09071
G1 X96.423 Y125.809 E30.17328
G1 X95.465 Y125.271 E30.22054
G1 X93.855 Y124.224 E30.30311
G1 X93.204 Y123.756 E30.33754
G1 X84.333 Y116.730 E30.82410
G1 X82.555 Y114.815 E30.93645
G1 X81.436 Y112.454 E31.04880
G1 X81.081 Y110.225 E31.14583
G1 X80.983 Y106.375 E31.31141
G1 X80.986 Y103.400 E31.43935
G1 X81.081 Y99.775 E31.59525
G1 X81.546 Y97.204 E31.70760
G1 X82.763 Y94.891 E31.81995
G1 X84.291 Y93.313 E31.91440
G1 X84.654 Y93.675 F9000.000
G1 F1800
G1 X93.525 Y86.649 E32.40096
G1 X94.136 Y86.210 E32.43332
G1 X95.747 Y85.163 E32.51589
G1 X96.647 Y84.656 E32.56030
G1 X98.378 Y83.824 E32.64289
G1 X99.335 Y83.436 E32.68729
G1 X101.158 Y82.832 E32.76986
G1 X102.157 Y82.570 E32.81428
G1 X104.042 Y82.203 E32.89685
G1 X105.067 Y82.071 E32.94127
G1 X106.984 Y81.948 E33.02386
G1 X108.017 Y81.948 E33.06825
G1 X109.933 Y82.071 E33.15083
G1 X110.958 Y82.203 E33.19524
G1 X112.843 Y82.570 E33.27782
G1 X113.842 Y82.832 E33.32223
G1 X115.665 Y83.437 E33.40481
G1 X116.623 Y83.824 E33.44922
G1 X118.353 Y84.657 E33.53180
G1 X119.253 Y85.163 E33.57621
G1 X120.864 Y86.210 E33.65879
G1 X121.475 Y86.649 E33.69113
G1 X130.346 Y93.675 E34.17769
G1 X132.060 Y95.540 E34.28658
G1 X133.111 Y97.844 E34.39548
G1 X133.399 Y99.706 E34.47649
G1 X133.561 Y104.268 E34.67277
G1 X133.555 Y106.026 E34.74835
G1 X133.399 Y110.294 E34.93199
G1 X132.911 Y112.779 E35.04088
G1 X131.676 Y114.991 E35.14978
G1 X130.346 Y116.325 E35.23079
G1 X121.475 Y123.351 E35.71735
G1 X120.864 Y123.790 E35.74968
G1 X119.253 Y124.837 E35.83227
G1 X118.353 Y125.343 E35.87668
G1 X116.623 Y126.176 E35.95926
G1 X115.665 Y126.564 E36.00367
G1 X113.842 Y127.168 E36.08625
G1 X112.843 Y127.430 E36.13066
G1 X110.958 Y127.797 E36.21323
G1 X109.934 Y127.929 E36.25762
G1 X108.017 Y128.052 E36.34022
G1 X106.983 Y128.052 E36.38464
G1 X105.067 Y127.929 E36.46721
G1 X104.042 Y127.797 E36.51162
G1 X102.157 Y127.430 E36.59420
G1 X101.158 Y127.168 E36.63861
G1 X99.335 Y126.564 E36.72119
G1 X98.377 Y126.176 E36.76560
G1 X96.647 Y125.344 E36.84817
G1 X95.747 Y124.837 E36.89259
G1 X94.136 Y123.790 E36.97516
G1 X93.525 Y123.351 E37.00751
G1 X84.654 Y116.325 E37.49407
G1 X82.940 Y114.460 E37.60297
G1 X81.889 Y112.156 E37.71186
G1 X81.598 Y110.212 E37.79640
G1 X81.503 Y106.587 E37.95230
G1 X81.503 Y103.413 E38.08875
G1 X81.598 Y99.788 E38.24465
G1 X82.061 Y97.298 E38.35355
G1 X83.273 Y95.075 E38.46244
G1 X84.612 Y93.718 E38.54440
G1 X84.975 Y94.080 F9000.000
G1 F1800
G1 X93.847 Y87.054 E39.03096
G1 X94.418 Y86.643 E39.06124
G1 X96.028 Y85.596 E39.14382
G1 X96.871 Y85.122 E39.18538
G1 X98.602 Y84.290 E39.26797
G1 X99.498 Y83.927 E39.30952
G1 X101.321 Y83.323 E39.39210
G1 X102.256 Y83.078 E39.43367
G1 X104.141 Y82.711 E39.51624
G1 X105.100 Y82.587 E39.55781
G1 X107.017 Y82.464 E39.64040
G1 X107.983 Y82.464 E39.68195
G1 X109.900 Y82.587 E39.76452
G1 X110.859 Y82.711 E39.80609
G1 X112.744 Y83.078 E39.88866
G1 X113.679 Y83.323 E39.93023
G1 X115.502 Y83.927 E40.01281
G1 X116.398 Y84.290 E40.05437
G1 X118.129 Y85.122 E40.13695
G1 X118.972 Y85.596 E40.17851
G1 X120.582 Y86.643 E40.26109
G1 X121.153 Y87.054 E40.29137
G1 X130.025 Y94.080 E40.77792
G1 X131.673 Y95.893 E40.88325
G1 X132.654 Y98.137 E40.98858
G1 X132.883 Y99.725 E41.05753
G1 X133.043 Y104.268 E41.25300
G1 X133.038 Y106.007 E41.32777
G1 X132.883 Y110.275 E41.51140
G1 X132.398 Y112.676 E41.61673
G1 X131.169 Y114.796 E41.72206
G1 X130.025 Y115.920 E41.79101
G1 X121.153 Y122.946 E42.27757
G1 X120.582 Y123.356 E42.30783
G1 X118.972 Y124.404 E42.39042
G1 X118.129 Y124.878 E42.43198
G1 X116.398 Y125.710 E42.51456
G1 X115.502 Y126.073 E42.55613
G1 X113.679 Y126.677 E42.63870
G1 X112.744 Y126.922 E42.68027
G1 X110.859 Y127.289 E42.76285
G1 X109.901 Y127.413 E42.80439
G1 X107.983 Y127.536 E42.88699
G1 X107.017 Y127.536 E42.92856
G1 X105.100 Y127.413 E43.01113
G1 X104.141 Y127.289 E43.05270
G1 X102.256 Y126.922 E43.13527
G1 X101.321 Y126.677 E43.17684
G1 X99.498 Y126.073 E43.25941
G1 X98.602 Y125.710 E43.30098
G1 X96.871 Y124.878 E43.38355
G1 X96.028 Y124.404 E43.42512
G1 X94.418 Y123.357 E43.50769
G1 X93.847 Y122.946 E43.53797
G1 X84.975 Y115.920 E44.02453
G1 X83.327 Y114.107 E44.12986
G1 X82.346 Y111.863 E44.23518
G1 X82.115 Y110.198 E44.30745
G1 X82.017 Y106.375 E44.47186
G1 X82.020 Y103.427 E44.59863
G1 X82.115 Y99.802 E44.75453
G1 X82.575 Y97.396 E44.85985
G1 X83.782 Y95.264 E44.96518
G1 X84.933 Y94.123 E45.03486
G1 X85.296 Y94.486 F9000.000
G1 F1800
G1 X94.168 Y87.460 E45.52142
G1 X94.700 Y87.077 E45.54963
G1 X96.310 Y86.030 E45.63220
G1 X97.095 Y85.588 E45.67092
G1 X98.826 Y84.756 E45.75351
G1 X99.661 Y84.418 E45.79222
G1 X101.484 Y83.813 E45.87479
G1 X102.355 Y83.585 E45.91351
G1 X104.240 Y83.218 E45.99609
G1 X105.133 Y83.103 E46.03481
G1 X107.050 Y82.980 E46.11740
G1 X107.950 Y82.980 E46.15610
G1 X109.867 Y83.103 E46.23868
G1 X110.760 Y83.218 E46.27740
G1 X112.645 Y83.585 E46.35997
G1 X113.516 Y83.813 E46.39869
G1 X115.339 Y84.418 E46.48127
G1 X116.174 Y84.756 E46.51999
G1 X117.905 Y85.588 E46.60257
G1 X118.690 Y86.030 E46.64128
G1 X120.300 Y87.077 E46.72386
G1 X120.832 Y87.460 E46.75206
G1 X129.704 Y94.486 E47.23862
G1 X131.284 Y96.244 E47.34025
G1 X132.192 Y98.426 E47.44188
G1 X132.366 Y99.744 E47.49902
G1 X132.526 Y104.268 E47.69368
G1 X132.522 Y105.988 E47.76764
G1 X132.366 Y110.256 E47.95127
G1 X131.884 Y112.571 E48.05290
G1 X130.663 Y114.594 E48.15453
G1 X129.704 Y115.514 E48.21167
G1 X120.832 Y122.540 E48.69823
G1 X120.300 Y122.923 E48.72641
G1 X118.690 Y123.970 E48.80901
G1 X117.905 Y124.412 E48.84772
G1 X116.174 Y125.244 E48.93030
G1 X115.339 Y125.582 E48.96902
G1 X113.516 Y126.187 E49.05160
G1 X112.645 Y126.415 E49.09032
G1 X110.760 Y126.782 E49.17289
G1 X109.848 Y126.898 E49.21241
G1 X107.950 Y127.020 E49.29418
G1 X107.050 Y127.020 E49.33291
G1 X105.133 Y126.897 E49.41548
G1 X104.240 Y126.782 E49.45420
G1 X102.355 Y126.415 E49.53677
G1 X101.484 Y126.187 E49.57550
G1 X99.661 Y125.582 E49.65807
G1 X98.826 Y125.244 E49.69679
G1 X97.095 Y124.412 E49.77936
G1 X96.310 Y123.970 E49.81809
G1 X94.700 Y122.923 E49.90066
G1 X94.168 Y122.540 E49.92886
G1 X85.296 Y115.514 E50.41542
G1 X83.716 Y113.756 E50.51705
G1 X82.808 Y111.574 E50.61868
G1 X82.632 Y110.184 E50.67891
G1 X82.534 Y106.375 E50.84273
G1 X82.537 Y103.440 E50.96892
G1 X82.632 Y99.816 E51.12482
G1 X83.090 Y97.497 E51.22645
G1 X84.290 Y95.460 E51.32808
G1 X85.253 Y94.528 E51.38573
G1 X85.617 Y94.891 F9000.000
G1 F1800
G1 X94.489 Y87.865 E51.87229
G1 X94.982 Y87.510 E51.89842
G1 X96.592 Y86.463 E51.98099
G1 X97.319 Y86.054 E52.01687
G1 X99.050 Y85.222 E52.09945
G1 X99.824 Y84.909 E52.13532
G1 X101.646 Y84.304 E52.21789
G1 X102.454 Y84.093 E52.25376
G1 X104.339 Y83.726 E52.33634
G1 X105.166 Y83.619 E52.37221
G1 X107.083 Y83.496 E52.45481
G1 X107.917 Y83.496 E52.49066
G1 X109.834 Y83.619 E52.57323
G1 X110.661 Y83.726 E52.60911
G1 X112.546 Y84.093 E52.69168
G1 X113.354 Y84.304 E52.72756
G1 X115.177 Y84.909 E52.81013
G1 X115.950 Y85.222 E52.84601
G1 X117.681 Y86.054 E52.92858
G1 X118.408 Y86.463 E52.96445
G1 X120.018 Y87.510 E53.04703
G1 X120.511 Y87.865 E53.07316
G1 X129.383 Y94.891 E53.55972
G1 X130.892 Y96.593 E53.65751
G1 X131.849 Y99.762 E53.79987
G1 X132.005 Y104.031 E53.98350
G1 X132.005 Y105.969 E54.06687
G1 X131.849 Y110.238 E54.25050
G1 X131.371 Y112.461 E54.34830
G1 X129.383 Y115.109 E54.49065
G1 X120.511 Y122.135 E54.97721
G1 X120.018 Y122.489 E55.00333
G1 X118.408 Y123.537 E55.08592
G1 X117.681 Y123.946 E55.12179
G1 X115.950 Y124.778 E55.20437
G1 X115.176 Y125.091 E55.24024
G1 X113.354 Y125.696 E55.32281
G1 X112.546 Y125.907 E55.35869
G1 X110.661 Y126.274 E55.44126
G1 X109.815 Y126.382 E55.47794
G1 X107.917 Y126.504 E55.55971
G1 X107.083 Y126.504 E55.59559
G1 X105.166 Y126.381 E55.67816
G1 X104.339 Y126.274 E55.71403
