; generated by Slic3r 1.3.0-dev on 2019-05-05 at 10:44:20

; external perimeters extrusion width = 0.44mm (2.38mm^3/s)
; perimeters extrusion width = 0.56mm (3.62mm^3/s)
; infill extrusion width = 0.50mm (5.48mm^3/s)
; solid infill extrusion width = 0.56mm (6.20mm^3/s)
; top infill extrusion width = 0.56mm (5.17mm^3/s)

M107
M104 S205 ; set temperature
; -- START GCODE --
	G90                     ;set to absolute positioning
G28                     ;move to Home
G92 E0                  ;zero the extruded length
G1 F7200                ;set feedrate to travel_speed value
; -- end of START GCODE --
; Filament gcode

M109 S205 ; set temperature and wait for it to be reached
G21 ; set units to millimeters
G90 ; use absolute coordinates
M82 ; use absolute distances for extrusion
G92 E0
G1 Z0.200 F9000.000
G1 E-4.00000 F2400.00000
G92 E0
G1 X95.500 Y92.680 F9000.000
G1 E4.00000 F2400.00000
G1 F1800
G1 X95.958 Y92.250 E4.02700
G1 X97.137 Y91.275 E4.09277
G1 X97.647 Y90.904 E4.11989
G1 X98.940 Y90.084 E4.18574
G1 X99.491 Y89.781 E4.21279
G1 X100.883 Y89.126 E4.27891
G1 X101.462 Y88.897 E4.30569
G1 X102.917 Y88.424 E4.37147
G1 X103.528 Y88.267 E4.39858
G1 X105.033 Y87.980 E4.46446
G1 X105.656 Y87.901 E4.49148
G1 X107.186 Y87.805 E4.55738
G1 X107.814 Y87.805 E4.58437
G1 X109.346 Y87.901 E4.65038
G1 X109.967 Y87.980 E4.67727
G1 X111.472 Y88.267 E4.74314
G1 X112.080 Y88.423 E4.77017
G1 X113.536 Y88.896 E4.83599
G1 X114.122 Y89.128 E4.86306
G1 X115.514 Y89.784 E4.92923
G1 X116.059 Y90.083 E4.95596
G1 X117.352 Y90.904 E5.02182
G1 X117.861 Y91.273 E5.04886
G1 X119.042 Y92.250 E5.11475
G1 X119.500 Y92.680 E5.14175
G1 X120.549 Y93.798 E5.20765
G1 X120.949 Y94.281 E5.23465
G1 X121.850 Y95.521 E5.30055
G1 X122.187 Y96.051 E5.32755
G1 X122.925 Y97.395 E5.39345
G1 X123.192 Y97.963 E5.42044
G1 X123.756 Y99.388 E5.48634
G1 X123.951 Y99.985 E5.51334
G1 X124.331 Y101.467 E5.57914
G1 X124.449 Y102.086 E5.60624
G1 X124.641 Y103.607 E5.67213
G1 X124.681 Y104.234 E5.69913
G1 X124.681 Y105.766 E5.76503
G1 X124.641 Y106.393 E5.79203
G1 X124.449 Y107.914 E5.85793
G1 X124.332 Y108.530 E5.88492
G1 X123.951 Y110.014 E5.95079
G1 X123.756 Y110.612 E5.97782
G1 X123.193 Y112.035 E6.04362
G1 X122.925 Y112.605 E6.07072
G1 X122.187 Y113.949 E6.13662
G1 X121.850 Y114.479 E6.16362
G1 X120.945 Y115.724 E6.22978
G1 X120.549 Y116.202 E6.25651
G1 X119.500 Y117.320 E6.32241
G1 X119.042 Y117.750 E6.34941
G1 X117.861 Y118.726 E6.41530
G1 X117.353 Y119.096 E6.44230
G1 X116.059 Y119.917 E6.50819
G1 X115.509 Y120.219 E6.53520
G1 X114.122 Y120.872 E6.60110
G1 X113.538 Y121.103 E6.62810
G1 X112.080 Y121.577 E6.69400
G1 X111.472 Y121.733 E6.72099
G1 X109.967 Y122.020 E6.78689
G1 X109.344 Y122.099 E6.81389
G1 X107.814 Y122.195 E6.87979
G1 X107.186 Y122.195 E6.90679
G1 X105.656 Y122.099 E6.97269
G1 X105.033 Y122.020 E6.99968
G1 X103.528 Y121.733 E7.06558
G1 X102.920 Y121.577 E7.09258
G1 X101.463 Y121.103 E7.15844
G1 X100.878 Y120.872 E7.18547
G1 X99.491 Y120.219 E7.25137
G1 X98.941 Y119.917 E7.27837
G1 X97.647 Y119.096 E7.34427
G1 X97.139 Y118.727 E7.37127
G1 X95.959 Y117.751 E7.43710
G1 X95.500 Y117.320 E7.46416
G1 X94.451 Y116.202 E7.53006
G1 X94.051 Y115.719 E7.55706
G1 X93.150 Y114.479 E7.62296
G1 X92.813 Y113.949 E7.64996
G1 X92.075 Y112.606 E7.71584
G1 X91.808 Y112.037 E7.74285
G1 X91.242 Y110.607 E7.80898
G1 X91.049 Y110.015 E7.83575
G1 X90.668 Y108.530 E7.90165
G1 X90.551 Y107.914 E7.92865
G1 X90.359 Y106.393 E7.99455
G1 X90.319 Y105.766 E8.02154
G1 X90.320 Y104.227 E8.08771
G1 X90.359 Y103.607 E8.11444
G1 X90.550 Y102.087 E8.18029
G1 X90.668 Y101.470 E8.20734
G1 X91.049 Y99.985 E8.27324
G1 X91.244 Y99.388 E8.30023
G1 X91.808 Y97.963 E8.36611
G1 X92.075 Y97.395 E8.39313
G1 X92.813 Y96.053 E8.45897
G1 X93.150 Y95.521 E8.48602
G1 X94.051 Y94.282 E8.55191
G1 X94.451 Y93.798 E8.57892
G1 X95.459 Y92.724 E8.64224
G1 X95.854 Y93.057 F9000.000
G1 F1800
G1 X96.312 Y92.627 E8.66924
G1 X97.441 Y91.693 E8.73222
G1 X97.951 Y91.323 E8.75934
G1 X99.189 Y90.537 E8.82240
G1 X99.740 Y90.234 E8.84945
G1 X101.068 Y89.609 E8.91251
G1 X101.652 Y89.378 E8.93955
G1 X103.046 Y88.925 E9.00255
G1 X103.656 Y88.768 E9.02966
G1 X105.104 Y88.492 E9.09302
G1 X105.721 Y88.414 E9.11976
G1 X107.186 Y88.322 E9.18287
G1 X107.814 Y88.322 E9.20987
G1 X109.275 Y88.414 E9.27281
G1 X109.902 Y88.493 E9.29997
G1 X111.343 Y88.768 E9.36305
G1 X111.952 Y88.924 E9.39008
G1 X113.352 Y89.379 E9.45337
G1 X113.932 Y89.609 E9.48018
G1 X115.259 Y90.233 E9.54327
G1 X115.810 Y90.536 E9.57028
G1 X117.048 Y91.322 E9.63335
G1 X117.557 Y91.692 E9.66039
G1 X118.688 Y92.627 E9.72349
G1 X119.146 Y93.057 E9.75049
G1 X120.151 Y94.127 E9.81360
G1 X120.551 Y94.611 E9.84060
G1 X121.413 Y95.798 E9.90370
G1 X121.750 Y96.329 E9.93070
G1 X122.457 Y97.615 E9.99381
G1 X122.724 Y98.183 E10.02081
G1 X123.265 Y99.548 E10.08391
G1 X123.459 Y100.145 E10.11091
G1 X123.825 Y101.570 E10.17419
G1 X123.941 Y102.183 E10.20102
G1 X124.125 Y103.639 E10.26412
G1 X124.165 Y104.266 E10.29112
G1 X124.165 Y105.734 E10.35423
G1 X124.125 Y106.361 E10.38122
G1 X123.941 Y107.817 E10.44433
G1 X123.824 Y108.434 E10.47133
G1 X123.459 Y109.854 E10.53440
G1 X123.265 Y110.452 E10.56143
G1 X122.725 Y111.815 E10.62445
G1 X122.457 Y112.385 E10.65154
G1 X121.750 Y113.671 E10.71465
G1 X121.413 Y114.202 E10.74164
G1 X120.551 Y115.389 E10.80474
G1 X120.151 Y115.873 E10.83175
G1 X119.146 Y116.943 E10.89485
G1 X118.688 Y117.373 E10.92185
G1 X117.557 Y118.308 E10.98495
G1 X117.049 Y118.677 E11.01196
G1 X115.810 Y119.464 E11.07505
G1 X115.260 Y119.766 E11.10206
G1 X113.931 Y120.391 E11.16517
G1 X113.348 Y120.622 E11.19216
G1 X111.952 Y121.076 E11.25527
G1 X111.344 Y121.232 E11.28227
G1 X109.902 Y121.507 E11.34538
G1 X109.279 Y121.586 E11.37237
G1 X107.814 Y121.678 E11.43548
G1 X107.186 Y121.678 E11.46248
G1 X105.721 Y121.586 E11.52559
G1 X105.098 Y121.507 E11.55258
G1 X103.656 Y121.232 E11.61569
G1 X103.048 Y121.076 E11.64269
G1 X101.653 Y120.623 E11.70576
G1 X101.069 Y120.391 E11.73279
G1 X99.740 Y119.766 E11.79590
G1 X99.190 Y119.464 E11.82290
G1 X97.951 Y118.677 E11.88600
G1 X97.443 Y118.308 E11.91300
G1 X96.313 Y117.374 E11.97605
G1 X95.854 Y116.943 E12.00311
G1 X94.849 Y115.873 E12.06621
G1 X94.449 Y115.389 E12.09321
G1 X93.587 Y114.202 E12.15632
G1 X93.250 Y113.671 E12.18331
G1 X92.543 Y112.386 E12.24640
G1 X92.276 Y111.817 E12.27342
G1 X91.734 Y110.447 E12.33675
G1 X91.541 Y109.855 E12.36352
G1 X91.176 Y108.434 E12.42663
G1 X91.059 Y107.817 E12.45363
G1 X90.875 Y106.361 E12.51674
G1 X90.835 Y105.734 E12.54373
G1 X90.835 Y104.267 E12.60682
G1 X90.875 Y103.639 E12.63384
G1 X91.058 Y102.184 E12.69690
G1 X91.176 Y101.566 E12.72394
G1 X91.541 Y100.145 E12.78705
G1 X91.735 Y99.548 E12.81405
G1 X92.278 Y98.177 E12.87742
G1 X92.543 Y97.615 E12.90415
G1 X93.249 Y96.330 E12.96721
G1 X93.587 Y95.798 E12.99426
G1 X94.449 Y94.611 E13.05735
G1 X94.849 Y94.127 E13.08436
G1 X95.813 Y93.101 E13.14489
G1 X96.208 Y93.434 F9000.000
G1 F1800
G1 X96.666 Y93.004 E13.17189
G1 X97.745 Y92.112 E13.23208
G1 X98.255 Y91.741 E13.25920
G1 X99.438 Y90.990 E13.31947
G1 X99.990 Y90.687 E13.34651
G1 X101.264 Y90.088 E13.40705
G1 X101.843 Y89.858 E13.43382
G1 X103.174 Y89.425 E13.49403
G1 X103.785 Y89.269 E13.52114
G1 X105.163 Y89.006 E13.58143
G1 X105.786 Y88.927 E13.60845
G1 X107.186 Y88.839 E13.66876
G1 X107.814 Y88.839 E13.69576
G1 X109.220 Y88.928 E13.75635
G1 X109.837 Y89.006 E13.78307
G1 X111.214 Y89.269 E13.84336
G1 X111.823 Y89.425 E13.87039
G1 X113.156 Y89.858 E13.93063
G1 X113.741 Y90.090 E13.95770
G1 X115.010 Y90.687 E14.01799
G1 X115.561 Y90.989 E14.04501
G1 X116.745 Y91.741 E14.10529
G1 X117.253 Y92.110 E14.13232
G1 X118.334 Y93.004 E14.19264
G1 X118.792 Y93.434 E14.21964
G1 X119.752 Y94.457 E14.27995
G1 X120.152 Y94.941 E14.30695
G1 X120.977 Y96.075 E14.36726
G1 X121.313 Y96.606 E14.39426
G1 X121.989 Y97.835 E14.45458
G1 X122.257 Y98.403 E14.48157
G1 X122.773 Y99.707 E14.54189
G1 X122.967 Y100.305 E14.56889
G1 X123.315 Y101.661 E14.62911
G1 X123.434 Y102.280 E14.65620
G1 X123.609 Y103.672 E14.71651
G1 X123.649 Y104.299 E14.74351
G1 X123.649 Y105.701 E14.80383
G1 X123.609 Y106.328 E14.83082
G1 X123.434 Y107.720 E14.89114
G1 X123.316 Y108.337 E14.91814
G1 X122.967 Y109.695 E14.97842
G1 X122.773 Y110.293 E15.00545
G1 X122.257 Y111.595 E15.06568
G1 X121.989 Y112.165 E15.09276
G1 X121.313 Y113.394 E15.15308
G1 X120.977 Y113.925 E15.18008
G1 X120.152 Y115.059 E15.24038
G1 X119.752 Y115.543 E15.26739
G1 X118.792 Y116.566 E15.32770
G1 X118.334 Y116.996 E15.35470
G1 X117.253 Y117.890 E15.41501
G1 X116.745 Y118.259 E15.44201
G1 X115.561 Y119.011 E15.50232
G1 X115.010 Y119.313 E15.52933
G1 X113.741 Y119.910 E15.58964
G1 X113.157 Y120.142 E15.61664
G1 X111.823 Y120.575 E15.67695
G1 X111.215 Y120.731 E15.70395
G1 X109.837 Y120.994 E15.76427
G1 X109.214 Y121.073 E15.79126
G1 X107.814 Y121.161 E15.85158
G1 X107.186 Y121.161 E15.87858
G1 X105.786 Y121.073 E15.93889
G1 X105.163 Y120.994 E15.96589
G1 X103.785 Y120.731 E16.02620
G1 X103.177 Y120.575 E16.05320
G1 X101.843 Y120.142 E16.11349
G1 X101.259 Y119.910 E16.14051
G1 X99.990 Y119.313 E16.20083
G1 X99.439 Y119.011 E16.22783
G1 X98.255 Y118.259 E16.28814
G1 X97.747 Y117.890 E16.31514
G1 X96.667 Y116.997 E16.37540
G1 X96.208 Y116.566 E16.40245
G1 X95.248 Y115.543 E16.46277
G1 X94.848 Y115.059 E16.48976
G1 X94.023 Y113.925 E16.55008
G1 X93.687 Y113.394 E16.57708
G1 X93.011 Y112.165 E16.63737
G1 X92.743 Y111.597 E16.66439
G1 X92.227 Y110.294 E16.72466
G1 X92.033 Y109.695 E16.75170
G1 X91.684 Y108.337 E16.81202
G1 X91.566 Y107.720 E16.83902
G1 X91.391 Y106.328 E16.89933
G1 X91.351 Y105.701 E16.92633
G1 X91.351 Y104.299 E16.98662
G1 X91.391 Y103.672 E17.01364
G1 X91.566 Y102.281 E17.07391
G1 X91.684 Y101.663 E17.10095
G1 X92.033 Y100.305 E17.16127
G1 X92.227 Y99.707 E17.18827
G1 X92.746 Y98.397 E17.24885
G1 X93.011 Y97.835 E17.27558
G1 X93.686 Y96.607 E17.33584
G1 X94.023 Y96.075 E17.36289
G1 X94.848 Y94.941 E17.42320
G1 X95.248 Y94.457 E17.45020
G1 X96.167 Y93.478 E17.50794
G1 X96.562 Y93.811 F9000.000
G1 F1800
G1 X97.020 Y93.381 E17.53494
G1 X98.049 Y92.530 E17.59235
G1 X98.559 Y92.159 E17.61946
G1 X99.687 Y91.443 E17.67694
G1 X100.239 Y91.140 E17.70398
G1 X101.454 Y90.568 E17.76173
G1 X102.033 Y90.339 E17.78850
G1 X103.303 Y89.926 E17.84592
G1 X103.914 Y89.770 E17.87302
G1 X105.227 Y89.519 E17.93053
G1 X105.851 Y89.440 E17.95754
G1 X107.186 Y89.356 E18.01506
G1 X107.814 Y89.356 E18.04206
G1 X109.155 Y89.441 E18.09985
G1 X109.772 Y89.519 E18.12658
G1 X111.086 Y89.769 E18.18408
G1 X111.695 Y89.926 E18.21110
G1 X112.965 Y90.339 E18.26855
G1 X113.551 Y90.570 E18.29562
G1 X114.761 Y91.140 E18.35313
G1 X115.312 Y91.442 E18.38014
G1 X116.441 Y92.159 E18.43763
G1 X116.949 Y92.528 E18.46466
G1 X117.980 Y93.381 E18.52218
G1 X118.438 Y93.811 E18.54918
G1 X119.354 Y94.786 E18.60671
G1 X119.754 Y95.270 E18.63370
G1 X120.540 Y96.353 E18.69123
G1 X120.877 Y96.883 E18.71822
G1 X121.521 Y98.055 E18.77575
G1 X121.789 Y98.623 E18.80275
G1 X122.281 Y99.867 E18.86027
G1 X122.475 Y100.464 E18.88727
G1 X122.808 Y101.758 E18.94470
G1 X122.926 Y102.377 E18.97179
G1 X123.093 Y103.704 E19.02931
G1 X123.133 Y104.331 E19.05631
G1 X123.133 Y105.669 E19.11383
G1 X123.093 Y106.296 E19.14083
G1 X122.926 Y107.623 E19.19835
G1 X122.808 Y108.240 E19.22535
G1 X122.475 Y109.535 E19.28284
G1 X122.281 Y110.133 E19.30987
G1 X121.789 Y111.375 E19.36731
G1 X121.521 Y111.945 E19.39439
G1 X120.877 Y113.117 E19.45192
G1 X120.540 Y113.647 E19.47891
G1 X119.754 Y114.730 E19.53643
G1 X119.354 Y115.214 E19.56343
G1 X118.438 Y116.189 E19.62096
G1 X117.980 Y116.619 E19.64795
G1 X116.949 Y117.471 E19.70547
G1 X116.441 Y117.841 E19.73247
G1 X115.312 Y118.557 E19.78999
G1 X114.761 Y118.860 E19.81699
G1 X113.551 Y119.430 E19.87452
G1 X112.967 Y119.661 E19.90151
G1 X111.695 Y120.074 E19.95904
G1 X111.086 Y120.230 E19.98604
G1 X109.772 Y120.481 E20.04356
G1 X109.149 Y120.560 E20.07056
G1 X107.814 Y120.644 E20.12808
G1 X107.186 Y120.644 E20.15508
G1 X105.851 Y120.560 E20.21260
G1 X105.228 Y120.481 E20.23960
G1 X103.914 Y120.230 E20.29712
G1 X103.305 Y120.074 E20.32412
G1 X102.034 Y119.661 E20.38161
G1 X101.449 Y119.430 E20.40864
G1 X100.239 Y118.860 E20.46616
G1 X99.688 Y118.558 E20.49316
G1 X98.559 Y117.841 E20.55068
G1 X98.051 Y117.472 E20.57768
G1 X97.021 Y116.620 E20.63515
G1 X96.562 Y116.189 E20.66220
G1 X95.646 Y115.214 E20.71973
G1 X95.246 Y114.730 E20.74672
G1 X94.460 Y113.647 E20.80425
G1 X94.123 Y113.117 E20.83124
G1 X93.479 Y111.945 E20.88875
G1 X93.211 Y111.377 E20.91576
G1 X92.717 Y110.128 E20.97352
G1 X92.525 Y109.536 E21.00028
G1 X92.192 Y108.240 E21.05781
G1 X92.074 Y107.623 E21.08480
G1 X91.907 Y106.296 E21.14233
G1 X91.867 Y105.669 E21.16933
G1 X91.867 Y104.332 E21.22683
G1 X91.907 Y103.704 E21.25384
G1 X92.074 Y102.378 E21.31133
G1 X92.192 Y101.760 E21.33837
G1 X92.525 Y100.464 E21.39589
G1 X92.719 Y99.867 E21.42289
G1 X93.211 Y98.624 E21.48039
G1 X93.479 Y98.055 E21.50741
G1 X94.123 Y96.884 E21.56489
G1 X94.460 Y96.353 E21.59193
G1 X95.246 Y95.270 E21.64944
G1 X95.646 Y94.786 E21.67645
G1 X96.521 Y93.855 E21.73139
G1 X96.916 Y94.188 F9000.000
G1 F1800
G1 X97.374 Y93.758 E21.75839
G1 X98.353 Y92.948 E21.81302
G1 X98.863 Y92.578 E21.84012
G1 X99.937 Y91.896 E21.89481
G1 X100.488 Y91.593 E21.92185
G1 X101.645 Y91.049 E21.97681
G1 X102.223 Y90.820 E22.00358
G1 X103.432 Y90.427 E22.05821
G1 X104.042 Y90.270 E22.08531
G1 X105.292 Y90.032 E22.14002
G1 X105.916 Y89.953 E22.16704
G1 X107.186 Y89.873 E22.22177
G1 X107.814 Y89.873 E22.24876
G1 X109.091 Y89.954 E22.30376
G1 X109.707 Y90.032 E22.33049
G1 X110.957 Y90.270 E22.38520
G1 X111.566 Y90.427 E22.41222
G1 X112.775 Y90.819 E22.46689
G1 X113.360 Y91.051 E22.49395
G1 X114.512 Y91.593 E22.54866
G1 X115.062 Y91.896 E22.57568
G1 X116.137 Y92.577 E22.63038
G1 X116.645 Y92.947 E22.65741
G1 X117.626 Y93.758 E22.71214
G1 X118.084 Y94.188 E22.73914
G1 X118.955 Y95.116 E22.79387
G1 X119.356 Y95.600 E22.82086
G1 X120.104 Y96.630 E22.87560
G1 X120.440 Y97.160 E22.90259
G1 X121.053 Y98.275 E22.95733
G1 X121.321 Y98.843 E22.98432
G1 X121.789 Y100.027 E23.03905
G1 X121.983 Y100.624 E23.06605
G1 X122.301 Y101.861 E23.12097
G1 X122.418 Y102.474 E23.14778
G1 X122.577 Y103.737 E23.20251
G1 X122.617 Y104.364 E23.22951
G1 X122.617 Y105.636 E23.28424
G1 X122.577 Y106.263 E23.31124
G1 X122.418 Y107.526 E23.36597
G1 X122.300 Y108.143 E23.39296
G1 X121.984 Y109.375 E23.44767
G1 X121.789 Y109.973 E23.47470
G1 X121.322 Y111.155 E23.52935
G1 X121.053 Y111.725 E23.55642
G1 X120.440 Y112.840 E23.61116
G1 X120.104 Y113.370 E23.63815
G1 X119.356 Y114.400 E23.69287
G1 X118.955 Y114.884 E23.71988
G1 X118.084 Y115.812 E23.77461
G1 X117.626 Y116.242 E23.80161
G1 X116.645 Y117.053 E23.85633
G1 X116.137 Y117.422 E23.88334
G1 X115.057 Y118.107 E23.93833
G1 X114.512 Y118.407 E23.96507
G1 X113.360 Y118.949 E24.01980
G1 X112.777 Y119.180 E24.04679
G1 X111.566 Y119.573 E24.10153
G1 X110.958 Y119.730 E24.12852
G1 X109.707 Y119.968 E24.18326
G1 X109.084 Y120.047 E24.21025
G1 X107.814 Y120.127 E24.26498
G1 X107.186 Y120.127 E24.29198
G1 X105.916 Y120.047 E24.34671
G1 X105.293 Y119.968 E24.37371
G1 X104.042 Y119.730 E24.42844
G1 X103.434 Y119.573 E24.45544
G1 X102.224 Y119.180 E24.51014
G1 X101.640 Y118.949 E24.53717
G1 X100.488 Y118.407 E24.59190
G1 X99.938 Y118.104 E24.61890
G1 X98.863 Y117.422 E24.67363
G1 X98.355 Y117.053 E24.70063
G1 X97.375 Y116.243 E24.75530
G1 X96.916 Y115.812 E24.78235
G1 X96.045 Y114.884 E24.83709
G1 X95.644 Y114.400 E24.86408
G1 X94.896 Y113.370 E24.91881
G1 X94.560 Y112.840 E24.94581
G1 X93.947 Y111.725 E25.00053
G1 X93.679 Y111.157 E25.02754
G1 X93.209 Y109.968 E25.08250
G1 X93.017 Y109.376 E25.10927
G1 X92.700 Y108.143 E25.16400
G1 X92.582 Y107.526 E25.19100
G1 X92.423 Y106.263 E25.24573
G1 X92.383 Y105.636 E25.27273
G1 X92.383 Y104.364 E25.32744
G1 X92.423 Y103.737 E25.35445
G1 X92.582 Y102.475 E25.40915
G1 X92.700 Y101.857 E25.43618
G1 X93.017 Y100.624 E25.49092
G1 X93.211 Y100.027 E25.51791
G1 X93.679 Y98.844 E25.57263
G1 X93.947 Y98.275 E25.59964
G1 X94.559 Y97.161 E25.65433
G1 X94.896 Y96.630 E25.68137
G1 X95.644 Y95.600 E25.73609
