; generated by Slic3r 1.3.0-dev on 2019-06-02 at 11:15:30

; external perimeters extrusion width = 0.44mm (2.38mm^3/s)
; perimeters extrusion width = 0.56mm (3.62mm^3/s)
; infill extrusion width = 0.50mm (5.48mm^3/s)
; solid infill extrusion width = 0.56mm (6.20mm^3/s)
; top infill extrusion width = 0.56mm (5.17mm^3/s)

M107
M104 S205 ; set temperature
; -- START GCODE --
	G90                     ;set to absolute positioning
G28                     ;move to Home
G92 E0                  ;zero the extruded length
G1 F7200                ;set feedrate to travel_speed value
; -- end of START GCODE --
; Filament gcode

M109 S205 ; set temperature and wait for it to be reached
G21 ; set units to millimeters
G90 ; use absolute coordinates
M82 ; use absolute distances for extrusion
G92 E0
G1 Z0.200 F9000.000
G1 E-4.00000 F2400.00000
G92 E0
G1 X94.236 Y91.735 F9000.000
G1 E4.00000 F2400.00000
G1 F1800
G1 X96.657 Y89.878 E4.13119
G1 X99.476 Y88.710 E4.26238
G1 X102.500 Y88.312 E4.39354
G1 X112.500 Y88.312 E4.82349
G1 X115.525 Y88.710 E4.95468
G1 X118.344 Y89.878 E5.08587
G1 X120.765 Y91.736 E5.21706
G1 X122.622 Y94.157 E5.34826
G1 X123.790 Y96.976 E5.47945
G1 X124.188 Y100.000 E5.61060
G1 X124.188 Y110.000 E6.04056
G1 X123.790 Y113.025 E6.17175
G1 X122.622 Y115.844 E6.30294
G1 X120.764 Y118.265 E6.43413
G1 X118.343 Y120.122 E6.56532
G1 X115.524 Y121.290 E6.69651
G1 X112.500 Y121.688 E6.82767
G1 X102.500 Y121.688 E7.25762
G1 X99.475 Y121.290 E7.38881
G1 X96.656 Y120.122 E7.52000
G1 X94.235 Y118.264 E7.65119
G1 X92.378 Y115.843 E7.78238
G1 X91.210 Y113.024 E7.91357
G1 X90.812 Y110.000 E8.04473
G1 X90.812 Y100.000 E8.47469
G1 X91.210 Y96.975 E8.60588
G1 X92.378 Y94.156 E8.73707
G1 X94.199 Y91.783 E8.86568
G1 X94.745 Y91.960 F9000.000
G1 F1800
G1 X97.149 Y90.194 E8.99392
G1 X99.934 Y89.128 E9.12216
G1 X102.500 Y88.829 E9.23322
G1 X112.500 Y88.829 E9.66317
G1 X115.456 Y89.227 E9.79142
G1 X118.201 Y90.394 E9.91966
G1 X120.540 Y92.245 E10.04790
G1 X122.306 Y94.649 E10.17615
G1 X123.372 Y97.434 E10.30439
G1 X123.671 Y100.000 E10.41545
G1 X123.671 Y110.000 E10.84540
G1 X123.273 Y112.956 E10.97364
G1 X122.106 Y115.701 E11.10189
G1 X120.255 Y118.040 E11.23013
G1 X117.851 Y119.806 E11.35837
G1 X115.066 Y120.872 E11.48662
G1 X112.500 Y121.171 E11.59767
G1 X102.500 Y121.171 E12.02763
G1 X99.544 Y120.773 E12.15587
G1 X96.799 Y119.606 E12.28411
G1 X94.460 Y117.755 E12.41236
G1 X92.694 Y115.351 E12.54060
G1 X91.628 Y112.566 E12.66884
G1 X91.329 Y110.000 E12.77990
G1 X91.329 Y100.000 E13.20985
G1 X91.727 Y97.044 E13.33809
G1 X92.894 Y94.299 E13.46634
G1 X94.708 Y92.007 E13.59200
G1 X95.253 Y92.191 F9000.000
G1 F1800
G1 X97.639 Y90.520 E13.71723
G1 X100.388 Y89.558 E13.84245
G1 X102.500 Y89.346 E13.93372
G1 X112.500 Y89.346 E14.36368
G1 X115.385 Y89.744 E14.48890
G1 X118.055 Y90.909 E14.61413
G1 X120.309 Y92.753 E14.73936
G1 X121.980 Y95.139 E14.86458
G1 X122.942 Y97.888 E14.98981
G1 X123.154 Y100.000 E15.08108
G1 X123.154 Y110.000 E15.51103
G1 X122.756 Y112.885 E15.63626
G1 X121.591 Y115.555 E15.76148
G1 X119.747 Y117.809 E15.88671
G1 X117.361 Y119.480 E16.01194
G1 X114.612 Y120.442 E16.13716
G1 X112.500 Y120.654 E16.22843
G1 X102.500 Y120.654 E16.65839
G1 X99.615 Y120.256 E16.78361
G1 X96.945 Y119.091 E16.90884
G1 X94.691 Y117.247 E17.03407
G1 X93.020 Y114.861 E17.15929
G1 X92.058 Y112.112 E17.28452
G1 X91.846 Y110.000 E17.37579
G1 X91.846 Y100.000 E17.80574
G1 X92.244 Y97.115 E17.93097
G1 X93.409 Y94.445 E18.05619
G1 X95.215 Y92.237 E18.17884
G1 X95.761 Y92.428 F9000.000
G1 F1800
G1 X98.126 Y90.856 E18.30098
G1 X100.835 Y90.001 E18.42311
G1 X102.500 Y89.863 E18.49494
G1 X112.500 Y89.863 E18.92489
G1 X115.313 Y90.261 E19.04702
G1 X117.904 Y91.424 E19.16916
G1 X120.072 Y93.261 E19.29129
G1 X121.644 Y95.626 E19.41343
G1 X122.499 Y98.335 E19.53556
G1 X122.637 Y100.000 E19.60739
G1 X122.637 Y110.000 E20.03734
G1 X122.239 Y112.813 E20.15948
G1 X121.076 Y115.404 E20.28161
G1 X119.239 Y117.572 E20.40375
G1 X116.874 Y119.144 E20.52588
G1 X114.165 Y119.999 E20.64802
G1 X112.500 Y120.137 E20.71984
G1 X102.500 Y120.137 E21.14980
G1 X99.687 Y119.739 E21.27193
G1 X97.096 Y118.576 E21.39407
G1 X94.928 Y116.739 E21.51620
G1 X93.356 Y114.374 E21.63834
G1 X92.501 Y111.665 E21.76047
G1 X92.363 Y110.000 E21.83230
G1 X92.363 Y100.000 E22.26225
G1 X92.761 Y97.187 E22.38438
G1 X93.924 Y94.596 E22.50652
G1 X95.722 Y92.474 E22.62607
G1 X96.267 Y92.673 F9000.000
G1 F1800
G1 X98.610 Y91.202 E22.74504
G1 X102.500 Y90.380 E22.91596
G1 X112.500 Y90.380 E23.34592
G1 X115.238 Y90.778 E23.46488
G1 X117.750 Y91.939 E23.58384
G1 X119.827 Y93.767 E23.70281
G1 X121.298 Y96.110 E23.82177
G1 X122.120 Y100.000 E23.99270
G1 X122.120 Y110.000 E24.42265
G1 X121.722 Y112.738 E24.54161
G1 X120.561 Y115.250 E24.66058
G1 X118.733 Y117.327 E24.77954
G1 X116.390 Y118.798 E24.89850
G1 X112.500 Y119.620 E25.06943
G1 X102.500 Y119.620 E25.49938
G1 X99.762 Y119.222 E25.61835
G1 X97.250 Y118.061 E25.73731
G1 X95.173 Y116.233 E25.85627
G1 X93.702 Y113.890 E25.97524
G1 X92.880 Y110.000 E26.14616
G1 X92.880 Y100.000 E26.57612
G1 X93.278 Y97.262 E26.69508
G1 X94.439 Y94.750 E26.81404
G1 X96.227 Y92.718 E26.93042
G1 X96.772 Y92.926 F9000.000
G1 F1800
G1 X99.091 Y91.560 E27.04613
G1 X102.500 Y90.898 E27.19544
G1 X112.500 Y90.898 E27.62540
G1 X115.162 Y91.295 E27.74110
G1 X117.590 Y92.454 E27.85680
G1 X119.574 Y94.272 E27.97251
G1 X120.940 Y96.591 E28.08821
G1 X121.602 Y100.000 E28.23753
G1 X121.602 Y110.000 E28.66748
G1 X121.205 Y112.662 E28.78318
G1 X120.046 Y115.090 E28.89889
G1 X118.228 Y117.074 E29.01459
G1 X115.909 Y118.440 E29.13030
G1 X112.500 Y119.102 E29.27961
G1 X102.500 Y119.102 E29.70956
G1 X99.838 Y118.705 E29.82527
G1 X97.410 Y117.546 E29.94097
G1 X95.426 Y115.728 E30.05668
G1 X94.060 Y113.409 E30.17238
G1 X93.398 Y110.000 E30.32169
G1 X93.398 Y100.000 E30.75165
G1 X93.795 Y97.338 E30.86735
G1 X94.954 Y94.910 E30.98306
G1 X96.732 Y92.970 E31.09618
G1 X97.276 Y93.187 F9000.000
G1 F1800
G1 X99.568 Y91.931 E31.20853
G1 X102.500 Y91.415 E31.33655
G1 X112.500 Y91.415 E31.76651
G1 X115.083 Y91.812 E31.87886
G1 X117.426 Y92.968 E31.99121
G1 X119.313 Y94.776 E32.10356
G1 X120.569 Y97.068 E32.21591
G1 X121.085 Y100.000 E32.34394
G1 X121.085 Y110.000 E32.77389
G1 X120.688 Y112.583 E32.88624
G1 X119.532 Y114.926 E32.99859
G1 X117.724 Y116.813 E33.11094
G1 X115.432 Y118.069 E33.22330
G1 X112.500 Y118.585 E33.35132
G1 X102.500 Y118.585 E33.78127
G1 X99.917 Y118.188 E33.89362
G1 X97.574 Y117.032 E34.00597
G1 X95.687 Y115.224 E34.11833
G1 X94.431 Y112.932 E34.23068
G1 X93.915 Y110.000 E34.35870
G1 X93.915 Y100.000 E34.78865
G1 X94.312 Y97.417 E34.90100
G1 X95.468 Y95.074 E35.01336
G1 X97.235 Y93.230 E35.12313
G1 X97.778 Y93.458 F9000.000
G1 F1800
G1 X100.039 Y92.316 E35.23202
G1 X102.500 Y91.932 E35.33911
G1 X112.500 Y91.932 E35.76907
G1 X115.001 Y92.329 E35.87796
G1 X117.256 Y93.483 E35.98686
G1 X119.042 Y95.278 E36.09575
G1 X120.184 Y97.539 E36.20465
G1 X120.568 Y100.000 E36.31174
G1 X120.568 Y110.000 E36.74169
G1 X120.171 Y112.501 E36.85059
G1 X119.017 Y114.756 E36.95948
G1 X117.222 Y116.542 E37.06838
G1 X114.961 Y117.684 E37.17727
G1 X112.500 Y118.068 E37.28436
G1 X102.500 Y118.068 E37.71432
G1 X99.999 Y117.671 E37.82321
G1 X97.744 Y116.517 E37.93211
G1 X95.958 Y114.722 E38.04100
G1 X94.816 Y112.461 E38.14990
G1 X94.432 Y110.000 E38.25699
G1 X94.432 Y100.000 E38.68694
G1 X94.829 Y97.499 E38.79584
G1 X95.983 Y95.244 E38.90473
G1 X97.736 Y93.500 E39.01105
G1 X98.278 Y93.739 F9000.000
G1 F1800
G1 X100.505 Y92.717 E39.11637
G1 X102.500 Y92.449 E39.20293
G1 X112.500 Y92.449 E39.63288
G1 X114.917 Y92.846 E39.73821
G1 X117.080 Y93.996 E39.84353
G1 X118.761 Y95.778 E39.94886
G1 X119.783 Y98.005 E40.05418
G1 X120.051 Y100.000 E40.14074
G1 X120.051 Y110.000 E40.57070
G1 X119.654 Y112.417 E40.67602
G1 X118.504 Y114.580 E40.78135
G1 X116.722 Y116.261 E40.88667
G1 X114.495 Y117.283 E40.99200
G1 X112.500 Y117.551 E41.07855
G1 X102.500 Y117.551 E41.50851
G1 X100.083 Y117.154 E41.61383
G1 X97.920 Y116.004 E41.71916
G1 X96.239 Y114.222 E41.82448
G1 X95.217 Y111.995 E41.92981
G1 X94.949 Y110.000 E42.01637
G1 X94.949 Y100.000 E42.44632
G1 X95.346 Y97.583 E42.55165
G1 X96.496 Y95.420 E42.65697
G1 X98.235 Y93.780 E42.75972
G1 X98.776 Y94.032 F9000.000
G1 F1800
G1 X100.963 Y93.136 E42.86135
G1 X102.500 Y92.966 E42.92782
G1 X112.500 Y92.966 E43.35777
G1 X114.830 Y93.363 E43.45940
G1 X116.897 Y94.510 E43.56103
G1 X118.468 Y96.276 E43.66266
G1 X119.364 Y98.463 E43.76429
G1 X119.534 Y100.000 E43.83077
G1 X119.534 Y110.000 E44.26072
G1 X119.137 Y112.330 E44.36235
G1 X117.990 Y114.397 E44.46398
G1 X116.224 Y115.968 E44.56561
G1 X114.037 Y116.864 E44.66724
G1 X112.500 Y117.034 E44.73371
G1 X102.500 Y117.034 E45.16367
G1 X100.170 Y116.637 E45.26530
G1 X98.103 Y115.490 E45.36693
G1 X96.532 Y113.724 E45.46856
G1 X95.636 Y111.537 E45.57019
G1 X95.466 Y110.000 E45.63666
G1 X95.466 Y100.000 E46.06661
G1 X95.863 Y97.670 E46.16825
G1 X97.010 Y95.603 E46.26988
G1 X98.731 Y94.072 E46.36893
G1 X99.271 Y94.339 F9000.000
G1 F1800
G1 X102.500 Y93.483 E46.51255
G1 X112.500 Y93.483 E46.94250
G1 X114.740 Y93.880 E47.04030
G1 X116.707 Y95.022 E47.13810
G1 X118.161 Y96.771 E47.23589
G1 X119.017 Y100.000 E47.37952
G1 X119.017 Y110.000 E47.80947
G1 X118.620 Y112.240 E47.90727
G1 X117.478 Y114.207 E48.00506
G1 X115.729 Y115.661 E48.10286
G1 X112.500 Y116.517 E48.24648
G1 X102.500 Y116.517 E48.67644
G1 X100.260 Y116.120 E48.77423
G1 X98.293 Y114.978 E48.87203
G1 X96.839 Y113.229 E48.96983
G1 X95.983 Y110.000 E49.11345
G1 X95.983 Y100.000 E49.54340
G1 X96.380 Y97.760 E49.64120
G1 X97.522 Y95.793 E49.73900
G1 X99.225 Y94.377 E49.83421
G1 E45.83421 F2400.00000
G92 E0
G1 X110.105 Y107.740 F9000.000
G1 E4.00000 F2400.00000
G1 F1800
G1 X109.500 Y108.208 E4.03289
G1 X108.813 Y108.545 E4.06578
G1 X108.072 Y108.737 E4.09867
G1 X107.309 Y108.776 E4.13156
G1 X106.552 Y108.660 E4.16445
G1 X105.835 Y108.394 E4.19734
G1 X105.186 Y107.990 E4.23022
G1 X104.631 Y107.463 E4.26311
G1 X104.194 Y106.835 E4.29600
G1 X103.893 Y106.132 E4.32889
G1 X103.739 Y105.382 E4.36178
G1 X103.739 Y104.618 E4.39467
G1 X103.893 Y103.868 E4.42756
G1 X104.194 Y103.165 E4.46045
G1 X104.631 Y102.537 E4.49334
G1 X105.186 Y102.010 E4.52623
G1 X105.835 Y101.606 E4.55912
G1 X106.552 Y101.340 E4.59201
G1 X107.309 Y101.224 E4.62489
G1 X108.072 Y101.263 E4.65778
G1 X108.813 Y101.455 E4.69067
G1 X109.500 Y101.792 E4.72356
G1 X110.105 Y102.260 E4.75645
G1 X110.603 Y102.840 E4.78934
G1 X110.974 Y103.509 E4.82223
G1 X111.203 Y104.239 E4.85512
G1 X111.281 Y105.000 E4.88801
G1 X111.203 Y105.761 E4.92090
G1 X110.974 Y106.491 E4.95379
G1 X110.603 Y107.160 E4.98668
G1 X110.144 Y107.695 E5.01699
G1 X109.788 Y107.407 F9000.000
G1 F1800
G1 X109.257 Y107.818 E5.03917
G1 X108.653 Y108.114 E5.06136
G1 X108.003 Y108.283 E5.08355
G1 X107.332 Y108.317 E5.10573
G1 X106.668 Y108.215 E5.12792
G1 X106.037 Y107.982 E5.15011
G1 X105.467 Y107.626 E5.17230
G1 X104.980 Y107.163 E5.19448
G1 X104.596 Y106.612 E5.21667
G1 X104.331 Y105.994 E5.23886
G1 X104.196 Y105.336 E5.26104
G1 X104.196 Y104.664 E5.28323
G1 X104.331 Y104.006 E5.30542
G1 X104.596 Y103.388 E5.32761
G1 X104.980 Y102.837 E5.34979
G1 X105.467 Y102.374 E5.37198
G1 X106.037 Y102.018 E5.39417
G1 X106.668 Y101.785 E5.41635
G1 X107.332 Y101.683 E5.43854
G1 X108.003 Y101.717 E5.46073
G1 X108.653 Y101.886 E5.48292
G1 X109.257 Y102.182 E5.50510
G1 X109.788 Y102.593 E5.52729
G1 X110.226 Y103.103 E5.54948
G1 X110.552 Y103.690 E5.57167
G1 X110.753 Y104.331 E5.59385
G1 X110.821 Y105.000 E5.61604
G1 X110.753 Y105.669 E5.63823
G1 X110.552 Y106.310 E5.66041
G1 X110.226 Y106.897 E5.68260
G1 X109.827 Y107.362 E5.70281
G1 X109.788 Y107.407 F9000.000
G1 E1.70281 F2400.00000
G92 E0
G1 X105.157 Y101.419 F9000.000
G1 E4.00000 F2400.00000
G1 F1800
G1 X104.868 Y101.599 E4.01466
G1 X104.237 Y102.199 E4.05207
G1 X103.912 Y102.667 E4.07657
G1 X103.694 Y102.598 E4.08637
G1 X103.694 Y101.194 E4.14675
G1 X105.093 Y101.194 E4.20688
G1 X105.141 Y101.361 E4.21436
G1 E0.21436 F2400.00000
G92 E0
G1 X109.916 Y101.194 F9000.000
G1 E4.00000 F2400.00000
G1 F1800
G1 X111.306 Y101.194 E4.05978
G1 X111.306 Y102.865 E4.13162
G1 X110.463 Y101.883 E4.18727
G1 X109.844 Y101.404 E4.22092
G1 X109.896 Y101.251 E4.22788
G1 E0.22788 F2400.00000
G92 E0
G1 X111.306 Y107.135 F9000.000
G1 E4.00000 F2400.00000
G1 F1800
G1 X111.306 Y108.806 E4.07185
G1 X109.916 Y108.806 E4.13162
G1 X109.844 Y108.596 E4.14116
G1 X110.463 Y108.117 E4.17481
G1 X111.267 Y107.180 E4.22788
G1 E0.22788 F2400.00000
G92 E0
G1 X105.093 Y108.806 F9000.000
G1 E4.00000 F2400.00000
G1 F1800
G1 X103.694 Y108.806 E4.06013
G1 X103.694 Y107.402 E4.12051
G1 X103.912 Y107.333 E4.13031
G1 X104.237 Y107.801 E4.15481
G1 X104.868 Y108.401 E4.19222
G1 X105.157 Y108.581 E4.20688
G1 X105.109 Y108.748 E4.21436
G1 X103.177 Y109.323 F9000.000
G1 F1800
G1 X103.177 Y100.677 E4.58609
G1 X111.823 Y100.677 E4.95782
G1 X111.823 Y109.323 E5.32955
G1 X103.237 Y109.323 E5.69870
G1 X102.720 Y109.780 F9000.000
G1 F1800
G1 X102.720 Y100.220 E6.01435
G1 X112.280 Y100.220 E6.33000
G1 X112.280 Y109.780 E6.64564
G1 X102.780 Y109.780 E6.95931
G1 X102.824 Y109.394 F9000.000
G1 X104.205 Y108.547 F9000.000
G1 F1800
G1 X103.976 Y107.920 E6.96266
G1 X103.680 Y107.135 F9000.000
G1 F1800
G1 X103.516 Y105.983 E6.97960
G1 F1800
G1 X103.466 Y105.488 E6.98458
G1 X103.466 Y104.512 F9000.000
G1 F1800
G1 X103.516 Y104.017 E6.98956
G1 F1800
G1 X103.680 Y102.865 E7.00650
G1 X104.007 Y102.968 F9000.000
G1 F1800
G1 X103.436 Y103.197 E7.01176
G1 X103.976 Y102.080 F9000.000
G1 F1800
G1 X104.205 Y101.453 E7.01511
G1 X105.459 Y101.533 F9000.000
G1 F1800
G1 X105.600 Y101.171 E7.02892
G1 X105.642 Y101.161 E7.03047
G1 F1800
G1 X105.915 Y101.112 E7.03874
G1 F1800
G1 X106.187 Y101.063 E7.04476
G1 F1800
G1 X106.460 Y101.015 E7.04853
G1 F1800
G1 X107.078 Y100.967 E7.05201
G1 X108.013 Y100.968 F9000.000
G1 F1800
G1 X108.121 Y100.971 E7.05227
G1 F1800
G1 X108.448 Y101.013 E7.05534
G1 F1800
G1 X108.775 Y101.055 E7.06069
G1 F1800
G1 X109.640 Y101.202 E7.07874
G1 X110.401 Y101.458 F9000.000
G1 F1800
G1 X111.047 Y101.717 E7.09322
G1 X110.987 Y102.937 F9000.000
G1 F1800
G1 X111.136 Y103.152 E7.09482
G1 F1800
G1 X111.564 Y103.814 E7.10326
G1 X111.479 Y103.966 F9000.000
G1 F1800
G1 X111.416 Y103.558 E7.10845
G1 F1800
G1 X111.385 Y103.354 E7.11251
G1 X111.479 Y103.966 F9000.000
G1 F1800
G1 X111.511 Y104.181 E7.11367
G1 X111.532 Y104.606 E7.11593
G1 X111.532 Y105.394 F9000.000
G1 F1800
G1 X111.510 Y105.830 E7.11834
G1 F1800
G1 X111.447 Y106.238 E7.12353
G1 F1800
G1 X111.385 Y106.646 E7.13165
G1 X111.136 Y106.848 F9000.000
G1 F1800
G1 X110.987 Y107.063 E7.13325
G1 X111.136 Y106.848 F9000.000
G1 F1800
G1 X111.564 Y106.186 E7.14168
G1 X111.047 Y108.283 F9000.000
G1 F1800
G1 X110.401 Y108.542 E7.15616
G1 X109.640 Y108.798 F9000.000
G1 F1800
G1 X108.775 Y108.945 E7.17421
G1 F1800
G1 X108.448 Y108.987 E7.17956
G1 F1800
G1 X108.121 Y109.029 E7.18264
G1 F1800
G1 X108.013 Y109.032 E7.18289
G1 X107.078 Y109.033 F9000.000
G1 F1800
G1 X106.460 Y108.985 E7.18638
G1 F1800
G1 X106.187 Y108.937 E7.19015
G1 F1800
G1 X105.915 Y108.888 E7.19616
G1 F1800
G1 X105.642 Y108.839 E7.20443
G1 F1800
G1 X105.600 Y108.829 E7.20599
G1 X105.459 Y108.467 E7.21979
G1 X104.007 Y107.032 F9000.000
G1 F1800
G1 X103.436 Y106.803 E7.22505
M106 S255
G1 Z0.400 F9000.000
G1 X104.785 Y107.608 F9000.000
G1 F1262.9
G1 X104.631 Y107.463 E7.23413
G1 X104.194 Y106.835 E7.26702
G1 X103.893 Y106.132 E7.29991
G1 X103.739 Y105.382 E7.33280
G1 X103.739 Y104.618 E7.36569
G1 X103.893 Y103.868 E7.39858
G1 X104.194 Y103.165 E7.43147
G1 X104.631 Y102.537 E7.46436
G1 X105.186 Y102.010 E7.49725
G1 X105.835 Y101.606 E7.53014
G1 X106.552 Y101.340 E7.56303
G1 X107.302 Y101.225 E7.59562
G1 X108.072 Y101.263 E7.62877
G1 X108.813 Y101.455 E7.66169
G1 X109.500 Y101.792 E7.69458
G1 X110.105 Y102.260 E7.72747
G1 X110.603 Y102.840 E7.76036
G1 X110.974 Y103.509 E7.79325
G1 X111.203 Y104.239 E7.82613
G1 X111.281 Y105.000 E7.85902
G1 X111.203 Y105.761 E7.89191
G1 X110.974 Y106.491 E7.92480
G1 X110.603 Y107.160 E7.95769
G1 X110.105 Y107.740 E7.99058
