; generated by Slic3r 1.3.0-dev on 2019-03-20 at 09:05:16

; external perimeters extrusion width = 0.44mm (2.38mm^3/s)
; perimeters extrusion width = 0.56mm (3.62mm^3/s)
; infill extrusion width = 0.50mm (5.48mm^3/s)
; solid infill extrusion width = 0.56mm (6.20mm^3/s)
; top infill extrusion width = 0.56mm (5.17mm^3/s)

M107
M104 S205 ; set temperature
; -- START GCODE --
	G90                     ;set to absolute positioning
G28                     ;move to Home
G92 E0                  ;zero the extruded length
G1 F7200                ;set feedrate to travel_speed value
; -- end of START GCODE --
; Filament gcode

M109 S205 ; set temperature and wait for it to be reached
G21 ; set units to millimeters
G90 ; use absolute coordinates
M82 ; use absolute distances for extrusion
G92 E0
G1 Z0.200 F9000.000
G1 E-4.00000 F2400.00000
G92 E0
G1 X86.267 Y74.173 F9000.000
G1 E4.00000 F2400.00000
G1 F1800
G1 X88.610 Y72.702 E4.11896
G1 X92.500 Y71.880 E4.28989
G1 X122.500 Y71.880 E5.57975
G1 X125.238 Y72.278 E5.69871
G1 X127.750 Y73.439 E5.81768
G1 X129.827 Y75.267 E5.93664
G1 X131.298 Y77.610 E6.05560
G1 X132.120 Y81.500 E6.22653
G1 X132.120 Y125.500 E8.11832
G1 X132.059 Y126.577 E8.16471
G1 X131.984 Y127.245 E8.19359
G1 X131.505 Y129.345 E8.28621
G1 X131.283 Y129.979 E8.31509
G1 X130.348 Y131.920 E8.40770
G1 X129.991 Y132.488 E8.43659
G1 X128.648 Y134.173 E8.52921
G1 X128.173 Y134.648 E8.55809
G1 X126.488 Y135.991 E8.65070
G1 X125.920 Y136.348 E8.67959
G1 X123.979 Y137.283 E8.77221
G1 X123.345 Y137.505 E8.80109
G1 X121.245 Y137.984 E8.89371
G1 X120.577 Y138.059 E8.92259
G1 X119.500 Y138.120 E8.96897
G1 X95.500 Y138.120 E10.00086
G1 X94.423 Y138.059 E10.04724
G1 X93.754 Y137.984 E10.07616
G1 X91.655 Y137.505 E10.16874
G1 X91.018 Y137.282 E10.19775
G1 X89.080 Y136.348 E10.29024
G1 X88.511 Y135.990 E10.31918
G1 X86.827 Y134.648 E10.41174
G1 X86.352 Y134.172 E10.44067
G1 X85.009 Y132.488 E10.53324
G1 X84.652 Y131.920 E10.56212
G1 X83.717 Y129.979 E10.65474
G1 X83.495 Y129.345 E10.68362
G1 X83.016 Y127.245 E10.77624
G1 X82.941 Y126.577 E10.80514
G1 X82.880 Y125.500 E10.85151
G1 X82.880 Y81.500 E12.74330
G1 X83.278 Y78.762 E12.86226
G1 X84.439 Y76.250 E12.98123
G1 X86.227 Y74.218 E13.09761
G1 X86.772 Y74.426 F9000.000
G1 F1800
G1 X89.091 Y73.060 E13.21331
G1 X92.500 Y72.398 E13.36263
G1 X122.500 Y72.398 E14.65249
G1 X125.162 Y72.795 E14.76819
G1 X127.590 Y73.954 E14.88390
G1 X129.574 Y75.772 E14.99960
G1 X130.940 Y78.091 E15.11531
G1 X131.602 Y81.500 E15.26462
G1 X131.602 Y125.500 E17.15641
G1 X131.545 Y126.519 E17.20030
G1 X131.470 Y127.187 E17.22918
G1 X131.016 Y129.174 E17.31682
G1 X130.795 Y129.808 E17.34571
G1 X129.910 Y131.644 E17.43334
G1 X129.553 Y132.213 E17.46223
G1 X128.282 Y133.807 E17.54987
G1 X127.807 Y134.282 E17.57875
G1 X126.213 Y135.553 E17.66639
G1 X125.644 Y135.910 E17.69527
G1 X123.808 Y136.795 E17.78291
G1 X123.174 Y137.016 E17.81179
G1 X121.187 Y137.470 E17.89943
G1 X120.519 Y137.545 E17.92831
G1 X119.500 Y137.602 E17.97220
G1 X95.500 Y137.602 E19.00409
G1 X94.481 Y137.545 E19.04798
G1 X93.812 Y137.470 E19.07690
G1 X91.826 Y137.016 E19.16450
G1 X91.189 Y136.794 E19.19350
G1 X89.356 Y135.910 E19.28102
G1 X88.786 Y135.552 E19.30995
G1 X87.193 Y134.282 E19.39754
G1 X86.717 Y133.806 E19.42647
G1 X85.447 Y132.213 E19.51406
G1 X85.090 Y131.644 E19.54295
G1 X84.205 Y129.808 E19.63059
G1 X83.984 Y129.174 E19.65947
G1 X83.530 Y127.187 E19.74711
G1 X83.455 Y126.519 E19.77601
G1 X83.398 Y125.500 E19.81988
G1 X83.398 Y81.500 E21.71168
G1 X83.795 Y78.838 E21.82738
G1 X84.954 Y76.410 E21.94308
G1 X86.732 Y74.470 E22.05621
G1 X87.276 Y74.687 F9000.000
G1 F1800
G1 X89.568 Y73.431 E22.16856
G1 X92.500 Y72.915 E22.29658
G1 X122.500 Y72.915 E23.58644
G1 X125.083 Y73.312 E23.69879
G1 X127.426 Y74.468 E23.81115
G1 X129.313 Y76.276 E23.92350
G1 X130.569 Y78.568 E24.03585
G1 X131.085 Y81.500 E24.16387
G1 X131.085 Y125.500 E26.05567
G1 X131.031 Y126.461 E26.09706
G1 X130.956 Y127.129 E26.12594
G1 X130.528 Y129.003 E26.20861
G1 X130.307 Y129.637 E26.23749
G1 X129.472 Y131.369 E26.32015
G1 X129.115 Y131.938 E26.34903
G1 X127.916 Y133.441 E26.43169
G1 X127.441 Y133.916 E26.46058
G1 X125.938 Y135.115 E26.54323
G1 X125.369 Y135.472 E26.57212
G1 X123.637 Y136.307 E26.65478
G1 X123.003 Y136.528 E26.68366
G1 X121.129 Y136.956 E26.76632
G1 X120.461 Y137.031 E26.79520
G1 X119.500 Y137.085 E26.83660
G1 X95.500 Y137.085 E27.86849
G1 X94.539 Y137.031 E27.90988
G1 X93.870 Y136.956 E27.93880
G1 X91.997 Y136.528 E28.02142
G1 X91.360 Y136.306 E28.05042
G1 X89.631 Y135.472 E28.13297
G1 X89.061 Y135.114 E28.16190
G1 X87.559 Y133.916 E28.24451
G1 X87.083 Y133.441 E28.27343
G1 X85.885 Y131.938 E28.35605
G1 X85.528 Y131.369 E28.38494
G1 X84.693 Y129.637 E28.46760
G1 X84.472 Y129.003 E28.49648
G1 X84.044 Y127.129 E28.57914
G1 X83.969 Y126.461 E28.60804
G1 X83.915 Y125.500 E28.64942
G1 X83.915 Y81.500 E30.54122
G1 X84.312 Y78.917 E30.65357
G1 X85.468 Y76.574 E30.76592
G1 X87.235 Y74.730 E30.87569
G1 X87.778 Y74.958 F9000.000
G1 F1800
G1 X90.039 Y73.816 E30.98458
G1 X92.500 Y73.432 E31.09168
G1 X122.500 Y73.432 E32.38154
G1 X125.001 Y73.829 E32.49043
G1 X127.256 Y74.983 E32.59933
G1 X129.042 Y76.778 E32.70822
G1 X130.184 Y79.039 E32.81712
G1 X130.568 Y81.500 E32.92421
G1 X130.568 Y125.500 E34.81600
G1 X130.518 Y126.403 E34.85490
G1 X130.442 Y127.071 E34.88379
G1 X130.040 Y128.832 E34.96147
G1 X129.818 Y129.466 E34.99035
G1 X129.035 Y131.094 E35.06803
G1 X128.677 Y131.663 E35.09692
G1 X127.551 Y133.076 E35.17460
G1 X127.076 Y133.551 E35.20348
G1 X125.663 Y134.677 E35.28116
G1 X125.094 Y135.035 E35.31005
G1 X123.466 Y135.818 E35.38773
G1 X122.832 Y136.040 E35.41661
G1 X121.071 Y136.442 E35.49429
G1 X120.403 Y136.518 E35.52318
G1 X119.500 Y136.568 E35.56208
G1 X95.500 Y136.568 E36.59397
G1 X94.597 Y136.518 E36.63287
G1 X93.928 Y136.442 E36.66179
G1 X92.168 Y136.040 E36.73943
G1 X91.531 Y135.818 E36.76842
G1 X89.906 Y135.035 E36.84600
G1 X89.336 Y134.677 E36.87493
G1 X87.924 Y133.551 E36.95256
G1 X87.449 Y133.075 E36.98148
G1 X86.323 Y131.663 E37.05913
G1 X85.965 Y131.094 E37.08801
G1 X85.182 Y129.466 E37.16569
G1 X84.960 Y128.832 E37.19458
G1 X84.558 Y127.071 E37.27226
G1 X84.482 Y126.403 E37.30116
G1 X84.432 Y125.500 E37.34004
G1 X84.432 Y81.500 E39.23184
G1 X84.829 Y78.999 E39.34073
G1 X85.983 Y76.744 E39.44963
G1 X87.736 Y75.000 E39.55594
G1 X88.278 Y75.239 F9000.000
G1 F1800
G1 X90.505 Y74.217 E39.66127
G1 X92.500 Y73.949 E39.74783
G1 X122.500 Y73.949 E41.03769
G1 X124.917 Y74.346 E41.14301
G1 X127.080 Y75.496 E41.24834
G1 X128.761 Y77.278 E41.35366
G1 X129.783 Y79.505 E41.45899
G1 X130.051 Y81.500 E41.54555
G1 X130.051 Y125.500 E43.43734
G1 X130.004 Y126.345 E43.47375
G1 X129.929 Y127.013 E43.50263
G1 X129.552 Y128.662 E43.57534
G1 X129.330 Y129.296 E43.60422
G1 X128.597 Y130.819 E43.67692
G1 X128.239 Y131.388 E43.70581
G1 X127.185 Y132.710 E43.77851
G1 X126.710 Y133.185 E43.80739
G1 X125.388 Y134.239 E43.88009
G1 X124.819 Y134.597 E43.90898
G1 X123.296 Y135.330 E43.98168
G1 X122.662 Y135.552 E44.01057
G1 X121.013 Y135.929 E44.08327
G1 X120.345 Y136.004 E44.11215
G1 X119.500 Y136.051 E44.14856
G1 X95.500 Y136.051 E45.18045
G1 X94.655 Y136.004 E45.21686
G1 X93.986 Y135.928 E45.24577
G1 X92.338 Y135.552 E45.31844
G1 X91.702 Y135.330 E45.34743
G1 X90.181 Y134.597 E45.42003
G1 X89.611 Y134.239 E45.44896
G1 X88.290 Y133.185 E45.52162
G1 X87.820 Y132.715 E45.55021
G1 X86.761 Y131.388 E45.62320
G1 X86.403 Y130.819 E45.65209
G1 X85.670 Y129.296 E45.72479
G1 X85.448 Y128.662 E45.75367
G1 X85.071 Y127.013 E45.82637
G1 X84.996 Y126.345 E45.85527
G1 X84.949 Y125.500 E45.89167
G1 X84.949 Y81.500 E47.78346
G1 X85.346 Y79.083 E47.88879
G1 X86.496 Y76.920 E47.99411
G1 X88.235 Y75.280 E48.09686
G1 X88.776 Y75.532 F9000.000
G1 F1800
G1 X90.963 Y74.636 E48.19849
G1 X92.500 Y74.466 E48.26496
G1 X122.500 Y74.466 E49.55482
G1 X124.830 Y74.863 E49.65645
G1 X126.897 Y76.010 E49.75808
G1 X128.468 Y77.776 E49.85971
G1 X129.364 Y79.963 E49.96134
G1 X129.534 Y81.500 E50.02782
G1 X129.534 Y125.500 E51.91961
G1 X129.490 Y126.288 E51.95353
G1 X129.415 Y126.955 E51.98241
G1 X129.064 Y128.491 E52.05013
G1 X128.842 Y129.125 E52.07902
G1 X128.159 Y130.544 E52.14674
G1 X127.801 Y131.113 E52.17562
G1 X126.819 Y132.344 E52.24335
G1 X126.344 Y132.819 E52.27223
G1 X125.113 Y133.801 E52.33996
G1 X124.544 Y134.159 E52.36884
G1 X123.125 Y134.842 E52.43657
G1 X122.491 Y135.064 E52.46545
G1 X120.955 Y135.415 E52.53317
G1 X120.288 Y135.490 E52.56206
G1 X119.500 Y135.534 E52.59597
G1 X95.500 Y135.534 E53.62786
G1 X94.712 Y135.490 E53.66178
G1 X94.044 Y135.415 E53.69069
G1 X92.509 Y135.064 E53.75838
G1 X91.873 Y134.842 E53.78736
G1 X90.456 Y134.159 E53.85499
G1 X89.886 Y133.801 E53.88391
G1 X88.656 Y132.819 E53.95160
G1 X88.185 Y132.349 E53.98020
G1 X87.199 Y131.113 E54.04821
G1 X86.841 Y130.544 E54.07709
G1 X86.158 Y129.125 E54.14482
G1 X85.936 Y128.491 E54.17370
G1 X85.585 Y126.955 E54.24142
G1 X85.510 Y126.287 E54.27032
G1 X85.466 Y125.500 E54.30422
G1 X85.466 Y81.500 E56.19602
G1 X85.863 Y79.170 E56.29765
G1 X87.010 Y77.103 E56.39928
G1 X88.731 Y75.572 E56.49833
G1 X89.271 Y75.839 F9000.000
G1 F1800
G1 X92.500 Y74.983 E56.64195
G1 X122.500 Y74.983 E57.93181
G1 X124.740 Y75.380 E58.02961
G1 X126.707 Y76.522 E58.12741
G1 X128.161 Y78.271 E58.22520
G1 X129.017 Y81.500 E58.36883
G1 X129.017 Y125.500 E60.26062
G1 X128.976 Y126.230 E60.29205
G1 X128.901 Y126.897 E60.32093
G1 X128.576 Y128.320 E60.38368
G1 X128.354 Y128.954 E60.41256
G1 X127.721 Y130.269 E60.47530
G1 X127.364 Y130.838 E60.50419
G1 X126.454 Y131.979 E60.56693
G1 X125.979 Y132.454 E60.59582
G1 X124.838 Y133.364 E60.65856
G1 X124.269 Y133.721 E60.68745
G1 X122.954 Y134.354 E60.75019
G1 X122.320 Y134.576 E60.77908
G1 X120.897 Y134.901 E60.84182
G1 X120.230 Y134.976 E60.87071
G1 X119.500 Y135.017 E60.90213
G1 X95.500 Y135.017 E61.93402
G1 X94.770 Y134.976 E61.96544
G1 X94.102 Y134.901 E61.99435
G1 X92.680 Y134.576 E62.05707
G1 X92.044 Y134.354 E62.08604
G1 X90.731 Y133.721 E62.14870
G1 X90.162 Y133.363 E62.17762
G1 X89.021 Y132.454 E62.24033
G1 X88.551 Y131.984 E62.26892
G1 X87.636 Y130.838 E62.33196
G1 X87.279 Y130.269 E62.36084
G1 X86.646 Y128.954 E62.42359
G1 X86.424 Y128.320 E62.45247
G1 X86.099 Y126.897 E62.51522
G1 X86.024 Y126.229 E62.54411
G1 X85.983 Y125.500 E62.57552
G1 X85.983 Y81.500 E64.46732
G1 X86.380 Y79.260 E64.56511
G1 X87.522 Y77.293 E64.66291
G1 X89.225 Y75.877 E64.75812
G1 E60.75812 F2400.00000
G92 E0
G1 X121.306 Y90.306 F9000.000
G1 E4.00000 F2400.00000
G1 F1800
G1 X105.433 Y90.306 E4.68246
G1 X104.565 Y90.404 E4.72001
G1 X103.677 Y90.714 E4.76047
G1 X102.880 Y91.215 E4.80092
G1 X102.215 Y91.880 E4.84137
G1 X101.714 Y92.677 E4.88183
G1 X101.404 Y93.565 E4.92228
G1 X101.306 Y94.433 E4.95983
G1 X101.306 Y115.567 E5.86850
G1 X101.404 Y116.435 E5.90605
G1 X101.714 Y117.323 E5.94651
G1 X102.216 Y118.121 E5.98702
G1 X102.887 Y118.789 E6.02775
G1 X103.677 Y119.286 E6.06786
G1 X104.565 Y119.596 E6.10832
G1 X105.433 Y119.694 E6.14587
G1 X119.433 Y119.694 E6.74780
G1 X119.900 Y119.747 E6.76802
G1 X120.280 Y119.880 E6.78533
G1 X120.621 Y120.094 E6.80265
G1 X120.906 Y120.379 E6.81996
G1 X121.120 Y120.720 E6.83727
G1 X121.253 Y121.100 E6.85459
G1 X121.306 Y121.567 E6.87480
G1 X121.306 Y125.433 E7.04102
G1 X121.253 Y125.900 E7.06123
G1 X121.120 Y126.280 E7.07855
G1 X120.906 Y126.621 E7.09586
G1 X120.621 Y126.906 E7.11317
G1 X120.280 Y127.120 E7.13049
G1 X119.900 Y127.253 E7.14780
G1 X119.433 Y127.306 E7.16802
G1 X95.567 Y127.306 E8.19414
G1 X95.100 Y127.253 E8.21435
G1 X94.725 Y127.122 E8.23144
G1 X94.378 Y126.905 E8.24903
G1 X94.094 Y126.621 E8.26629
G1 X93.880 Y126.280 E8.28360
G1 X93.747 Y125.900 E8.30091
G1 X93.694 Y125.433 E8.32113
G1 X93.694 Y82.694 E10.15870
G1 X121.306 Y82.694 E11.34587
G1 X121.306 Y90.246 E11.67056
G1 X121.823 Y90.823 F9000.000
G1 F1800
G1 X105.462 Y90.823 E12.37400
G1 X104.681 Y90.911 E12.40780
G1 X103.903 Y91.183 E12.44325
G1 X103.205 Y91.622 E12.47869
G1 X102.622 Y92.205 E12.51413
G1 X102.183 Y92.903 E12.54958
G1 X101.911 Y93.681 E12.58502
G1 X101.823 Y94.462 E12.61882
G1 X101.823 Y115.538 E13.52499
G1 X101.911 Y116.319 E13.55879
G1 X102.183 Y117.097 E13.59424
G1 X102.622 Y117.796 E13.62971
G1 X103.211 Y118.382 E13.66544
G1 X103.903 Y118.817 E13.70056
G1 X104.681 Y119.089 E13.73600
G1 X105.462 Y119.177 E13.76980
G1 X119.462 Y119.177 E14.37174
G1 X120.016 Y119.239 E14.39571
G1 X120.506 Y119.411 E14.41803
G1 X120.946 Y119.687 E14.44035
G1 X121.313 Y120.054 E14.46268
G1 X121.589 Y120.494 E14.48500
G1 X121.761 Y120.984 E14.50732
G1 X121.823 Y121.538 E14.53129
G1 X121.823 Y125.462 E14.70000
G1 X121.761 Y126.016 E14.72397
G1 X121.589 Y126.506 E14.74630
G1 X121.313 Y126.946 E14.76862
G1 X120.946 Y127.313 E14.79094
G1 X120.506 Y127.589 E14.81327
G1 X120.016 Y127.761 E14.83559
G1 X119.462 Y127.823 E14.85956
G1 X95.538 Y127.823 E15.88818
G1 X94.984 Y127.761 E15.91215
G1 X94.500 Y127.591 E15.93421
G1 X94.054 Y127.312 E15.95682
G1 X93.687 Y126.946 E15.97911
G1 X93.411 Y126.506 E16.00143
G1 X93.239 Y126.016 E16.02376
G1 X93.177 Y125.462 E16.04773
G1 X93.177 Y82.177 E17.90878
G1 X121.823 Y82.177 E19.14041
G1 X121.823 Y90.763 E19.50957
G1 X122.280 Y91.280 F9000.000
G1 F1800
G1 X105.488 Y91.280 E20.06400
G1 X104.783 Y91.359 E20.08741
G1 X104.102 Y91.598 E20.11123
G1 X103.491 Y91.981 E20.13505
G1 X102.981 Y92.491 E20.15886
G1 X102.598 Y93.102 E20.18268
G1 X102.359 Y93.783 E20.20650
G1 X102.280 Y94.488 E20.22991
G1 X102.280 Y115.512 E20.92408
G1 X102.359 Y116.217 E20.94749
G1 X102.598 Y116.898 E20.97131
G1 X102.982 Y117.509 E20.99513
G1 X103.497 Y118.022 E21.01917
G1 X104.102 Y118.402 E21.04276
G1 X104.783 Y118.641 E21.06657
G1 X105.488 Y118.720 E21.08998
G1 X119.488 Y118.720 E21.55222
G1 X120.118 Y118.791 E21.57318
G1 X120.706 Y118.997 E21.59372
G1 X121.232 Y119.328 E21.61426
G1 X121.672 Y119.768 E21.63481
G1 X122.003 Y120.294 E21.65535
G1 X122.209 Y120.882 E21.67590
G1 X122.280 Y121.512 E21.69685
G1 X122.280 Y125.488 E21.82810
G1 X122.209 Y126.118 E21.84906
G1 X122.003 Y126.706 E21.86960
G1 X121.672 Y127.232 E21.89014
G1 X121.232 Y127.672 E21.91069
G1 X120.706 Y128.003 E21.93123
G1 X120.118 Y128.209 E21.95178
G1 X119.488 Y128.280 E21.97273
G1 X95.512 Y128.280 E22.76433
G1 X94.882 Y128.209 E22.78528
G1 X94.301 Y128.006 E22.80561
G1 X93.767 Y127.672 E22.82637
G1 X93.328 Y127.232 E22.84691
G1 X92.997 Y126.706 E22.86745
G1 X92.791 Y126.118 E22.88800
G1 X92.720 Y125.488 E22.90895
G1 X92.720 Y81.720 E24.35404
G1 X122.280 Y81.720 E25.33003
G1 X122.280 Y91.220 E25.64370
G1 X121.882 Y91.238 F9000.000
G1 X120.052 Y89.844 F9000.000
G1 F1800
G1 X120.844 Y89.052 E25.69231
G1 X120.844 Y88.314 E25.72433
G1 X119.314 Y89.844 E25.81823
G1 X118.575 Y89.844 E25.85025
G1 X120.844 Y87.575 E25.98944
G1 X120.844 Y86.837 E26.02146
G1 X117.837 Y89.844 E26.20594
G1 X117.099 Y89.844 E26.23796
G1 X120.844 Y86.099 E26.46773
G1 X120.844 Y85.361 E26.49975
G1 X116.361 Y89.844 E26.77480
G1 X115.623 Y89.844 E26.80683
G1 X120.844 Y84.623 E27.12717
G1 X120.844 Y83.885 E27.15919
G1 X114.885 Y89.844 E27.52482
G1 X114.147 Y89.844 E27.55685
G1 X120.835 Y83.156 E27.96722
G1 X120.097 Y83.156 E27.99924
G1 X113.409 Y89.844 E28.40961
G1 X112.671 Y89.844 E28.44164
G1 X119.359 Y83.156 E28.85201
G1 X118.621 Y83.156 E28.88403
G1 X111.933 Y89.844 E29.29440
G1 X111.195 Y89.844 E29.32643
G1 X117.883 Y83.156 E29.73680
G1 X117.145 Y83.156 E29.76882
G1 X110.457 Y89.844 E30.17919
G1 X109.719 Y89.844 E30.21122
G1 X116.407 Y83.156 E30.62159
G1 X115.669 Y83.156 E30.65361
G1 X108.981 Y89.844 E31.06398
G1 X108.243 Y89.844 E31.09601
G1 X114.931 Y83.156 E31.50638
G1 X114.193 Y83.156 E31.53840
G1 X107.505 Y89.844 E31.94877
G1 X106.767 Y89.844 E31.98080
G1 X113.455 Y83.156 E32.39117
G1 X112.717 Y83.156 E32.42319
G1 X106.029 Y89.844 E32.83356
G1 X105.284 Y89.851 E32.86591
G1 X111.979 Y83.156 E33.27673
G1 X111.241 Y83.156 E33.30875
G1 X104.452 Y89.945 E33.72532
G1 X103.396 Y90.300 E33.77367
G1 X103.294 Y90.365 E33.77890
G1 X110.502 Y83.156 E34.22123
G1 X109.764 Y83.156 E34.25325
G1 X94.156 Y98.764 E35.21106
G1 X94.156 Y98.026 E35.24309
G1 X109.026 Y83.156 E36.15560
