; generated by Slic3r 1.3.0-dev on 2019-05-01 at 19:02:05

; external perimeters extrusion width = 0.44mm (2.38mm^3/s)
; perimeters extrusion width = 0.56mm (3.62mm^3/s)
; infill extrusion width = 0.50mm (5.48mm^3/s)
; solid infill extrusion width = 0.56mm (6.20mm^3/s)
; top infill extrusion width = 0.56mm (5.17mm^3/s)

M107
M104 S205 ; set temperature
; -- START GCODE --
	G90                     ;set to absolute positioning
G28                     ;move to Home
G92 E0                  ;zero the extruded length
G1 F7200                ;set feedrate to travel_speed value
; -- end of START GCODE --
; Filament gcode

M109 S205 ; set temperature and wait for it to be reached
G21 ; set units to millimeters
G90 ; use absolute coordinates
M82 ; use absolute distances for extrusion
G92 E0
G1 Z0.200 F9000.000
G1 E-4.00000 F2400.00000
G92 E0
G1 X92.642 Y89.942 F9000.000
G1 E4.00000 F2400.00000
G1 F1800
G1 X93.233 Y89.391 E4.03475
G1 X94.514 Y88.299 E4.10709
G1 X95.106 Y87.865 E4.13868
G1 X96.039 Y87.227 E4.18728
G1 X96.575 Y86.883 E4.21465
G1 X98.141 Y86.035 E4.29120
G1 X98.769 Y85.728 E4.32125
G1 X99.311 Y85.501 E4.34652
G1 X100.364 Y85.091 E4.39513
G1 X101.104 Y84.832 E4.42882
G1 X102.681 Y84.406 E4.49905
G1 X103.508 Y84.222 E4.53548
G1 X105.060 Y83.990 E4.60297
G1 X105.977 Y83.896 E4.64258
G1 X107.472 Y83.848 E4.70689
G1 X108.465 Y83.864 E4.74960
G1 X109.884 Y83.982 E4.81081
G1 X111.157 Y84.165 E4.86612
G1 X112.265 Y84.390 E4.91472
G1 X113.369 Y84.673 E4.96372
G1 X114.584 Y85.066 E5.01863
G1 X115.716 Y85.504 E5.07083
G1 X116.811 Y86.003 E5.12254
G1 X117.939 Y86.598 E5.17738
G1 X118.926 Y87.194 E5.22695
G1 X119.969 Y87.908 E5.28129
G1 X120.940 Y88.657 E5.33403
G1 X121.836 Y89.440 E5.38520
G1 X122.760 Y90.339 E5.44063
G1 X123.517 Y91.175 E5.48912
G1 X124.233 Y92.050 E5.53772
G1 X124.989 Y93.090 E5.59302
G1 X125.768 Y94.311 E5.65529
G1 X126.233 Y95.161 E5.69694
G1 X126.897 Y96.528 E5.76227
G1 X127.233 Y97.360 E5.80087
G1 X127.756 Y98.856 E5.86898
G1 X127.975 Y99.659 E5.90479
G1 X128.231 Y100.760 E5.95339
G1 X128.341 Y101.288 E5.97659
G1 X128.450 Y102.028 E6.00872
G1 X128.632 Y103.748 E6.08308
G1 X128.653 Y104.435 E6.11264
G1 X128.653 Y105.565 E6.16124
G1 X128.632 Y106.252 E6.19080
G1 X128.450 Y107.972 E6.26516
G1 X128.341 Y108.711 E6.29729
G1 X127.975 Y110.341 E6.36908
G1 X127.759 Y111.135 E6.40448
G1 X127.233 Y112.640 E6.47301
G1 X126.893 Y113.481 E6.51201
G1 X126.233 Y114.839 E6.57693
G1 X125.768 Y115.689 E6.61859
G1 X125.600 Y115.959 E6.63225
G1 X124.989 Y116.910 E6.68085
G1 X124.386 Y117.759 E6.72563
G1 X123.517 Y118.825 E6.78477
G1 X122.767 Y119.654 E6.83286
G1 X121.836 Y120.560 E6.88869
G1 X120.940 Y121.343 E6.93985
G1 X119.969 Y122.092 E6.99260
G1 X118.926 Y122.806 E7.04692
G1 X117.939 Y123.402 E7.09651
G1 X116.811 Y123.997 E7.15134
G1 X115.718 Y124.495 E7.20296
G1 X114.584 Y124.934 E7.25526
G1 X113.371 Y125.327 E7.31005
G1 X112.265 Y125.610 E7.35917
G1 X111.157 Y125.835 E7.40777
G1 X109.884 Y126.018 E7.46308
G1 X108.466 Y126.136 E7.52424
G1 X107.472 Y126.152 E7.56700
G1 X105.977 Y126.104 E7.63131
G1 X105.060 Y126.010 E7.67092
G1 X103.506 Y125.778 E7.73848
G1 X102.681 Y125.594 E7.77484
G1 X101.103 Y125.168 E7.84510
G1 X100.364 Y124.909 E7.87876
G1 X99.311 Y124.499 E7.92736
G1 X98.770 Y124.272 E7.95260
G1 X98.141 Y123.965 E7.98269
G1 X96.575 Y123.117 E8.05923
G1 X96.039 Y122.773 E8.08661
G1 X95.106 Y122.135 E8.13521
G1 X94.513 Y121.700 E8.16682
G1 X93.233 Y120.609 E8.23914
G1 X92.651 Y120.067 E8.27336
G1 X91.547 Y118.880 E8.34306
G1 X90.983 Y118.216 E8.38052
G1 X90.068 Y116.969 E8.44698
G1 X89.546 Y116.183 E8.48758
G1 X88.817 Y114.903 E8.55091
G1 X88.250 Y113.748 E8.60621
G1 X87.810 Y112.707 E8.65481
G1 X87.434 Y111.681 E8.70179
G1 X87.060 Y110.411 E8.75873
G1 X86.790 Y109.278 E8.80878
G1 X86.576 Y108.044 E8.86264
G1 X86.433 Y106.815 E8.91586
G1 X86.366 Y105.638 E8.96655
G1 X86.366 Y104.362 E9.02139
G1 X86.433 Y103.185 E9.07208
G1 X86.576 Y101.956 E9.12530
G1 X86.769 Y100.842 E9.17390
G1 X87.060 Y99.589 E9.22920
G1 X87.435 Y98.318 E9.28617
G1 X87.810 Y97.293 E9.33312
G1 X88.358 Y96.004 E9.39334
G1 X88.817 Y95.097 E9.43704
G1 X89.546 Y93.817 E9.50036
G1 X90.068 Y93.030 E9.54096
G1 X90.983 Y91.784 E9.60743
G1 X91.547 Y91.120 E9.64488
G1 X92.601 Y89.985 E9.71148
G1 X93.008 Y90.307 F9000.000
G1 F1800
G1 X93.572 Y89.781 E9.74464
G1 X94.833 Y88.706 E9.81588
G1 X95.398 Y88.292 E9.84602
G1 X96.331 Y87.654 E9.89462
G1 X96.842 Y87.325 E9.92075
G1 X98.382 Y86.492 E9.99601
G1 X98.981 Y86.200 E10.02467
G1 X99.498 Y85.983 E10.04880
G1 X100.552 Y85.573 E10.09740
G1 X101.258 Y85.326 E10.12955
G1 X102.812 Y84.906 E10.19878
G1 X103.601 Y84.730 E10.23352
G1 X105.134 Y84.502 E10.30016
G1 X106.008 Y84.413 E10.33794
G1 X107.487 Y84.365 E10.40155
G1 X108.434 Y84.380 E10.44228
G1 X109.840 Y84.497 E10.50293
G1 X111.054 Y84.672 E10.55569
G1 X112.162 Y84.896 E10.60430
G1 X113.215 Y85.166 E10.65103
G1 X114.424 Y85.558 E10.70567
G1 X115.504 Y85.975 E10.75545
G1 X116.596 Y86.473 E10.80704
G1 X117.672 Y87.041 E10.85934
G1 X118.658 Y87.636 E10.90889
G1 X119.653 Y88.317 E10.96071
G1 X120.621 Y89.064 E11.01328
G1 X121.476 Y89.811 E11.06208
G1 X122.394 Y90.705 E11.11719
G1 X123.117 Y91.502 E11.16346
G1 X123.832 Y92.377 E11.21206
G1 X124.554 Y93.370 E11.26483
G1 X125.326 Y94.579 E11.32648
G1 X125.769 Y95.389 E11.36621
G1 X126.426 Y96.740 E11.43078
G1 X126.746 Y97.534 E11.46759
G1 X127.263 Y99.009 E11.53481
G1 X127.471 Y99.776 E11.56898
G1 X127.727 Y100.877 E11.61758
G1 X127.832 Y101.382 E11.63972
G1 X127.937 Y102.087 E11.67037
G1 X128.116 Y103.779 E11.74354
G1 X128.136 Y104.435 E11.77175
G1 X128.136 Y105.565 E11.82035
G1 X128.116 Y106.221 E11.84856
G1 X127.937 Y107.913 E11.92173
G1 X127.832 Y108.618 E11.95237
G1 X127.471 Y110.224 E12.02311
G1 X127.265 Y110.981 E12.05688
G1 X126.746 Y112.466 E12.12450
G1 X126.422 Y113.269 E12.16172
G1 X125.769 Y114.611 E12.22588
G1 X125.326 Y115.421 E12.26561
G1 X125.165 Y115.679 E12.27867
G1 X124.554 Y116.630 E12.32727
G1 X123.979 Y117.440 E12.36997
G1 X123.117 Y118.498 E12.42865
G1 X122.401 Y119.289 E12.47450
G1 X121.476 Y120.189 E12.53002
G1 X120.621 Y120.936 E12.57882
G1 X119.653 Y121.683 E12.63140
G1 X118.659 Y122.364 E12.68320
G1 X117.672 Y122.959 E12.73276
G1 X116.596 Y123.527 E12.78506
G1 X115.506 Y124.024 E12.83656
G1 X114.424 Y124.442 E12.88644
G1 X113.217 Y124.833 E12.94097
G1 X112.162 Y125.104 E12.98781
G1 X111.054 Y125.328 E13.03641
G1 X109.840 Y125.503 E13.08918
G1 X108.435 Y125.620 E13.14979
G1 X107.487 Y125.635 E13.19056
G1 X106.008 Y125.587 E13.25417
G1 X105.134 Y125.498 E13.29194
G1 X103.599 Y125.269 E13.35865
G1 X102.812 Y125.094 E13.39333
G1 X101.257 Y124.674 E13.46258
G1 X100.552 Y124.427 E13.49471
G1 X99.498 Y124.017 E13.54331
G1 X98.982 Y123.800 E13.56740
G1 X98.382 Y123.508 E13.59610
G1 X96.843 Y122.675 E13.67135
G1 X96.331 Y122.346 E13.69748
G1 X95.398 Y121.708 E13.74608
G1 X94.832 Y121.293 E13.77625
G1 X93.572 Y120.219 E13.84747
G1 X93.016 Y119.701 E13.88010
G1 X91.928 Y118.530 E13.94885
G1 X91.390 Y117.897 E13.98457
G1 X90.487 Y116.666 E14.05023
G1 X89.983 Y115.906 E14.08942
G1 X89.268 Y114.649 E14.15162
G1 X88.726 Y113.547 E14.20438
G1 X88.286 Y112.506 E14.25298
G1 X87.928 Y111.527 E14.29778
G1 X87.556 Y110.265 E14.35436
G1 X87.299 Y109.185 E14.40210
G1 X87.086 Y107.956 E14.45574
G1 X86.949 Y106.783 E14.50649
G1 X86.882 Y105.608 E14.55711
G1 X86.882 Y104.392 E14.60941
G1 X86.949 Y103.217 E14.66002
G1 X87.086 Y102.044 E14.71078
G1 X87.278 Y100.930 E14.75938
G1 X87.556 Y99.735 E14.81214
G1 X87.928 Y98.472 E14.86875
G1 X88.286 Y97.494 E14.91352
G1 X88.830 Y96.216 E14.97323
G1 X89.268 Y95.351 E15.01490
G1 X89.989 Y94.085 E15.07757
G1 X90.487 Y93.334 E15.11628
G1 X91.390 Y92.103 E15.18195
G1 X91.928 Y91.470 E15.21767
G1 X92.966 Y90.351 E15.28331
G1 X93.373 Y90.673 F9000.000
G1 F1800
G1 X93.911 Y90.172 E15.31489
G1 X95.152 Y89.113 E15.38503
G1 X95.690 Y88.719 E15.41373
G1 X96.623 Y88.081 E15.46233
G1 X97.110 Y87.768 E15.48721
G1 X97.624 Y87.477 E15.51258
G1 X98.623 Y86.950 E15.56118
G1 X99.193 Y86.671 E15.58845
G1 X99.686 Y86.465 E15.61143
G1 X100.739 Y86.054 E15.66003
G1 X101.412 Y85.820 E15.69065
G1 X102.944 Y85.406 E15.75887
G1 X103.694 Y85.239 E15.79193
G1 X105.208 Y85.014 E15.85772
G1 X106.039 Y84.929 E15.89366
G1 X107.501 Y84.882 E15.95656
G1 X108.403 Y84.896 E15.99532
G1 X109.795 Y85.012 E16.05541
G1 X110.952 Y85.179 E16.10563
G1 X112.059 Y85.403 E16.15423
G1 X113.061 Y85.660 E16.19870
G1 X114.264 Y86.050 E16.25307
G1 X115.292 Y86.447 E16.30044
G1 X116.381 Y86.944 E16.35190
G1 X117.405 Y87.484 E16.40167
G1 X118.391 Y88.079 E16.45119
G1 X119.337 Y88.727 E16.50050
G1 X120.302 Y89.471 E16.55289
G1 X121.116 Y90.181 E16.59933
G1 X121.926 Y90.969 E16.64793
G1 X122.716 Y91.830 E16.69816
G1 X123.571 Y92.879 E16.75634
G1 X124.119 Y93.650 E16.79700
G1 X124.883 Y94.846 E16.85804
G1 X125.305 Y95.618 E16.89584
G1 X125.954 Y96.952 E16.95966
G1 X126.259 Y97.708 E16.99469
G1 X126.769 Y99.163 E17.06100
G1 X126.968 Y99.893 E17.09353
G1 X127.224 Y100.994 E17.14213
G1 X127.323 Y101.475 E17.16322
G1 X127.423 Y102.145 E17.19238
G1 X127.599 Y103.810 E17.26436
G1 X127.619 Y104.435 E17.29122
G1 X127.599 Y106.190 E17.36669
G1 X127.423 Y107.855 E17.43866
G1 X127.323 Y108.525 E17.46781
G1 X126.968 Y110.107 E17.53750
G1 X126.772 Y110.828 E17.56963
G1 X126.259 Y112.292 E17.63635
G1 X125.950 Y113.056 E17.67179
G1 X125.305 Y114.382 E17.73519
G1 X124.730 Y115.400 E17.78542
G1 X124.119 Y116.350 E17.83402
G1 X123.572 Y117.121 E17.87466
G1 X122.716 Y118.170 E17.93286
G1 X122.036 Y118.923 E17.97650
G1 X121.116 Y119.819 E18.03170
G1 X120.302 Y120.529 E18.07813
G1 X119.337 Y121.273 E18.13054
G1 X118.391 Y121.921 E18.17983
G1 X117.405 Y122.516 E18.22937
G1 X116.381 Y123.056 E18.27913
G1 X115.294 Y123.552 E18.33050
G1 X114.264 Y123.950 E18.37796
G1 X113.064 Y124.339 E18.43223
G1 X112.059 Y124.597 E18.47680
G1 X110.952 Y124.821 E18.52540
G1 X109.795 Y124.988 E18.57563
G1 X108.404 Y125.104 E18.63568
G1 X107.501 Y125.118 E18.67447
G1 X106.039 Y125.071 E18.73737
G1 X105.208 Y124.986 E18.77331
G1 X103.693 Y124.761 E18.83916
G1 X102.944 Y124.594 E18.87216
G1 X101.411 Y124.180 E18.94041
G1 X100.739 Y123.946 E18.97100
G1 X99.686 Y123.535 E19.01960
G1 X99.194 Y123.329 E19.04254
G1 X98.623 Y123.050 E19.06985
G1 X97.624 Y122.523 E19.11845
G1 X97.110 Y122.232 E19.14381
G1 X96.623 Y121.919 E19.16870
G1 X95.690 Y121.281 E19.21730
G1 X95.151 Y120.886 E19.24603
G1 X93.911 Y119.828 E19.31615
G1 X93.382 Y119.336 E19.34720
G1 X92.309 Y118.181 E19.41499
G1 X91.797 Y117.578 E19.44898
G1 X90.905 Y116.362 E19.51384
G1 X90.425 Y115.638 E19.55114
G1 X89.718 Y114.394 E19.61268
G1 X89.203 Y113.346 E19.66291
G1 X88.763 Y112.305 E19.71151
G1 X88.422 Y111.374 E19.75413
G1 X88.052 Y110.120 E19.81035
G1 X87.808 Y109.092 E19.85577
G1 X87.595 Y107.868 E19.90918
G1 X87.465 Y106.752 E19.95748
G1 X87.398 Y105.579 E20.00801
G1 X87.398 Y104.421 E20.05778
G1 X87.465 Y103.248 E20.10831
G1 X87.595 Y102.132 E20.15661
G1 X87.788 Y101.018 E20.20521
G1 X88.052 Y99.880 E20.25544
G1 X88.422 Y98.626 E20.31167
G1 X88.763 Y97.695 E20.35427
G1 X89.301 Y96.428 E20.41346
G1 X89.718 Y95.606 E20.45312
G1 X90.431 Y94.352 E20.51512
G1 X90.905 Y93.638 E20.55196
G1 X91.797 Y92.422 E20.61682
G1 X92.309 Y91.819 E20.65081
G1 X93.332 Y90.716 E20.71549
G1 X93.739 Y91.039 F9000.000
G1 F1800
G1 X94.249 Y90.563 E20.74548
G1 X95.471 Y89.520 E20.81453
G1 X95.982 Y89.145 E20.84179
G1 X96.915 Y88.507 E20.89039
G1 X97.377 Y88.210 E20.91402
G1 X97.865 Y87.935 E20.93810
G1 X98.865 Y87.407 E20.98670
G1 X99.405 Y87.143 E21.01258
G1 X99.874 Y86.946 E21.03441
G1 X100.927 Y86.536 E21.08301
G1 X101.565 Y86.313 E21.11209
G1 X103.075 Y85.906 E21.17931
G1 X103.787 Y85.748 E21.21069
G1 X105.281 Y85.525 E21.27562
G1 X106.070 Y85.445 E21.30973
G1 X107.516 Y85.398 E21.37192
G1 X108.371 Y85.412 E21.40870
G1 X109.751 Y85.527 E21.46823
G1 X110.849 Y85.685 E21.51592
G1 X111.957 Y85.910 E21.56452
G1 X112.908 Y86.154 E21.60672
G1 X114.104 Y86.542 E21.66082
G1 X115.080 Y86.918 E21.70577
G1 X116.166 Y87.414 E21.75711
G1 X117.138 Y87.927 E21.80433
G1 X118.123 Y88.521 E21.85384
G1 X119.021 Y89.136 E21.90063
G1 X119.983 Y89.878 E21.95285
G1 X120.755 Y90.552 E21.99692
G1 X121.566 Y91.340 E22.04552
G1 X122.316 Y92.157 E22.09321
G1 X123.164 Y93.197 E22.15092
G1 X123.684 Y93.929 E22.18951
G1 X124.441 Y95.114 E22.24995
G1 X124.841 Y95.846 E22.28582
G1 X125.483 Y97.165 E22.34888
G1 X125.772 Y97.882 E22.38212
G1 X126.275 Y99.317 E22.44753
G1 X126.464 Y100.011 E22.47843
G1 X126.720 Y101.111 E22.52703
G1 X126.815 Y101.568 E22.54707
G1 X126.909 Y102.204 E22.57474
G1 X127.083 Y103.842 E22.64553
G1 X127.102 Y104.435 E22.67104
G1 X127.083 Y106.158 E22.74516
G1 X126.909 Y107.796 E22.81594
G1 X126.815 Y108.432 E22.84360
G1 X126.464 Y109.989 E22.91224
G1 X126.278 Y110.674 E22.94273
G1 X125.772 Y112.118 E23.00855
G1 X125.479 Y112.844 E23.04220
G1 X124.841 Y114.154 E23.10486
G1 X124.295 Y115.120 E23.15255
G1 X123.684 Y116.071 E23.20115
G1 X123.164 Y116.802 E23.23971
G1 X122.316 Y117.843 E23.29745
G1 X121.670 Y118.557 E23.33885
G1 X120.755 Y119.448 E23.39375
G1 X119.983 Y120.122 E23.43781
G1 X119.021 Y120.864 E23.49004
G1 X118.124 Y121.479 E23.53682
G1 X117.138 Y122.073 E23.58633
G1 X116.166 Y122.586 E23.63356
G1 X115.082 Y123.081 E23.68482
G1 X114.104 Y123.458 E23.72985
G1 X112.910 Y123.846 E23.78385
G1 X111.957 Y124.090 E23.82615
G1 X110.849 Y124.315 E23.87475
G1 X109.751 Y124.473 E23.92244
G1 X108.372 Y124.588 E23.98193
G1 X107.516 Y124.602 E24.01874
G1 X106.070 Y124.555 E24.08094
G1 X105.281 Y124.475 E24.11505
G1 X103.786 Y124.252 E24.18004
G1 X103.075 Y124.094 E24.21135
G1 X101.565 Y123.687 E24.27860
G1 X100.927 Y123.464 E24.30766
G1 X99.874 Y123.054 E24.35626
G1 X99.406 Y122.857 E24.37805
G1 X98.865 Y122.593 E24.40397
G1 X97.865 Y122.065 E24.45257
G1 X97.378 Y121.790 E24.47664
G1 X96.915 Y121.493 E24.50028
G1 X95.982 Y120.855 E24.54888
G1 X95.470 Y120.479 E24.57616
G1 X94.249 Y119.437 E24.64518
G1 X93.748 Y118.970 E24.67466
G1 X92.690 Y117.831 E24.74149
G1 X92.204 Y117.259 E24.77374
G1 X91.323 Y116.058 E24.83780
G1 X90.868 Y115.371 E24.87322
G1 X90.168 Y114.140 E24.93410
G1 X89.679 Y113.145 E24.98179
G1 X89.239 Y112.103 E25.03039
G1 X88.916 Y111.220 E25.07084
G1 X88.548 Y109.974 E25.12669
G1 X88.316 Y108.999 E25.16979
G1 X88.105 Y107.780 E25.22299
G1 X87.981 Y106.721 E25.26882
G1 X87.914 Y105.549 E25.31928
G1 X87.914 Y104.451 E25.36650
G1 X87.981 Y103.279 E25.41697
G1 X88.105 Y102.220 E25.46280
G1 X88.297 Y101.106 E25.51140
G1 X88.548 Y100.026 E25.55909
G1 X88.916 Y98.780 E25.61496
G1 X89.239 Y97.897 E25.65539
G1 X89.773 Y96.641 E25.71406
G1 X90.168 Y95.860 E25.75169
G1 X90.874 Y94.620 E25.81303
G1 X91.323 Y93.942 E25.84799
G1 X92.204 Y92.741 E25.91205
G1 X92.690 Y92.169 E25.94430
G1 X93.698 Y91.082 E26.00803
G1 X94.105 Y91.404 F9000.000
G1 F1800
G1 X94.588 Y90.954 E26.03644
G1 X95.789 Y89.927 E26.10438
G1 X96.274 Y89.572 E26.13021
G1 X97.207 Y88.934 E26.17881
G1 X97.645 Y88.653 E26.20120
G1 X98.106 Y88.392 E26.22398
G1 X99.106 Y87.864 E26.27258
G1 X99.618 Y87.615 E26.29707
G1 X100.061 Y87.428 E26.31775
G1 X101.115 Y87.018 E26.36635
G1 X101.719 Y86.807 E26.39389
G1 X103.207 Y86.406 E26.46011
G1 X103.880 Y86.256 E26.48980
G1 X105.355 Y86.037 E26.55388
G1 X106.101 Y85.961 E26.58615
G1 X107.531 Y85.915 E26.64764
G1 X108.340 Y85.928 E26.68244
G1 X109.707 Y86.042 E26.74141
G1 X110.746 Y86.192 E26.78656
G1 X111.854 Y86.417 E26.83516
G1 X112.754 Y86.647 E26.87509
G1 X113.945 Y87.033 E26.92892
G1 X114.868 Y87.390 E26.97146
G1 X115.951 Y87.885 E27.02268
G1 X116.870 Y88.370 E27.06736
G1 X117.856 Y88.964 E27.11684
G1 X118.706 Y89.545 E27.16111
G1 X119.664 Y90.285 E27.21317
G1 X120.395 Y90.923 E27.25487
G1 X121.205 Y91.711 E27.30347
G1 X121.916 Y92.484 E27.34862
G1 X122.757 Y93.516 E27.40587
G1 X123.249 Y94.209 E27.44239
G1 X123.998 Y95.381 E27.50221
G1 X124.377 Y96.074 E27.53615
G1 X125.011 Y97.377 E27.59846
G1 X125.285 Y98.055 E27.62992
G1 X125.782 Y99.471 E27.69442
G1 X125.960 Y100.128 E27.72368
G1 X126.216 Y101.229 E27.77228
G1 X126.306 Y101.661 E27.79127
G1 X126.396 Y102.263 E27.81745
G1 X126.567 Y103.873 E27.88705
