; generated by Slic3r 1.3.0-dev on 2018-06-22 at 18:46:36

; external perimeters extrusion width = 0.44mm (2.38mm^3/s)
; perimeters extrusion width = 0.56mm (3.62mm^3/s)
; infill extrusion width = 0.50mm (5.48mm^3/s)
; solid infill extrusion width = 0.56mm (6.20mm^3/s)
; top infill extrusion width = 0.56mm (5.17mm^3/s)

M107
M104 S210 ; set temperature
; -- START GCODE --
	G90                     ;set to absolute positioning
G28                     ;move to Home
G92 E0                  ;zero the extruded length
G1 F7200                ;set feedrate to travel_speed value
; -- end of START GCODE --
; Filament gcode

M109 S210 ; set temperature and wait for it to be reached
G21 ; set units to millimeters
G90 ; use absolute coordinates
M82 ; use absolute distances for extrusion
G92 E0
G1 Z0.200 F9000.000
G1 E-4.00000 F2400.00000
G92 E0
G1 X93.540 Y92.235 F9000.000
G1 E4.00000 F2400.00000
G1 F1800
G1 X97.142 Y89.782 E4.18738
G1 X106.338 Y85.782 E4.61856
G1 X109.271 Y84.941 E4.74975
G1 X111.000 Y84.812 E4.82429
G1 X112.000 Y84.812 E4.86729
G1 X115.025 Y85.210 E4.99848
G1 X117.844 Y86.378 E5.12967
G1 X120.265 Y88.236 E5.26086
G1 X122.122 Y90.657 E5.39205
G1 X123.290 Y93.476 E5.52324
G1 X123.688 Y96.500 E5.65440
G1 X123.688 Y113.500 E6.38532
G1 X123.290 Y116.525 E6.51651
G1 X122.122 Y119.344 E6.64770
G1 X120.264 Y121.765 E6.77889
G1 X117.843 Y123.622 E6.91008
G1 X115.024 Y124.790 E7.04127
G1 X112.000 Y125.188 E7.17243
G1 X111.000 Y125.188 E7.21542
G1 X107.975 Y124.790 E7.34661
G1 X106.338 Y124.218 E7.42116
G1 X97.142 Y120.218 E7.85233
G1 X94.527 Y118.646 E7.98352
G1 X92.407 Y116.451 E8.11471
G1 X90.929 Y113.782 E8.24590
G1 X90.116 Y109.500 E8.43329
G1 X90.116 Y100.500 E8.82025
G1 X90.514 Y97.475 E8.95144
G1 X91.682 Y94.656 E9.08263
G1 X93.503 Y92.283 E9.21124
G1 X94.049 Y92.460 F9000.000
G1 F1800
G1 X97.348 Y90.256 E9.38183
G1 X106.544 Y86.256 E9.81300
G1 X109.414 Y85.442 E9.94125
G1 X111.000 Y85.329 E10.00962
G1 X112.000 Y85.329 E10.05261
G1 X114.956 Y85.727 E10.18086
G1 X117.701 Y86.894 E10.30910
G1 X120.040 Y88.745 E10.43734
G1 X121.806 Y91.149 E10.56559
G1 X122.872 Y93.934 E10.69383
G1 X123.171 Y96.500 E10.80489
G1 X123.171 Y113.500 E11.53581
G1 X122.773 Y116.456 E11.66405
G1 X121.606 Y119.201 E11.79229
G1 X119.755 Y121.540 E11.92054
G1 X117.351 Y123.306 E12.04878
G1 X114.566 Y124.372 E12.17702
G1 X112.000 Y124.671 E12.28808
G1 X111.000 Y124.671 E12.33107
G1 X108.044 Y124.273 E12.45932
G1 X106.544 Y123.744 E12.52769
G1 X97.348 Y119.744 E12.95886
G1 X94.796 Y118.199 E13.08710
G1 X92.744 Y116.035 E13.21535
G1 X91.338 Y113.405 E13.34359
G1 X90.633 Y109.500 E13.51418
G1 X90.633 Y100.500 E13.90114
G1 X91.031 Y97.544 E14.02939
G1 X92.198 Y94.799 E14.15763
G1 X94.011 Y92.507 E14.28329
G1 X94.557 Y92.691 F9000.000
G1 F1800
G1 X97.554 Y90.730 E14.43728
G1 X106.751 Y86.730 E14.86846
G1 X111.000 Y85.846 E15.05508
G1 X112.000 Y85.846 E15.09807
G1 X114.885 Y86.244 E15.22330
G1 X117.555 Y87.409 E15.34852
G1 X119.809 Y89.253 E15.47375
G1 X121.480 Y91.639 E15.59898
G1 X122.442 Y94.388 E15.72420
G1 X122.654 Y96.500 E15.81547
G1 X122.654 Y113.500 E16.54639
G1 X122.256 Y116.385 E16.67162
G1 X121.091 Y119.055 E16.79685
G1 X119.247 Y121.309 E16.92207
G1 X116.861 Y122.980 E17.04730
G1 X114.112 Y123.942 E17.17253
G1 X112.000 Y124.154 E17.26380
G1 X111.000 Y124.154 E17.30679
G1 X106.751 Y123.270 E17.49341
G1 X97.554 Y119.270 E17.92458
G1 X95.068 Y117.754 E18.04981
G1 X93.084 Y115.621 E18.17503
G1 X91.752 Y113.031 E18.30026
G1 X91.150 Y109.500 E18.45425
G1 X91.150 Y100.500 E18.84121
G1 X91.548 Y97.615 E18.96644
G1 X92.713 Y94.945 E19.09166
G1 X94.519 Y92.737 E19.21431
G1 X95.064 Y92.928 F9000.000
G1 F1800
G1 X97.761 Y91.205 E19.35190
G1 X106.957 Y87.205 E19.78308
G1 X111.000 Y86.363 E19.96064
G1 X112.000 Y86.363 E20.00363
G1 X114.813 Y86.761 E20.12577
G1 X117.404 Y87.924 E20.24790
G1 X119.572 Y89.761 E20.37004
G1 X121.144 Y92.126 E20.49217
G1 X121.999 Y94.835 E20.61431
G1 X122.137 Y96.500 E20.68613
G1 X122.137 Y113.500 E21.41705
G1 X121.739 Y116.313 E21.53919
G1 X120.576 Y118.904 E21.66132
G1 X118.739 Y121.072 E21.78346
G1 X116.374 Y122.644 E21.90559
G1 X113.665 Y123.499 E22.02773
G1 X112.000 Y123.637 E22.09955
G1 X111.000 Y123.637 E22.14255
G1 X106.957 Y122.795 E22.32011
G1 X97.761 Y118.795 E22.75128
G1 X95.340 Y117.309 E22.87342
G1 X93.427 Y115.208 E22.99555
G1 X92.172 Y112.660 E23.11769
G1 X91.667 Y109.500 E23.25528
G1 X91.667 Y100.500 E23.64224
G1 X92.065 Y97.687 E23.76437
G1 X93.228 Y95.096 E23.88651
G1 X95.026 Y92.974 E24.00606
G1 X95.571 Y93.173 F9000.000
G1 F1800
G1 X97.967 Y91.679 E24.12747
G1 X107.163 Y87.679 E24.55865
G1 X111.000 Y86.880 E24.72715
G1 X112.000 Y86.880 E24.77015
G1 X114.738 Y87.278 E24.88911
G1 X117.250 Y88.439 E25.00807
G1 X119.327 Y90.267 E25.12704
G1 X120.798 Y92.610 E25.24600
G1 X121.620 Y96.500 E25.41693
G1 X121.620 Y113.500 E26.14785
G1 X121.222 Y116.238 E26.26681
G1 X120.061 Y118.750 E26.38577
G1 X118.233 Y120.827 E26.50474
G1 X115.890 Y122.298 E26.62370
G1 X112.000 Y123.120 E26.79463
G1 X111.000 Y123.120 E26.83762
G1 X107.163 Y122.321 E27.00612
G1 X97.967 Y118.321 E27.43730
G1 X95.615 Y116.864 E27.55626
G1 X93.775 Y114.798 E27.67522
G1 X92.599 Y112.293 E27.79419
G1 X92.184 Y109.500 E27.91560
G1 X92.184 Y100.500 E28.30256
G1 X92.582 Y97.762 E28.42152
G1 X93.743 Y95.250 E28.54048
G1 X95.531 Y93.218 E28.65687
G1 X96.076 Y93.426 F9000.000
G1 F1800
G1 X98.173 Y92.153 E28.76234
G1 X107.369 Y88.153 E29.19351
G1 X111.000 Y87.398 E29.35296
G1 X112.000 Y87.398 E29.39595
G1 X114.662 Y87.795 E29.51166
G1 X117.090 Y88.954 E29.62736
G1 X119.074 Y90.772 E29.74307
G1 X120.440 Y93.091 E29.85877
G1 X121.102 Y96.500 E30.00808
G1 X121.102 Y113.500 E30.73900
G1 X120.705 Y116.162 E30.85471
G1 X119.546 Y118.590 E30.97041
G1 X117.728 Y120.574 E31.08612
G1 X115.409 Y121.940 E31.20182
G1 X112.000 Y122.602 E31.35113
G1 X111.000 Y122.602 E31.39413
G1 X107.369 Y121.847 E31.55358
G1 X98.173 Y117.847 E31.98475
G1 X95.891 Y116.421 E32.10045
G1 X94.126 Y114.389 E32.21616
G1 X93.032 Y111.931 E32.33186
G1 X92.701 Y109.500 E32.43733
G1 X92.701 Y100.500 E32.82429
G1 X93.099 Y97.838 E32.94000
G1 X94.258 Y95.410 E33.05570
G1 X96.036 Y93.470 E33.16883
G1 X96.580 Y93.687 F9000.000
G1 F1800
G1 X98.379 Y92.627 E33.25862
G1 X107.576 Y88.627 E33.68979
G1 X111.000 Y87.915 E33.84018
G1 X112.000 Y87.915 E33.88317
G1 X114.583 Y88.312 E33.99552
G1 X116.926 Y89.468 E34.10788
G1 X118.813 Y91.276 E34.22023
G1 X120.069 Y93.568 E34.33258
G1 X120.585 Y96.500 E34.46060
G1 X120.585 Y113.500 E35.19152
G1 X120.188 Y116.083 E35.30387
G1 X119.032 Y118.426 E35.41623
G1 X117.224 Y120.313 E35.52858
G1 X114.932 Y121.569 E35.64093
G1 X112.000 Y122.085 E35.76895
G1 X111.000 Y122.085 E35.81195
G1 X107.576 Y121.373 E35.96233
G1 X98.379 Y117.373 E36.39351
G1 X96.170 Y115.978 E36.50586
G1 X94.482 Y113.983 E36.61821
G1 X93.473 Y111.573 E36.73056
G1 X93.219 Y109.500 E36.82035
G1 X93.219 Y100.500 E37.20731
G1 X93.616 Y97.917 E37.31966
G1 X94.772 Y95.574 E37.43201
G1 X96.538 Y93.730 E37.54178
G1 X97.082 Y93.958 F9000.000
G1 F1800
G1 X98.586 Y93.101 E37.61618
G1 X107.782 Y89.101 E38.04736
G1 X111.000 Y88.432 E38.18869
G1 X112.000 Y88.432 E38.23168
G1 X114.501 Y88.829 E38.34058
G1 X116.756 Y89.983 E38.44947
G1 X118.542 Y91.778 E38.55837
G1 X119.684 Y94.039 E38.66726
G1 X120.068 Y96.500 E38.77435
G1 X120.068 Y113.500 E39.50527
G1 X119.671 Y116.001 E39.61417
G1 X118.517 Y118.256 E39.72306
G1 X116.722 Y120.042 E39.83196
G1 X114.461 Y121.184 E39.94085
G1 X112.000 Y121.568 E40.04794
G1 X111.000 Y121.568 E40.09094
G1 X107.782 Y120.899 E40.23227
G1 X98.586 Y116.899 E40.66344
G1 X96.451 Y115.536 E40.77234
G1 X94.843 Y113.579 E40.88123
G1 X93.921 Y111.220 E40.99013
G1 X93.736 Y109.500 E41.06453
G1 X93.736 Y100.500 E41.45148
G1 X94.133 Y97.999 E41.56038
G1 X95.287 Y95.744 E41.66927
G1 X97.040 Y94.000 E41.77559
G1 X97.582 Y94.239 F9000.000
G1 F1800
G1 X98.792 Y93.575 E41.83491
G1 X107.988 Y89.575 E42.26608
G1 X111.000 Y88.949 E42.39836
G1 X112.000 Y88.949 E42.44135
G1 X114.417 Y89.346 E42.54668
G1 X116.580 Y90.496 E42.65200
G1 X118.261 Y92.278 E42.75733
G1 X119.283 Y94.505 E42.86265
G1 X119.551 Y96.500 E42.94921
G1 X119.551 Y113.500 E43.68013
G1 X119.154 Y115.917 E43.78546
G1 X118.004 Y118.080 E43.89078
G1 X116.222 Y119.761 E43.99611
G1 X113.995 Y120.783 E44.10143
G1 X112.000 Y121.051 E44.18799
G1 X111.000 Y121.051 E44.23099
G1 X107.988 Y120.425 E44.36326
G1 X98.792 Y116.425 E44.79443
G1 X96.734 Y115.096 E44.89976
G1 X95.209 Y113.179 E45.00508
G1 X94.379 Y110.874 E45.11041
G1 X94.253 Y109.500 E45.16973
G1 X94.253 Y100.500 E45.55669
G1 X94.650 Y98.083 E45.66201
G1 X95.800 Y95.920 E45.76734
G1 X97.539 Y94.280 E45.87008
G1 X98.998 Y94.050 F9000.000
G1 F1800
G1 X108.194 Y90.050 E46.30126
G1 X111.000 Y89.466 E46.42447
G1 X112.000 Y89.466 E46.46747
G1 X114.330 Y89.863 E46.56910
G1 X116.397 Y91.010 E46.67073
G1 X117.968 Y92.776 E46.77236
G1 X118.864 Y94.963 E46.87399
G1 X119.034 Y96.500 E46.94046
G1 X119.034 Y113.500 E47.67138
G1 X118.637 Y115.830 E47.77301
G1 X117.490 Y117.897 E47.87464
G1 X115.724 Y119.468 E47.97627
G1 X113.537 Y120.364 E48.07790
G1 X112.000 Y120.534 E48.14438
G1 X111.000 Y120.534 E48.18737
G1 X108.194 Y119.950 E48.31059
G1 X98.998 Y115.950 E48.74176
G1 X97.020 Y114.657 E48.84339
G1 X95.582 Y112.781 E48.94502
G1 X94.770 Y109.500 E49.09034
G1 X94.770 Y100.500 E49.47730
G1 X95.167 Y98.170 E49.57893
G1 X96.314 Y96.103 E49.68056
G1 X98.951 Y94.086 E49.82329
G1 X99.204 Y94.524 F9000.000
G1 F1800
G1 X108.401 Y90.524 E50.25447
G1 X111.000 Y89.983 E50.36862
G1 X112.000 Y89.983 E50.41162
G1 X114.240 Y90.380 E50.50942
G1 X116.207 Y91.522 E50.60721
G1 X117.661 Y93.271 E50.70501
G1 X118.517 Y96.500 E50.84863
G1 X118.517 Y113.500 E51.57955
G1 X118.120 Y115.740 E51.67735
G1 X116.978 Y117.707 E51.77515
G1 X115.229 Y119.161 E51.87294
G1 X112.000 Y120.017 E52.01657
G1 X111.000 Y120.017 E52.05956
G1 X108.401 Y119.476 E52.17372
G1 X99.204 Y115.476 E52.60489
G1 X97.309 Y114.219 E52.70269
G1 X95.961 Y112.387 E52.80048
G1 X95.287 Y109.500 E52.92794
G1 X95.287 Y100.500 E53.31490
G1 X95.684 Y98.260 E53.41270
G1 X96.826 Y96.293 E53.51049
G1 X99.156 Y94.560 E53.63537
G1 E49.63537 F2400.00000
G92 E0
G1 X110.806 Y108.306 F9000.000
G1 E4.00000 F2400.00000
G1 F1800
G1 X102.998 Y108.306 E4.33570
G1 X102.998 Y107.894 E4.35340
G1 X110.806 Y107.894 E4.68910
G1 X110.806 Y108.246 E4.70422
G1 X111.323 Y108.823 F9000.000
G1 F1800
G1 X102.481 Y108.823 E5.08438
G1 X102.481 Y107.377 E5.14654
G1 X111.323 Y107.377 E5.52671
G1 X111.323 Y108.763 E5.58629
G1 E1.58629 F2400.00000
G92 E0
G1 X110.806 Y102.106 F9000.000
G1 E4.00000 F2400.00000
G1 F1800
G1 X102.998 Y102.106 E4.33570
G1 X102.998 Y101.694 E4.35340
G1 X110.806 Y101.694 E4.68910
G1 X110.806 Y102.046 E4.70422
G1 X111.323 Y102.623 F9000.000
G1 F1800
G1 X102.481 Y102.623 E5.08438
G1 X102.481 Y101.177 E5.14654
G1 X111.323 Y101.177 E5.52671
G1 X111.323 Y102.563 E5.58629
G1 X111.220 Y103.080 F9000.000
G1 F1800
G1 X102.024 Y103.080 E5.88992
G1 X102.024 Y100.720 E5.96784
G1 X111.220 Y100.720 E6.27147
G1 X111.220 Y96.720 E6.40354
G1 X111.780 Y96.720 E6.42203
G1 X111.780 Y113.280 E6.96880
G1 X111.220 Y113.280 E6.98729
G1 X111.220 Y109.280 E7.11936
G1 X102.024 Y109.280 E7.42299
G1 X102.024 Y106.920 E7.50091
G1 X111.220 Y106.920 E7.80454
G1 X111.220 Y103.140 E7.92934
G1 X111.373 Y102.710 F9000.000
G1 X111.500 Y102.851 F9000.000
G1 F1800
G1 X111.500 Y107.149 E7.95078
G1 X111.500 Y109.051 F9000.000
G1 F1800
G1 X111.500 Y113.051 E7.97074
G1 E3.97074 F2400.00000
G92 E0
G1 X111.500 Y100.949 F9000.000
G1 E4.00000 F2400.00000
G1 F1800
G1 X111.500 Y96.949 E4.01996
M106 S255
M104 S220 ; set temperature
G1 Z0.400 F9000.000
G1 E0.01996 F2400.00000
G92 E0
G1 X110.806 Y107.894 F9000.000
G1 E4.00000 F2400.00000
G1 F1065.05
G1 X110.806 Y108.306 E4.01770
G1 X102.102 Y108.306 E4.39194
G1 X102.102 Y107.894 E4.40964
G1 X110.746 Y107.894 E4.78129
G1 X111.323 Y107.377 F9000.000
G1 F1491.07
G1 X111.323 Y108.823 E4.84346
G1 X101.604 Y108.823 E5.26133
M106 S255

G1 F1800
G1 X101.585 Y108.823 E5.26234
G1 X101.585 Y107.377 E5.33787
G1 X101.604 Y107.377 E5.33888
M106 S255

G1 F1491.07
G1 X111.263 Y107.377 E5.75417
G1 E1.75417 F2400.00000
G92 E0
G1 X110.806 Y102.106 F9000.000
G1 E4.00000 F2400.00000
G1 F1065.05
G1 X102.102 Y102.106 E4.37424
G1 X102.102 Y101.694 E4.39194
G1 X110.806 Y101.694 E4.76617
G1 X110.806 Y102.046 E4.78129
G1 X111.323 Y102.623 F9000.000
G1 F1491.07
G1 X101.604 Y102.623 E5.19917
M106 S255

G1 F1800
G1 X101.585 Y102.623 E5.20017
G1 X101.585 Y101.177 E5.27571
G1 X101.604 Y101.177 E5.27671
M106 S255

G1 F1491.07
G1 X111.323 Y101.177 E5.69459
G1 X111.323 Y102.563 E5.75417
G1 X111.220 Y103.080 F9000.000
G1 F1800
G1 X101.604 Y103.080 E6.07167
M106 S255

G1 F1800
G1 X101.128 Y103.080 E6.09655
G1 X101.128 Y100.720 E6.21985
G1 X101.604 Y100.720 E6.24474
M106 S255

G1 F1800
G1 X111.220 Y100.720 E6.56224
G1 X111.220 Y96.720 E6.69430
G1 X111.780 Y96.720 E6.71279
G1 X111.780 Y113.280 E7.25956
G1 X111.220 Y113.280 E7.27805
G1 X111.220 Y109.280 E7.41012
G1 X101.604 Y109.280 E7.72762
M106 S255

G1 F1800
G1 X101.128 Y109.280 E7.75250
G1 X101.128 Y106.920 E7.87580
G1 X101.604 Y106.920 E7.90069
M106 S255

G1 F1800
G1 X111.220 Y106.920 E8.21818
G1 X111.220 Y103.140 E8.34299
G1 X111.375 Y102.711 F9000.000
G1 X111.500 Y102.851 F9000.000
G1 F1065.05
G1 X111.500 Y107.149 E8.36443
G1 X111.500 Y109.051 F9000.000
G1 F1065.05
G1 X111.500 Y113.051 E8.38439
G1 X111.500 Y100.949 F9000.000
G1 F1065.05
G1 X111.500 Y96.949 E8.40434
G1 Z0.600 F9000.000
G1 E4.40434 F2400.00000
G92 E0
G1 X110.806 Y107.894 F9000.000
G1 E4.00000 F2400.00000
G1 F1324.95
G1 X110.806 Y108.306 E4.01770
G1 X101.513 Y108.306 E4.41726
G1 X101.513 Y107.894 E4.43496
G1 X110.746 Y107.894 E4.83194
G1 X111.323 Y107.377 F9000.000
G1 F1324.95
G1 X111.323 Y108.823 E4.89410
G1 X100.996 Y108.823 E5.33813
G1 X100.996 Y107.377 E5.40029
G1 X111.263 Y107.377 E5.84173
G1 E1.84173 F2400.00000
G92 E0
G1 X110.806 Y102.106 F9000.000
G1 E4.00000 F2400.00000
G1 F1324.95
G1 X101.513 Y102.106 E4.39956
G1 X101.513 Y101.694 E4.41726
G1 X110.806 Y101.694 E4.81682
G1 X110.806 Y102.046 E4.83194
G1 X111.323 Y102.623 F9000.000
G1 F1324.95
G1 X100.996 Y102.623 E5.27596
G1 X100.996 Y101.177 E5.33813
G1 X111.323 Y101.177 E5.78215
G1 X111.323 Y102.563 E5.84173
G1 X111.220 Y103.080 F9000.000
G1 F1800
G1 X100.708 Y103.080 E6.18883
M106 S255

G1 F1800
G1 X100.539 Y103.080 E6.19765
G1 X100.539 Y100.720 E6.32095
G1 X100.708 Y100.720 E6.32978
M106 S255

G1 F1800
G1 X111.220 Y100.720 E6.67687
G1 X111.220 Y96.720 E6.80894
G1 X111.780 Y96.720 E6.82743
G1 X111.780 Y113.280 E7.37420
G1 X111.220 Y113.280 E7.39269
G1 X111.220 Y109.280 E7.52476
G1 X100.708 Y109.280 E7.87185
M106 S255

G1 F1800
G1 X100.539 Y109.280 E7.88068
G1 X100.539 Y106.920 E8.00397
G1 X100.708 Y106.920 E8.01280
M106 S255

G1 F1800
G1 X111.220 Y106.920 E8.35989
G1 X111.220 Y103.140 E8.48470
G1 X111.378 Y102.713 F9000.000
G1 X111.500 Y102.851 F9000.000
G1 F1324.95
G1 X111.500 Y107.149 E8.50614
G1 X111.500 Y109.051 F9000.000
G1 F1324.95
G1 X111.500 Y113.051 E8.52610
G1 X111.500 Y100.949 F9000.000
G1 F1324.95
G1 X111.500 Y96.949 E8.54605
G1 Z0.800 F9000.000
G1 E4.54605 F2400.00000
G92 E0
G1 X110.806 Y107.894 F9000.000
G1 E4.00000 F2400.00000
G1 F1395.95
G1 X110.806 Y108.306 E4.01770
G1 X101.040 Y108.306 E4.43759
G1 X101.040 Y107.894 E4.45529
G1 X110.746 Y107.894 E4.87261
G1 X111.323 Y107.377 F9000.000
G1 F1395.95
G1 X111.323 Y108.823 E4.93477
G1 X100.523 Y108.823 E5.39913
G1 X100.523 Y107.377 E5.46129
G1 X111.263 Y107.377 E5.92307
G1 E1.92307 F2400.00000
G92 E0
G1 X110.806 Y102.106 F9000.000
G1 E4.00000 F2400.00000
G1 F1395.95
G1 X101.040 Y102.106 E4.41989
G1 X101.040 Y101.694 E4.43759
G1 X110.806 Y101.694 E4.85748
G1 X110.806 Y102.046 E4.87261
G1 X111.323 Y102.623 F9000.000
G1 F1395.95
G1 X100.523 Y102.623 E5.33696
G1 X100.523 Y101.177 E5.39913
G1 X111.323 Y101.177 E5.86348
G1 X111.323 Y102.563 E5.92307
G1 X111.220 Y103.080 F9000.000
G1 F1800
G1 X100.119 Y103.080 E6.28960
M106 S255

G1 F1800
G1 X100.066 Y103.080 E6.29237
G1 X100.066 Y100.720 E6.41567
G1 X100.119 Y100.720 E6.41843
M106 S255

G1 F1800
