; generated by Slic3r 1.3.0-dev on 2019-02-10 at 11:54:50

; external perimeters extrusion width = 0.44mm (2.38mm^3/s)
; perimeters extrusion width = 0.56mm (3.62mm^3/s)
; infill extrusion width = 0.50mm (5.48mm^3/s)
; solid infill extrusion width = 0.56mm (6.20mm^3/s)
; top infill extrusion width = 0.56mm (5.17mm^3/s)

M107
M104 S210 ; set temperature
; -- START GCODE --
	G90                     ;set to absolute positioning
G28                     ;move to Home
G92 E0                  ;zero the extruded length
G1 F7200                ;set feedrate to travel_speed value
; -- end of START GCODE --
; Filament gcode

M109 S210 ; set temperature and wait for it to be reached
G21 ; set units to millimeters
G90 ; use absolute coordinates
M82 ; use absolute distances for extrusion
G92 E0
G1 Z0.200 F9000.000
G1 E-4.00000 F2400.00000
G92 E0
G1 X95.054 Y92.436 F9000.000
G1 E4.00000 F2400.00000
G1 F1800
G1 X96.001 Y91.564 E4.05537
G1 X96.512 Y91.143 E4.08379
G1 X97.549 Y90.381 E4.13916
G1 X98.103 Y90.019 E4.16758
G1 X99.217 Y89.376 E4.22291
G1 X99.808 Y89.077 E4.25137
G1 X100.986 Y88.560 E4.30669
G1 X101.606 Y88.328 E4.33515
G1 X102.835 Y87.943 E4.39052
G1 X103.476 Y87.781 E4.41894
G1 X104.740 Y87.534 E4.47430
G1 X105.395 Y87.443 E4.50273
G1 X106.677 Y87.337 E4.55808
G1 X107.339 Y87.319 E4.58652
G1 X108.625 Y87.354 E4.64186
G1 X109.285 Y87.409 E4.67030
G1 X110.560 Y87.586 E4.72567
G1 X111.209 Y87.713 E4.75409
G1 X112.457 Y88.029 E4.80946
G1 X113.088 Y88.226 E4.83788
G1 X114.294 Y88.677 E4.89325
G1 X114.900 Y88.943 E4.92167
G1 X116.049 Y89.524 E4.97703
G1 X116.621 Y89.855 E5.00546
G1 X117.699 Y90.559 E5.06082
G1 X118.232 Y90.951 E5.08925
G1 X119.226 Y91.769 E5.14461
G1 X119.712 Y92.217 E5.17303
G1 X120.610 Y93.140 E5.22840
G1 X121.044 Y93.639 E5.25682
G1 X121.835 Y94.655 E5.31218
G1 X122.212 Y95.198 E5.34061
G1 X122.886 Y96.295 E5.39598
G1 X123.201 Y96.877 E5.42440
G1 X123.750 Y98.041 E5.47976
G1 X123.999 Y98.654 E5.50819
G1 X124.417 Y99.871 E5.56355
G1 X124.597 Y100.508 E5.59197
G1 X124.879 Y101.764 E5.64734
G1 X124.987 Y102.416 E5.67576
G1 X125.129 Y103.696 E5.73113
G1 X125.166 Y104.356 E5.75955
G1 X125.166 Y105.644 E5.81492
G1 X125.129 Y106.304 E5.84334
G1 X124.988 Y107.584 E5.89870
G1 X124.879 Y108.236 E5.92713
G1 X124.597 Y109.492 E5.98249
G1 X124.417 Y110.129 E6.01091
G1 X123.999 Y111.346 E6.06627
G1 X123.750 Y111.959 E6.09470
G1 X123.201 Y113.123 E6.15007
G1 X122.886 Y113.705 E6.17849
G1 X122.212 Y114.802 E6.23386
G1 X121.835 Y115.345 E6.26228
G1 X121.044 Y116.361 E6.31765
G1 X120.610 Y116.860 E6.34607
G1 X119.712 Y117.783 E6.40143
G1 X119.226 Y118.231 E6.42985
G1 X118.232 Y119.049 E6.48522
G1 X117.699 Y119.441 E6.51364
G1 X116.621 Y120.145 E6.56901
G1 X116.049 Y120.476 E6.59743
G1 X114.900 Y121.057 E6.65278
G1 X114.294 Y121.323 E6.68122
G1 X113.088 Y121.774 E6.73659
G1 X112.457 Y121.971 E6.76501
G1 X111.209 Y122.287 E6.82037
G1 X110.560 Y122.414 E6.84880
G1 X109.285 Y122.591 E6.90416
G1 X108.626 Y122.646 E6.93258
G1 X107.339 Y122.681 E6.98794
G1 X106.678 Y122.663 E7.01637
G1 X105.395 Y122.557 E7.07174
G1 X104.740 Y122.466 E7.10016
G1 X103.476 Y122.219 E7.15553
G1 X102.835 Y122.057 E7.18395
G1 X101.606 Y121.672 E7.23932
G1 X100.987 Y121.440 E7.26774
G1 X99.808 Y120.923 E7.32309
G1 X99.218 Y120.625 E7.35152
G1 X98.103 Y119.981 E7.40689
G1 X97.549 Y119.619 E7.43531
G1 X96.499 Y118.846 E7.49139
G1 X96.001 Y118.436 E7.51910
G1 X95.054 Y117.564 E7.57447
G1 X94.593 Y117.090 E7.60289
G1 X93.747 Y116.119 E7.65825
G1 X93.341 Y115.598 E7.68667
G1 X92.608 Y114.540 E7.74202
G1 X92.261 Y113.976 E7.77046
G1 X91.649 Y112.844 E7.82582
G1 X91.366 Y112.246 E7.85425
G1 X90.882 Y111.053 E7.90962
G1 X90.667 Y110.428 E7.93804
G1 X90.313 Y109.173 E7.99410
G1 X90.172 Y108.543 E8.02183
G1 X89.960 Y107.274 E8.07716
G1 X89.888 Y106.616 E8.10562
G1 X89.817 Y105.331 E8.16098
G1 X89.817 Y104.669 E8.18940
G1 X89.888 Y103.385 E8.24473
G1 X89.960 Y102.727 E8.27319
G1 X90.172 Y101.457 E8.32852
G1 X90.317 Y100.811 E8.35698
G1 X90.667 Y99.572 E8.41235
G1 X90.882 Y98.947 E8.44077
G1 X91.366 Y97.754 E8.49613
G1 X91.649 Y97.156 E8.52456
G1 X92.261 Y96.024 E8.57990
G1 X92.608 Y95.461 E8.60834
G1 X93.341 Y94.402 E8.66370
G1 X93.747 Y93.881 E8.69213
G1 X94.593 Y92.910 E8.74748
G1 X95.012 Y92.479 E8.77334
G1 X95.425 Y92.796 F9000.000
G1 F1800
G1 X96.330 Y91.963 E8.82626
G1 X96.840 Y91.542 E8.85468
G1 X97.832 Y90.814 E8.90760
G1 X98.386 Y90.452 E8.93602
G1 X99.451 Y89.837 E8.98890
G1 X100.041 Y89.538 E9.01736
G1 X101.168 Y89.044 E9.07024
G1 X101.787 Y88.812 E9.09870
G1 X102.962 Y88.445 E9.15161
G1 X103.603 Y88.282 E9.18003
G1 X104.811 Y88.046 E9.23294
G1 X105.466 Y87.956 E9.26137
G1 X106.692 Y87.854 E9.31427
G1 X107.353 Y87.836 E9.34271
G1 X108.583 Y87.870 E9.39560
G1 X109.242 Y87.924 E9.42405
G1 X110.461 Y88.093 E9.47697
G1 X111.110 Y88.220 E9.50539
G1 X112.303 Y88.522 E9.55831
G1 X112.934 Y88.719 E9.58673
G1 X114.087 Y89.151 E9.63964
G1 X114.692 Y89.417 E9.66806
G1 X115.790 Y89.972 E9.72098
G1 X116.363 Y90.303 E9.74941
G1 X117.393 Y90.976 E9.80232
G1 X117.926 Y91.367 E9.83074
G1 X118.876 Y92.150 E9.88366
G1 X119.362 Y92.598 E9.91208
G1 X120.220 Y93.480 E9.96500
G1 X120.654 Y93.978 E9.99342
G1 X121.410 Y94.949 E10.04633
G1 X121.787 Y95.493 E10.07476
G1 X122.431 Y96.541 E10.12768
G1 X122.746 Y97.123 E10.15610
G1 X123.271 Y98.236 E10.20901
G1 X123.520 Y98.848 E10.23744
G1 X123.920 Y100.012 E10.29035
G1 X124.100 Y100.648 E10.31877
G1 X124.369 Y101.849 E10.37169
G1 X124.477 Y102.501 E10.40011
G1 X124.613 Y103.725 E10.45303
G1 X124.649 Y104.385 E10.48145
G1 X124.649 Y105.615 E10.53437
G1 X124.613 Y106.275 E10.56279
G1 X124.475 Y107.515 E10.61642
G1 X124.369 Y108.151 E10.64413
G1 X124.100 Y109.352 E10.69705
G1 X123.920 Y109.988 E10.72547
G1 X123.520 Y111.152 E10.77837
G1 X123.271 Y111.764 E10.80681
G1 X122.746 Y112.877 E10.85972
G1 X122.431 Y113.459 E10.88814
G1 X121.787 Y114.507 E10.94106
G1 X121.410 Y115.050 E10.96948
G1 X120.654 Y116.022 E11.02240
G1 X120.220 Y116.520 E11.05082
G1 X119.362 Y117.402 E11.10374
G1 X118.876 Y117.850 E11.13216
G1 X117.926 Y118.633 E11.18508
G1 X117.393 Y119.024 E11.21350
G1 X116.363 Y119.697 E11.26641
G1 X115.790 Y120.028 E11.29484
G1 X114.692 Y120.583 E11.34774
G1 X114.087 Y120.849 E11.37618
G1 X112.934 Y121.281 E11.42909
G1 X112.303 Y121.478 E11.45752
G1 X111.110 Y121.780 E11.51043
G1 X110.461 Y121.907 E11.53885
G1 X109.242 Y122.076 E11.59177
G1 X108.583 Y122.130 E11.62019
G1 X107.353 Y122.164 E11.67310
G1 X106.692 Y122.146 E11.70153
G1 X105.466 Y122.044 E11.75445
G1 X104.811 Y121.954 E11.78287
G1 X103.603 Y121.718 E11.83579
G1 X102.962 Y121.555 E11.86421
G1 X101.787 Y121.188 E11.91713
G1 X101.168 Y120.956 E11.94555
G1 X100.041 Y120.462 E11.99845
G1 X99.451 Y120.163 E12.02689
G1 X98.386 Y119.548 E12.07980
G1 X97.832 Y119.186 E12.10822
G1 X96.841 Y118.458 E12.16113
G1 X96.330 Y118.037 E12.18956
G1 X95.425 Y117.204 E12.24248
G1 X94.964 Y116.730 E12.27090
G1 X94.155 Y115.802 E12.32382
G1 X93.749 Y115.280 E12.35224
G1 X93.048 Y114.269 E12.40514
G1 X92.702 Y113.706 E12.43358
G1 X92.116 Y112.623 E12.48649
G1 X91.834 Y112.025 E12.51492
G1 X91.371 Y110.885 E12.56783
G1 X91.156 Y110.260 E12.59626
G1 X90.818 Y109.059 E12.64988
G1 X90.677 Y108.430 E12.67760
G1 X90.474 Y107.217 E12.73048
G1 X90.402 Y106.559 E12.75893
G1 X90.334 Y105.331 E12.81185
G1 X90.334 Y104.669 E12.84027
G1 X90.401 Y103.441 E12.89316
G1 X90.474 Y102.784 E12.92161
G1 X90.677 Y101.570 E12.97449
G1 X90.821 Y100.925 E13.00295
G1 X91.156 Y99.740 E13.05587
G1 X91.371 Y99.115 E13.08429
G1 X91.834 Y97.975 E13.13720
G1 X92.116 Y97.377 E13.16563
G1 X92.702 Y96.295 E13.21853
G1 X93.048 Y95.731 E13.24697
G1 X93.749 Y94.720 E13.29988
G1 X94.155 Y94.198 E13.32830
G1 X94.963 Y93.270 E13.38120
G1 X95.383 Y92.839 E13.40706
G1 X95.795 Y93.157 F9000.000
G1 F1800
G1 X96.659 Y92.362 E13.45753
G1 X97.169 Y91.942 E13.48595
G1 X98.115 Y91.246 E13.53642
G1 X98.668 Y90.885 E13.56484
G1 X99.684 Y90.298 E13.61528
G1 X100.275 Y90.000 E13.64373
G1 X101.349 Y89.528 E13.69416
G1 X101.969 Y89.296 E13.72262
G1 X103.089 Y88.946 E13.77309
G1 X103.730 Y88.784 E13.80151
G1 X104.882 Y88.559 E13.85197
G1 X105.537 Y88.468 E13.88040
G1 X106.706 Y88.371 E13.93085
G1 X107.367 Y88.353 E13.95929
G1 X108.540 Y88.385 E14.00973
G1 X109.199 Y88.440 E14.03818
G1 X110.362 Y88.601 E14.08864
G1 X111.011 Y88.727 E14.11707
G1 X112.149 Y89.016 E14.16753
G1 X112.780 Y89.213 E14.19596
G1 X113.879 Y89.625 E14.24642
G1 X114.484 Y89.890 E14.27484
G1 X115.531 Y90.420 E14.32531
G1 X116.104 Y90.751 E14.35373
G1 X117.087 Y91.393 E14.40420
G1 X117.619 Y91.784 E14.43262
G1 X118.525 Y92.530 E14.48309
G1 X119.012 Y92.978 E14.51151
G1 X119.830 Y93.819 E14.56198
G1 X120.264 Y94.318 E14.59040
G1 X120.985 Y95.244 E14.64087
G1 X121.362 Y95.787 E14.66929
G1 X121.977 Y96.787 E14.71976
G1 X122.291 Y97.369 E14.74818
G1 X122.792 Y98.430 E14.79865
G1 X123.041 Y99.043 E14.82707
G1 X123.422 Y100.153 E14.87754
G1 X123.602 Y100.789 E14.90596
G1 X123.859 Y101.934 E14.95643
G1 X123.967 Y102.586 E14.98485
G1 X124.097 Y103.753 E15.03531
G1 X124.133 Y104.413 E15.06374
G1 X124.133 Y105.587 E15.11420
G1 X124.097 Y106.247 E15.14263
G1 X123.967 Y107.413 E15.19309
G1 X123.859 Y108.066 E15.22152
G1 X123.602 Y109.211 E15.27198
G1 X123.422 Y109.847 E15.30040
G1 X123.041 Y110.957 E15.35086
G1 X122.792 Y111.570 E15.37929
G1 X122.291 Y112.631 E15.42976
G1 X121.977 Y113.213 E15.45818
G1 X121.362 Y114.213 E15.50865
G1 X120.985 Y114.756 E15.53707
G1 X120.264 Y115.682 E15.58754
G1 X119.830 Y116.181 E15.61596
G1 X119.012 Y117.022 E15.66643
G1 X118.525 Y117.470 E15.69485
G1 X117.619 Y118.216 E15.74532
G1 X117.087 Y118.607 E15.77374
G1 X116.104 Y119.249 E15.82421
G1 X115.532 Y119.580 E15.85263
G1 X114.485 Y120.110 E15.90308
G1 X113.879 Y120.375 E15.93152
G1 X112.780 Y120.787 E15.98199
G1 X112.149 Y120.984 E16.01041
G1 X111.011 Y121.273 E16.06088
G1 X110.362 Y121.399 E16.08930
G1 X109.199 Y121.560 E16.13976
G1 X108.541 Y121.615 E16.16819
G1 X107.367 Y121.647 E16.21864
G1 X106.706 Y121.629 E16.24708
G1 X105.537 Y121.532 E16.29754
G1 X104.882 Y121.441 E16.32596
G1 X103.730 Y121.216 E16.37643
G1 X103.089 Y121.054 E16.40485
G1 X101.969 Y120.704 E16.45532
G1 X101.350 Y120.472 E16.48374
G1 X100.275 Y120.001 E16.53420
G1 X99.685 Y119.702 E16.56263
G1 X98.668 Y119.115 E16.61310
G1 X98.115 Y118.754 E16.64152
G1 X97.169 Y118.058 E16.69198
G1 X96.659 Y117.638 E16.72041
G1 X95.795 Y116.843 E16.77088
G1 X95.334 Y116.369 E16.79930
G1 X94.564 Y115.484 E16.84977
G1 X94.158 Y114.963 E16.87819
G1 X93.489 Y113.998 E16.92864
G1 X93.142 Y113.435 E16.95708
G1 X92.584 Y112.403 E17.00754
G1 X92.302 Y111.805 E17.03597
G1 X91.860 Y110.717 E17.08643
G1 X91.645 Y110.092 E17.11486
G1 X91.322 Y108.946 E17.16604
G1 X91.181 Y108.317 E17.19375
G1 X90.988 Y107.160 E17.24418
G1 X90.915 Y106.503 E17.27264
G1 X90.851 Y105.331 E17.32310
G1 X90.851 Y104.669 E17.35152
G1 X90.915 Y103.498 E17.40196
G1 X90.988 Y102.840 E17.43041
G1 X91.181 Y101.684 E17.48084
G1 X91.326 Y101.038 E17.50930
G1 X91.645 Y99.908 E17.55977
G1 X91.860 Y99.283 E17.58819
G1 X92.302 Y98.195 E17.63865
G1 X92.584 Y97.598 E17.66708
G1 X93.142 Y96.566 E17.71753
G1 X93.489 Y96.002 E17.74597
G1 X94.157 Y95.038 E17.79643
G1 X94.564 Y94.516 E17.82486
G1 X95.334 Y93.631 E17.87531
G1 X95.754 Y93.200 E17.90117
G1 X96.166 Y93.517 F9000.000
G1 F1800
G1 X96.988 Y92.761 E17.94919
G1 X97.498 Y92.341 E17.97761
G1 X98.398 Y91.679 E18.02563
G1 X98.951 Y91.318 E18.05405
G1 X99.918 Y90.760 E18.10204
G1 X100.508 Y90.461 E18.13049
G1 X101.530 Y90.013 E18.17847
G1 X102.150 Y89.780 E18.20693
G1 X103.216 Y89.447 E18.25495
G1 X103.857 Y89.285 E18.28337
G1 X104.953 Y89.071 E18.33138
G1 X105.608 Y88.980 E18.35981
G1 X106.720 Y88.888 E18.40781
G1 X107.381 Y88.869 E18.43625
G1 X108.497 Y88.900 E18.48424
G1 X109.157 Y88.955 E18.51269
G1 X110.263 Y89.108 E18.56071
G1 X110.912 Y89.235 E18.58913
G1 X111.994 Y89.509 E18.63715
G1 X112.625 Y89.706 E18.66557
G1 X113.671 Y90.098 E18.71358
G1 X114.276 Y90.364 E18.74201
G1 X115.273 Y90.868 E18.79002
G1 X115.845 Y91.198 E18.81845
G1 X116.780 Y91.809 E18.86646
G1 X117.313 Y92.201 E18.89489
G1 X118.175 Y92.911 E18.94290
G1 X118.661 Y93.358 E18.97133
G1 X119.440 Y94.159 E19.01935
G1 X119.874 Y94.657 E19.04777
G1 X120.560 Y95.539 E19.09578
G1 X120.937 Y96.082 E19.12420
G1 X121.522 Y97.033 E19.17222
G1 X121.836 Y97.615 E19.20065
G1 X122.313 Y98.625 E19.24866
G1 X122.562 Y99.237 E19.27709
G1 X122.925 Y100.294 E19.32510
G1 X123.104 Y100.930 E19.35353
G1 X123.349 Y102.019 E19.40154
G1 X123.457 Y102.672 E19.42997
G1 X123.580 Y103.782 E19.47798
G1 X123.617 Y104.442 E19.50640
G1 X123.617 Y105.558 E19.55442
G1 X123.580 Y106.218 E19.58285
G1 X123.457 Y107.328 E19.63086
G1 X123.349 Y107.981 E19.65928
G1 X123.104 Y109.070 E19.70730
G1 X122.925 Y109.706 E19.73572
G1 X122.556 Y110.778 E19.78444
G1 X122.313 Y111.375 E19.81216
G1 X121.836 Y112.385 E19.86018
G1 X121.522 Y112.967 E19.88860
G1 X120.937 Y113.918 E19.93662
G1 X120.560 Y114.461 E19.96504
G1 X119.874 Y115.343 E20.01306
G1 X119.440 Y115.841 E20.04148
G1 X118.662 Y116.642 E20.08950
G1 X118.175 Y117.089 E20.11792
G1 X117.313 Y117.799 E20.16594
G1 X116.780 Y118.191 E20.19436
G1 X115.845 Y118.802 E20.24238
G1 X115.273 Y119.132 E20.27080
G1 X114.277 Y119.636 E20.31881
G1 X113.671 Y119.902 E20.34724
G1 X112.625 Y120.294 E20.39526
G1 X111.994 Y120.491 E20.42368
G1 X110.912 Y120.765 E20.47170
G1 X110.263 Y120.892 E20.50012
G1 X109.157 Y121.045 E20.54813
G1 X108.498 Y121.100 E20.57656
G1 X107.382 Y121.131 E20.62457
G1 X106.721 Y121.112 E20.65300
G1 X105.608 Y121.020 E20.70102
G1 X104.953 Y120.929 E20.72944
G1 X103.857 Y120.715 E20.77746
G1 X103.216 Y120.553 E20.80588
G1 X102.150 Y120.219 E20.85390
G1 X101.531 Y119.988 E20.88232
G1 X100.508 Y119.539 E20.93033
G1 X99.918 Y119.241 E20.95876
G1 X98.951 Y118.682 E21.00678
G1 X98.398 Y118.321 E21.03520
G1 X97.485 Y117.649 E21.08393
G1 X96.988 Y117.239 E21.11164
G1 X96.166 Y116.483 E21.15966
G1 X95.705 Y116.009 E21.18808
G1 X94.972 Y115.167 E21.23610
G1 X94.566 Y114.645 E21.26452
G1 X93.929 Y113.727 E21.31252
G1 X93.583 Y113.164 E21.34096
G1 X93.052 Y112.182 E21.38897
G1 X92.769 Y111.584 E21.41740
G1 X92.349 Y110.549 E21.46542
G1 X92.134 Y109.924 E21.49384
G1 X91.827 Y108.834 E21.54255
G1 X91.686 Y108.204 E21.57028
G1 X91.502 Y107.103 E21.61827
G1 X91.429 Y106.446 E21.64672
G1 X91.368 Y105.331 E21.69473
G1 X91.368 Y104.669 E21.72316
G1 X91.429 Y103.555 E21.77114
G1 X91.502 Y102.897 E21.79960
G1 X91.686 Y101.797 E21.84758
G1 X91.831 Y101.151 E21.87604
G1 X92.134 Y100.076 E21.92405
G1 X92.349 Y99.451 E21.95248
G1 X92.769 Y98.416 E22.00049
G1 X93.051 Y97.818 E22.02892
G1 X93.583 Y96.836 E22.07692
G1 X93.929 Y96.273 E22.10536
G1 X94.565 Y95.355 E22.15337
G1 X94.972 Y94.833 E22.18180
G1 X95.705 Y93.992 E22.22980
G1 X96.124 Y93.560 E22.25566
G1 X96.537 Y93.878 F9000.000
G1 F1800
G1 X97.316 Y93.160 E22.30122
G1 X97.827 Y92.740 E22.32965
G1 X98.681 Y92.112 E22.37521
G1 X99.234 Y91.751 E22.40364
G1 X100.151 Y91.221 E22.44918
G1 X100.742 Y90.922 E22.47763
G1 X101.712 Y90.497 E22.52317
G1 X102.331 Y90.265 E22.55162
G1 X103.343 Y89.948 E22.59719
G1 X103.984 Y89.786 E22.62561
G1 X105.024 Y89.583 E22.67117
G1 X105.679 Y89.492 E22.69960
G1 X106.735 Y89.405 E22.74515
G1 X107.396 Y89.386 E22.77359
G1 X108.455 Y89.416 E22.81914
G1 X109.114 Y89.470 E22.84758
G1 X110.164 Y89.616 E22.89315
G1 X110.813 Y89.742 E22.92157
G1 X111.840 Y90.003 E22.96714
G1 X112.471 Y90.200 E22.99556
G1 X113.463 Y90.572 E23.04113
G1 X114.069 Y90.837 E23.06955
G1 X115.014 Y91.316 E23.11512
G1 X115.587 Y91.646 E23.14354
G1 X116.474 Y92.226 E23.18910
G1 X117.007 Y92.617 E23.21753
G1 X117.825 Y93.291 E23.26310
G1 X118.311 Y93.739 E23.29152
G1 X119.050 Y94.499 E23.33709
G1 X119.484 Y94.997 E23.36551
G1 X120.135 Y95.833 E23.41108
G1 X120.512 Y96.377 E23.43950
G1 X121.067 Y97.280 E23.48507
G1 X121.382 Y97.861 E23.51349
G1 X121.834 Y98.819 E23.55906
G1 X122.083 Y99.432 E23.58748
G1 X122.427 Y100.434 E23.63305
G1 X122.607 Y101.070 E23.66147
G1 X122.839 Y102.105 E23.70704
G1 X122.947 Y102.757 E23.73546
G1 X123.064 Y103.810 E23.78103
G1 X123.100 Y104.470 E23.80945
G1 X123.100 Y105.530 E23.85502
