; generated by Slic3r 1.3.0-dev on 2019-02-09 at 09:32:21

; external perimeters extrusion width = 0.44mm (2.38mm^3/s)
; perimeters extrusion width = 0.56mm (3.62mm^3/s)
; infill extrusion width = 0.50mm (5.48mm^3/s)
; solid infill extrusion width = 0.56mm (6.20mm^3/s)
; top infill extrusion width = 0.56mm (5.17mm^3/s)

M107
M104 S210 ; set temperature
; -- START GCODE --
	G90                     ;set to absolute positioning
G28                     ;move to Home
G92 E0                  ;zero the extruded length
G1 F7200                ;set feedrate to travel_speed value
; -- end of START GCODE --
; Filament gcode

M109 S210 ; set temperature and wait for it to be reached
G21 ; set units to millimeters
G90 ; use absolute coordinates
M82 ; use absolute distances for extrusion
G92 E0
G1 Z0.200 F9000.000
G1 E-4.00000 F2400.00000
G92 E0
G1 X94.776 Y92.721 F9000.000
G1 E4.00000 F2400.00000
G1 F1800
G1 X95.221 Y92.277 E4.02701
G1 X96.130 Y91.458 E4.07960
G1 X96.618 Y91.063 E4.10662
G1 X97.608 Y90.344 E4.15921
G1 X98.134 Y90.002 E4.18622
G1 X99.194 Y89.390 E4.23882
G1 X99.753 Y89.105 E4.26582
G1 X100.871 Y88.607 E4.31842
G1 X101.457 Y88.382 E4.34542
G1 X102.621 Y88.004 E4.39802
G1 X103.227 Y87.841 E4.42503
G1 X104.424 Y87.587 E4.47763
G1 X105.044 Y87.489 E4.50463
G1 X106.261 Y87.361 E4.55723
G1 X106.888 Y87.328 E4.58423
G1 X108.112 Y87.328 E4.63683
G1 X108.739 Y87.361 E4.66383
G1 X109.956 Y87.489 E4.71643
G1 X110.576 Y87.587 E4.74344
G1 X111.773 Y87.841 E4.79604
G1 X112.379 Y88.004 E4.82304
G1 X113.601 Y88.405 E4.87833
G1 X114.129 Y88.607 E4.90264
G1 X115.247 Y89.105 E4.95524
G1 X115.806 Y89.390 E4.98224
G1 X116.866 Y90.002 E5.03484
G1 X117.392 Y90.344 E5.06184
G1 X118.382 Y91.063 E5.11444
G1 X118.870 Y91.458 E5.14145
G1 X119.779 Y92.277 E5.19405
G1 X120.223 Y92.721 E5.22105
G1 X121.042 Y93.630 E5.27365
G1 X121.437 Y94.118 E5.30065
G1 X122.156 Y95.108 E5.35325
G1 X122.498 Y95.634 E5.38026
G1 X123.110 Y96.694 E5.43285
G1 X123.395 Y97.253 E5.45986
G1 X123.893 Y98.371 E5.51245
G1 X124.118 Y98.957 E5.53946
G1 X124.496 Y100.121 E5.59206
G1 X124.659 Y100.727 E5.61906
G1 X124.913 Y101.924 E5.67166
G1 X125.011 Y102.544 E5.69866
G1 X125.139 Y103.761 E5.75126
G1 X125.172 Y104.388 E5.77827
G1 X125.172 Y105.612 E5.83087
G1 X125.139 Y106.239 E5.85787
G1 X125.011 Y107.456 E5.91047
G1 X124.913 Y108.076 E5.93747
G1 X124.659 Y109.273 E5.99007
G1 X124.496 Y109.879 E6.01708
G1 X124.118 Y111.043 E6.06968
G1 X123.893 Y111.629 E6.09668
G1 X123.395 Y112.747 E6.14927
G1 X123.110 Y113.306 E6.17628
G1 X122.498 Y114.366 E6.22888
G1 X122.156 Y114.892 E6.25588
G1 X121.437 Y115.882 E6.30848
G1 X121.042 Y116.370 E6.33549
G1 X120.223 Y117.279 E6.38809
G1 X119.779 Y117.723 E6.41509
G1 X118.870 Y118.542 E6.46769
G1 X118.382 Y118.937 E6.49469
G1 X117.392 Y119.656 E6.54729
G1 X116.866 Y119.998 E6.57429
G1 X115.806 Y120.610 E6.62689
G1 X115.247 Y120.895 E6.65390
G1 X114.129 Y121.393 E6.70649
G1 X113.543 Y121.618 E6.73350
G1 X112.379 Y121.996 E6.78609
G1 X111.772 Y122.159 E6.81310
G1 X110.576 Y122.413 E6.86570
G1 X109.956 Y122.511 E6.89270
G1 X108.739 Y122.639 E6.94530
G1 X108.112 Y122.672 E6.97231
G1 X106.888 Y122.672 E7.02491
G1 X106.261 Y122.639 E7.05191
G1 X105.044 Y122.511 E7.10451
G1 X104.424 Y122.413 E7.13151
G1 X103.227 Y122.159 E7.18411
G1 X102.621 Y121.996 E7.21111
G1 X101.457 Y121.618 E7.26372
G1 X100.871 Y121.393 E7.29072
G1 X99.753 Y120.895 E7.34331
G1 X99.194 Y120.610 E7.37032
G1 X98.134 Y119.998 E7.42292
G1 X97.608 Y119.656 E7.44992
G1 X96.618 Y118.937 E7.50252
G1 X96.130 Y118.542 E7.52953
G1 X95.221 Y117.723 E7.58213
G1 X94.777 Y117.279 E7.60913
G1 X93.958 Y116.370 E7.66172
G1 X93.563 Y115.882 E7.68873
G1 X92.844 Y114.892 E7.74133
G1 X92.502 Y114.366 E7.76833
G1 X91.890 Y113.306 E7.82093
G1 X91.605 Y112.747 E7.84794
G1 X91.107 Y111.629 E7.90053
G1 X90.882 Y111.043 E7.92754
G1 X90.504 Y109.879 E7.98013
G1 X90.341 Y109.273 E8.00714
G1 X90.087 Y108.076 E8.05974
G1 X89.989 Y107.456 E8.08674
G1 X89.861 Y106.239 E8.13933
G1 X89.828 Y105.612 E8.16635
G1 X89.831 Y104.326 E8.22164
G1 X89.861 Y103.761 E8.24595
G1 X89.989 Y102.544 E8.29854
G1 X90.087 Y101.924 E8.32555
G1 X90.341 Y100.727 E8.37815
G1 X90.504 Y100.121 E8.40515
G1 X90.882 Y98.957 E8.45775
G1 X91.107 Y98.371 E8.48475
G1 X91.605 Y97.253 E8.53735
G1 X91.890 Y96.694 E8.56436
G1 X92.502 Y95.634 E8.61695
G1 X92.844 Y95.108 E8.64396
G1 X93.563 Y94.118 E8.69656
G1 X93.958 Y93.630 E8.72356
G1 X94.736 Y92.765 E8.77357
G1 X95.142 Y93.086 F9000.000
G1 F1800
G1 X95.586 Y92.642 E8.80058
G1 X96.455 Y91.860 E8.85085
G1 X96.943 Y91.465 E8.87786
G1 X97.889 Y90.777 E8.92813
G1 X98.416 Y90.435 E8.95514
G1 X99.429 Y89.851 E9.00541
G1 X99.988 Y89.565 E9.03241
G1 X101.056 Y89.090 E9.08268
G1 X101.643 Y88.865 E9.10969
G1 X102.755 Y88.503 E9.15996
G1 X103.361 Y88.341 E9.18696
G1 X104.505 Y88.098 E9.23723
G1 X105.125 Y88.000 E9.26424
G1 X106.288 Y87.877 E9.31451
G1 X106.915 Y87.845 E9.34151
G1 X108.084 Y87.845 E9.39178
G1 X108.712 Y87.877 E9.41879
G1 X109.875 Y88.000 E9.46906
G1 X110.495 Y88.098 E9.49606
G1 X111.639 Y88.341 E9.54634
G1 X112.245 Y88.504 E9.57334
G1 X113.416 Y88.887 E9.62630
G1 X113.944 Y89.090 E9.65061
G1 X115.012 Y89.565 E9.70088
G1 X115.571 Y89.851 E9.72789
G1 X116.584 Y90.435 E9.77816
G1 X117.111 Y90.777 E9.80516
G1 X118.057 Y91.465 E9.85544
G1 X118.545 Y91.860 E9.88244
G1 X119.414 Y92.642 E9.93271
G1 X119.858 Y93.086 E9.95971
G1 X120.640 Y93.955 E10.00999
G1 X121.035 Y94.443 E10.03699
G1 X121.723 Y95.389 E10.08726
G1 X122.065 Y95.916 E10.11426
G1 X122.649 Y96.929 E10.16454
G1 X122.935 Y97.488 E10.19154
G1 X123.410 Y98.556 E10.24180
G1 X123.635 Y99.143 E10.26882
G1 X123.997 Y100.255 E10.31909
G1 X124.159 Y100.861 E10.34609
G1 X124.402 Y102.005 E10.39636
G1 X124.500 Y102.625 E10.42337
G1 X124.623 Y103.788 E10.47364
G1 X124.655 Y104.415 E10.50064
G1 X124.655 Y105.585 E10.55091
G1 X124.623 Y106.212 E10.57792
G1 X124.500 Y107.375 E10.62819
G1 X124.402 Y107.995 E10.65519
G1 X124.159 Y109.139 E10.70547
G1 X123.997 Y109.745 E10.73247
G1 X123.635 Y110.857 E10.78274
G1 X123.410 Y111.444 E10.80974
G1 X122.935 Y112.512 E10.86001
G1 X122.649 Y113.071 E10.88702
G1 X122.065 Y114.084 E10.93729
G1 X121.723 Y114.611 E10.96430
G1 X121.035 Y115.557 E11.01457
G1 X120.640 Y116.045 E11.04157
G1 X119.858 Y116.914 E11.09184
G1 X119.414 Y117.358 E11.11885
G1 X118.545 Y118.140 E11.16912
G1 X118.057 Y118.535 E11.19612
G1 X117.111 Y119.223 E11.24640
G1 X116.584 Y119.565 E11.27340
G1 X115.571 Y120.149 E11.32367
G1 X115.012 Y120.435 E11.35067
G1 X113.944 Y120.910 E11.40094
G1 X113.357 Y121.135 E11.42795
G1 X112.246 Y121.496 E11.47821
G1 X111.639 Y121.659 E11.50522
G1 X110.495 Y121.902 E11.55550
G1 X109.875 Y122.000 E11.58250
G1 X108.712 Y122.123 E11.63276
G1 X108.085 Y122.155 E11.65977
G1 X106.915 Y122.155 E11.71005
G1 X106.288 Y122.123 E11.73705
G1 X105.125 Y122.000 E11.78732
G1 X104.505 Y121.902 E11.81433
G1 X103.361 Y121.659 E11.86460
G1 X102.755 Y121.497 E11.89160
G1 X101.643 Y121.135 E11.94188
G1 X101.056 Y120.910 E11.96888
G1 X99.988 Y120.435 E12.01915
G1 X99.429 Y120.149 E12.04615
G1 X98.416 Y119.565 E12.09643
G1 X97.889 Y119.223 E12.12343
G1 X96.943 Y118.535 E12.17370
G1 X96.455 Y118.140 E12.20070
G1 X95.586 Y117.358 E12.25098
G1 X95.142 Y116.914 E12.27798
G1 X94.360 Y116.045 E12.32825
G1 X93.965 Y115.557 E12.35526
G1 X93.277 Y114.611 E12.40553
G1 X92.935 Y114.084 E12.43253
G1 X92.351 Y113.071 E12.48280
G1 X92.065 Y112.512 E12.50981
G1 X91.590 Y111.444 E12.56008
G1 X91.365 Y110.857 E12.58708
G1 X91.004 Y109.746 E12.63735
G1 X90.841 Y109.139 E12.66436
G1 X90.598 Y107.995 E12.71463
G1 X90.500 Y107.375 E12.74163
G1 X90.377 Y106.212 E12.79190
G1 X90.345 Y105.585 E12.81891
G1 X90.348 Y104.353 E12.87188
G1 X90.377 Y103.788 E12.89618
G1 X90.500 Y102.625 E12.94645
G1 X90.598 Y102.005 E12.97346
G1 X90.841 Y100.861 E13.02373
G1 X91.003 Y100.255 E13.05073
G1 X91.365 Y99.143 E13.10100
G1 X91.590 Y98.556 E13.12801
G1 X92.065 Y97.488 E13.17828
G1 X92.351 Y96.929 E13.20528
G1 X92.935 Y95.916 E13.25555
G1 X93.277 Y95.389 E13.28256
G1 X93.965 Y94.443 E13.33283
G1 X94.360 Y93.955 E13.35983
G1 X95.102 Y93.131 E13.40752
G1 X95.508 Y93.452 F9000.000
G1 F1800
G1 X95.952 Y93.008 E13.43453
G1 X96.780 Y92.262 E13.48247
G1 X97.269 Y91.866 E13.50948
G1 X98.171 Y91.211 E13.55742
G1 X98.698 Y90.869 E13.58443
G1 X99.663 Y90.311 E13.63237
G1 X100.223 Y90.026 E13.65937
G1 X101.242 Y89.573 E13.70732
G1 X101.828 Y89.348 E13.73432
G1 X102.889 Y89.003 E13.78227
G1 X103.495 Y88.840 E13.80927
G1 X104.586 Y88.609 E13.85722
G1 X105.206 Y88.510 E13.88422
G1 X106.315 Y88.394 E13.93216
G1 X106.942 Y88.361 E13.95917
G1 X108.057 Y88.361 E14.00711
G1 X108.685 Y88.394 E14.03412
G1 X109.794 Y88.510 E14.08206
G1 X110.414 Y88.609 E14.10907
G1 X111.505 Y88.840 E14.15701
G1 X112.111 Y89.003 E14.18401
G1 X113.230 Y89.370 E14.23465
G1 X113.758 Y89.573 E14.25896
G1 X114.777 Y90.026 E14.30690
G1 X115.337 Y90.311 E14.33391
G1 X116.302 Y90.869 E14.38185
G1 X116.829 Y91.211 E14.40886
G1 X117.731 Y91.866 E14.45680
G1 X118.219 Y92.262 E14.48380
G1 X119.048 Y93.008 E14.53175
G1 X119.492 Y93.452 E14.55875
G1 X120.238 Y94.281 E14.60670
G1 X120.634 Y94.769 E14.63370
G1 X121.289 Y95.671 E14.68165
G1 X121.631 Y96.198 E14.70865
G1 X122.189 Y97.163 E14.75660
G1 X122.474 Y97.723 E14.78360
G1 X122.927 Y98.741 E14.83154
G1 X123.152 Y99.328 E14.85855
G1 X123.497 Y100.389 E14.90649
G1 X123.660 Y100.995 E14.93350
G1 X123.891 Y102.086 E14.98144
G1 X123.990 Y102.706 E15.00844
G1 X124.106 Y103.815 E15.05639
G1 X124.139 Y104.442 E15.08339
G1 X124.139 Y105.558 E15.13134
G1 X124.106 Y106.185 E15.15834
G1 X123.990 Y107.294 E15.20629
G1 X123.891 Y107.914 E15.23329
G1 X123.660 Y109.005 E15.28123
G1 X123.497 Y109.611 E15.30824
G1 X123.152 Y110.672 E15.35618
G1 X122.927 Y111.258 E15.38319
G1 X122.474 Y112.277 E15.43113
G1 X122.189 Y112.837 E15.45813
G1 X121.631 Y113.802 E15.50608
G1 X121.289 Y114.329 E15.53308
G1 X120.634 Y115.231 E15.58103
G1 X120.238 Y115.719 E15.60803
G1 X119.492 Y116.548 E15.65598
G1 X119.048 Y116.992 E15.68298
G1 X118.219 Y117.738 E15.73093
G1 X117.731 Y118.134 E15.75793
G1 X116.829 Y118.789 E15.80587
G1 X116.302 Y119.131 E15.83288
G1 X115.337 Y119.689 E15.88082
G1 X114.777 Y119.974 E15.90782
G1 X113.759 Y120.427 E15.95577
G1 X113.172 Y120.652 E15.98277
G1 X112.112 Y120.997 E16.03071
G1 X111.505 Y121.160 E16.05772
G1 X110.414 Y121.391 E16.10567
G1 X109.794 Y121.490 E16.13267
G1 X108.685 Y121.606 E16.18061
G1 X108.058 Y121.639 E16.20762
G1 X106.942 Y121.639 E16.25557
G1 X106.315 Y121.606 E16.28257
G1 X105.206 Y121.490 E16.33051
G1 X104.586 Y121.391 E16.35752
G1 X103.495 Y121.160 E16.40546
G1 X102.889 Y120.997 E16.43246
G1 X101.828 Y120.652 E16.48041
G1 X101.242 Y120.427 E16.50741
G1 X100.223 Y119.974 E16.55536
G1 X99.663 Y119.689 E16.58236
G1 X98.698 Y119.131 E16.63031
G1 X98.171 Y118.789 E16.65731
G1 X97.269 Y118.134 E16.70526
G1 X96.781 Y117.738 E16.73226
G1 X95.952 Y116.992 E16.78020
G1 X95.508 Y116.548 E16.80721
G1 X94.762 Y115.719 E16.85515
G1 X94.366 Y115.231 E16.88216
G1 X93.711 Y114.329 E16.93010
G1 X93.369 Y113.802 E16.95710
G1 X92.811 Y112.837 E17.00505
G1 X92.526 Y112.277 E17.03205
G1 X92.073 Y111.258 E17.08000
G1 X91.848 Y110.672 E17.10700
G1 X91.503 Y109.612 E17.15494
G1 X91.340 Y109.005 E17.18195
G1 X91.109 Y107.914 E17.22990
G1 X91.010 Y107.294 E17.25690
G1 X90.894 Y106.185 E17.30484
G1 X90.861 Y105.558 E17.33185
G1 X90.861 Y104.443 E17.37979
G1 X90.894 Y103.815 E17.40679
G1 X91.010 Y102.706 E17.45474
G1 X91.109 Y102.086 E17.48174
G1 X91.340 Y100.995 E17.52969
G1 X91.503 Y100.389 E17.55669
G1 X91.848 Y99.328 E17.60464
G1 X92.073 Y98.742 E17.63164
G1 X92.526 Y97.723 E17.67959
G1 X92.811 Y97.163 E17.70659
G1 X93.369 Y96.198 E17.75453
G1 X93.711 Y95.671 E17.78154
G1 X94.366 Y94.769 E17.82948
G1 X94.762 Y94.281 E17.85649
G1 X95.467 Y93.497 E17.90184
G1 X95.873 Y93.818 F9000.000
G1 F1800
G1 X96.318 Y93.373 E17.92885
G1 X97.106 Y92.664 E17.97446
G1 X97.594 Y92.268 E18.00148
G1 X98.452 Y91.645 E18.04709
G1 X98.979 Y91.303 E18.07410
G1 X99.898 Y90.772 E18.11972
G1 X100.458 Y90.487 E18.14672
G1 X101.427 Y90.055 E18.19233
G1 X102.013 Y89.830 E18.21934
G1 X103.022 Y89.502 E18.26496
G1 X103.629 Y89.340 E18.29196
G1 X104.667 Y89.119 E18.33758
G1 X105.287 Y89.021 E18.36458
G1 X106.342 Y88.910 E18.41020
G1 X106.970 Y88.877 E18.43720
G1 X108.030 Y88.877 E18.48282
G1 X108.658 Y88.910 E18.50983
G1 X109.713 Y89.021 E18.55544
G1 X110.333 Y89.119 E18.58245
G1 X111.371 Y89.340 E18.62807
G1 X111.978 Y89.502 E18.65507
G1 X113.045 Y89.853 E18.70338
G1 X113.573 Y90.055 E18.72769
G1 X114.542 Y90.487 E18.77330
G1 X115.102 Y90.772 E18.80031
G1 X116.021 Y91.303 E18.84593
G1 X116.548 Y91.645 E18.87293
G1 X117.406 Y92.268 E18.91855
G1 X117.894 Y92.663 E18.94555
G1 X118.682 Y93.373 E18.99117
G1 X119.127 Y93.818 E19.01817
G1 X119.837 Y94.606 E19.06379
G1 X120.232 Y95.094 E19.09079
G1 X120.855 Y95.952 E19.13641
G1 X121.197 Y96.479 E19.16341
G1 X121.728 Y97.398 E19.20903
G1 X122.013 Y97.958 E19.23604
G1 X122.445 Y98.927 E19.28165
G1 X122.670 Y99.513 E19.30866
G1 X122.998 Y100.522 E19.35428
G1 X123.160 Y101.129 E19.38128
G1 X123.381 Y102.167 E19.42690
G1 X123.479 Y102.787 E19.45390
G1 X123.590 Y103.842 E19.49952
G1 X123.623 Y104.470 E19.52652
G1 X123.623 Y105.530 E19.57214
G1 X123.590 Y106.158 E19.59914
G1 X123.479 Y107.213 E19.64476
G1 X123.381 Y107.833 E19.67176
G1 X123.160 Y108.871 E19.71738
G1 X122.998 Y109.478 E19.74439
G1 X122.670 Y110.487 E19.79000
G1 X122.445 Y111.073 E19.81701
G1 X122.013 Y112.042 E19.86262
G1 X121.728 Y112.602 E19.88963
G1 X121.197 Y113.521 E19.93525
G1 X120.855 Y114.048 E19.96225
G1 X120.232 Y114.906 E20.00787
G1 X119.837 Y115.394 E20.03487
G1 X119.127 Y116.182 E20.08049
G1 X118.682 Y116.627 E20.10749
G1 X117.894 Y117.337 E20.15311
G1 X117.406 Y117.732 E20.18011
G1 X116.548 Y118.355 E20.22573
G1 X116.021 Y118.697 E20.25274
G1 X115.102 Y119.228 E20.29835
G1 X114.542 Y119.513 E20.32536
G1 X113.573 Y119.945 E20.37097
G1 X112.987 Y120.170 E20.39798
G1 X111.978 Y120.498 E20.44359
G1 X111.371 Y120.660 E20.47060
G1 X110.333 Y120.881 E20.51622
G1 X109.713 Y120.979 E20.54322
G1 X108.658 Y121.090 E20.58883
G1 X108.031 Y121.123 E20.61584
G1 X106.969 Y121.123 E20.66146
G1 X106.342 Y121.090 E20.68846
G1 X105.287 Y120.979 E20.73408
G1 X104.667 Y120.881 E20.76109
G1 X103.629 Y120.660 E20.80670
G1 X103.022 Y120.498 E20.83371
G1 X102.013 Y120.170 E20.87933
G1 X101.427 Y119.945 E20.90633
G1 X100.458 Y119.513 E20.95194
G1 X99.898 Y119.228 E20.97895
G1 X98.979 Y118.697 E21.02457
G1 X98.452 Y118.355 E21.05157
G1 X97.594 Y117.732 E21.09719
G1 X97.106 Y117.337 E21.12419
G1 X96.318 Y116.627 E21.16981
G1 X95.873 Y116.182 E21.19681
G1 X95.164 Y115.394 E21.24243
G1 X94.768 Y114.906 E21.26944
G1 X94.145 Y114.048 E21.31505
G1 X93.803 Y113.521 E21.34206
G1 X93.272 Y112.602 E21.38768
G1 X92.987 Y112.042 E21.41468
G1 X92.555 Y111.073 E21.46030
G1 X92.330 Y110.487 E21.48730
G1 X92.002 Y109.478 E21.53291
G1 X91.840 Y108.871 E21.55992
G1 X91.619 Y107.833 E21.60554
G1 X91.521 Y107.213 E21.63254
G1 X91.410 Y106.158 E21.67815
G1 X91.377 Y105.530 E21.70516
G1 X91.377 Y104.470 E21.75078
G1 X91.410 Y103.842 E21.77779
G1 X91.540 Y102.667 E21.82861
G1 X91.619 Y102.167 E21.85040
G1 X91.840 Y101.129 E21.89602
G1 X92.002 Y100.522 E21.92302
G1 X92.330 Y99.513 E21.96864
G1 X92.555 Y98.927 E21.99564
G1 X92.987 Y97.958 E22.04126
G1 X93.272 Y97.398 E22.06826
G1 X93.803 Y96.479 E22.11388
G1 X94.145 Y95.952 E22.14089
G1 X94.768 Y95.094 E22.18651
G1 X95.163 Y94.606 E22.21351
G1 X95.833 Y93.862 E22.25654
G1 X96.239 Y94.183 F9000.000
G1 F1800
G1 X96.683 Y93.739 E22.28355
G1 X97.431 Y93.065 E22.32683
G1 X97.920 Y92.670 E22.35384
G1 X98.734 Y92.078 E22.39713
G1 X99.261 Y91.736 E22.42414
G1 X100.133 Y91.233 E22.46743
G1 X100.692 Y90.948 E22.49443
G1 X101.612 Y90.538 E22.53772
G1 X102.199 Y90.313 E22.56473
G1 X103.156 Y90.002 E22.60802
G1 X103.763 Y89.839 E22.63502
G1 X104.748 Y89.630 E22.67831
G1 X105.368 Y89.532 E22.70531
G1 X106.369 Y89.426 E22.74861
G1 X106.997 Y89.394 E22.77561
G1 X108.003 Y89.394 E22.81890
G1 X108.631 Y89.426 E22.84590
G1 X109.632 Y89.532 E22.88919
G1 X110.252 Y89.630 E22.91620
