; generated by Slic3r 1.3.0-dev on 2019-03-24 at 12:48:47

; external perimeters extrusion width = 0.44mm (2.38mm^3/s)
; perimeters extrusion width = 0.56mm (3.62mm^3/s)
; infill extrusion width = 0.50mm (5.48mm^3/s)
; solid infill extrusion width = 0.56mm (6.20mm^3/s)
; top infill extrusion width = 0.56mm (5.17mm^3/s)

M107
M104 S205 ; set temperature
; -- START GCODE --
	G90                     ;set to absolute positioning
G28                     ;move to Home
G92 E0                  ;zero the extruded length
G1 F7200                ;set feedrate to travel_speed value
; -- end of START GCODE --
; Filament gcode

M109 S205 ; set temperature and wait for it to be reached
G21 ; set units to millimeters
G90 ; use absolute coordinates
M82 ; use absolute distances for extrusion
G92 E0
G1 Z0.200 F9000.000
G1 E-4.00000 F2400.00000
G92 E0
G1 X92.045 Y88.960 F9000.000
G1 E4.00000 F2400.00000
G1 F1800
G1 X94.449 Y87.194 E4.12824
G1 X97.234 Y86.128 E4.25649
G1 X99.800 Y85.829 E4.36754
G1 X115.200 Y85.829 E5.02967
G1 X118.156 Y86.227 E5.15791
G1 X120.901 Y87.394 E5.28616
G1 X123.240 Y89.245 E5.41440
G1 X125.006 Y91.649 E5.54264
G1 X126.072 Y94.434 E5.67089
G1 X126.371 Y97.000 E5.78194
G1 X126.371 Y113.000 E6.46987
G1 X125.973 Y115.956 E6.59811
G1 X124.806 Y118.701 E6.72636
G1 X122.955 Y121.040 E6.85460
G1 X120.551 Y122.806 E6.98284
G1 X117.766 Y123.872 E7.11108
G1 X115.200 Y124.171 E7.22214
G1 X109.800 Y124.171 E7.45432
G1 X106.844 Y123.773 E7.58256
G1 X104.099 Y122.606 E7.71080
G1 X101.218 Y120.151 E7.87352
G1 X91.218 Y108.151 E8.54513
G1 X89.632 Y105.626 E8.67338
G1 X88.770 Y102.770 E8.80162
G1 X88.629 Y101.000 E8.87796
G1 X88.629 Y97.000 E9.04994
G1 X89.027 Y94.044 E9.17819
G1 X90.194 Y91.299 E9.30643
G1 X92.008 Y89.007 E9.43209
G1 X92.553 Y89.191 F9000.000
G1 F1800
G1 X94.939 Y87.520 E9.55732
G1 X97.688 Y86.558 E9.68254
G1 X99.800 Y86.346 E9.77381
G1 X115.200 Y86.346 E10.43594
G1 X118.085 Y86.744 E10.56117
G1 X120.755 Y87.909 E10.68640
G1 X123.009 Y89.753 E10.81162
G1 X124.680 Y92.139 E10.93685
G1 X125.642 Y94.888 E11.06207
G1 X125.854 Y97.000 E11.15334
G1 X125.854 Y113.000 E11.84127
G1 X125.456 Y115.885 E11.96650
G1 X124.291 Y118.555 E12.09172
G1 X122.447 Y120.809 E12.21695
G1 X120.061 Y122.480 E12.34217
G1 X117.312 Y123.442 E12.46740
G1 X115.200 Y123.654 E12.55867
G1 X109.800 Y123.654 E12.79085
G1 X106.915 Y123.256 E12.91607
G1 X104.245 Y122.091 E13.04130
G1 X101.616 Y119.820 E13.19068
G1 X91.616 Y107.820 E13.86229
G1 X90.074 Y105.349 E13.98751
G1 X89.260 Y102.553 E14.11274
G1 X89.146 Y101.000 E14.17967
G1 X89.146 Y97.000 E14.35165
G1 X89.544 Y94.115 E14.47688
G1 X90.709 Y91.445 E14.60211
G1 X92.515 Y89.237 E14.72475
G1 X93.061 Y89.428 F9000.000
G1 F1800
G1 X95.426 Y87.856 E14.84689
G1 X98.135 Y87.001 E14.96902
G1 X99.800 Y86.863 E15.04085
G1 X115.200 Y86.863 E15.70298
G1 X118.013 Y87.261 E15.82511
G1 X120.604 Y88.424 E15.94724
G1 X122.772 Y90.261 E16.06938
G1 X124.344 Y92.626 E16.19151
G1 X125.199 Y95.335 E16.31365
G1 X125.337 Y97.000 E16.38547
G1 X125.337 Y113.000 E17.07340
G1 X124.939 Y115.813 E17.19554
G1 X123.776 Y118.404 E17.31767
G1 X121.939 Y120.572 E17.43980
G1 X119.574 Y122.144 E17.56194
G1 X116.865 Y122.999 E17.68407
G1 X115.200 Y123.137 E17.75590
G1 X109.800 Y123.137 E17.98807
G1 X106.987 Y122.739 E18.11021
G1 X104.396 Y121.576 E18.23234
G1 X102.013 Y119.489 E18.36852
G1 X92.013 Y107.489 E19.04013
G1 X90.518 Y105.074 E19.16226
G1 X89.663 Y101.000 E19.34123
G1 X89.663 Y97.000 E19.51321
G1 X90.061 Y94.187 E19.63535
G1 X91.224 Y91.596 E19.75748
G1 X93.022 Y89.474 E19.87704
G1 X93.567 Y89.673 F9000.000
G1 F1800
G1 X95.910 Y88.202 E19.99600
G1 X99.800 Y87.380 E20.16693
G1 X115.200 Y87.380 E20.82905
G1 X117.938 Y87.778 E20.94802
G1 X120.450 Y88.939 E21.06698
G1 X122.527 Y90.767 E21.18594
G1 X123.998 Y93.110 E21.30491
G1 X124.820 Y97.000 E21.47583
G1 X124.820 Y113.000 E22.16376
G1 X124.422 Y115.738 E22.28272
G1 X123.261 Y118.250 E22.40169
G1 X121.433 Y120.327 E22.52065
G1 X119.090 Y121.798 E22.63961
G1 X115.200 Y122.620 E22.81054
G1 X109.800 Y122.620 E23.04271
G1 X107.062 Y122.222 E23.16168
G1 X104.550 Y121.061 E23.28064
G1 X102.410 Y119.158 E23.40376
G1 X92.410 Y107.158 E24.07537
G1 X90.963 Y104.800 E24.19433
G1 X90.180 Y101.000 E24.36114
G1 X90.180 Y97.000 E24.53313
G1 X90.578 Y94.262 E24.65209
G1 X91.739 Y91.750 E24.77105
G1 X93.527 Y89.718 E24.88744
G1 X94.072 Y89.926 F9000.000
G1 F1800
G1 X96.391 Y88.560 E25.00314
G1 X99.800 Y87.898 E25.15245
G1 X115.200 Y87.898 E25.81458
G1 X117.862 Y88.295 E25.93029
G1 X120.290 Y89.454 E26.04599
G1 X122.274 Y91.272 E26.16169
G1 X123.640 Y93.591 E26.27740
G1 X124.302 Y97.000 E26.42671
G1 X124.302 Y113.000 E27.11464
G1 X123.905 Y115.662 E27.23034
G1 X122.746 Y118.090 E27.34605
G1 X120.928 Y120.074 E27.46175
G1 X118.609 Y121.440 E27.57745
G1 X115.200 Y122.102 E27.72677
G1 X109.800 Y122.102 E27.95894
G1 X107.138 Y121.705 E28.07465
G1 X104.710 Y120.546 E28.19035
G1 X102.807 Y118.827 E28.30058
G1 X92.807 Y106.827 E28.97219
G1 X91.409 Y104.528 E29.08789
G1 X90.698 Y101.000 E29.24263
G1 X90.698 Y97.000 E29.41461
G1 X91.095 Y94.338 E29.53032
G1 X92.254 Y91.910 E29.64602
G1 X94.032 Y89.970 E29.75915
G1 X94.576 Y90.187 F9000.000
G1 F1800
G1 X96.868 Y88.931 E29.87150
G1 X99.800 Y88.415 E29.99952
G1 X115.200 Y88.415 E30.66165
G1 X117.783 Y88.812 E30.77400
G1 X120.126 Y89.968 E30.88635
G1 X122.013 Y91.776 E30.99871
G1 X123.269 Y94.068 E31.11106
G1 X123.785 Y97.000 E31.23908
G1 X123.785 Y113.000 E31.92700
G1 X123.388 Y115.583 E32.03936
G1 X122.232 Y117.926 E32.15171
G1 X120.424 Y119.813 E32.26406
G1 X118.132 Y121.069 E32.37641
G1 X115.200 Y121.585 E32.50443
G1 X109.800 Y121.585 E32.73661
G1 X107.217 Y121.188 E32.84896
G1 X104.874 Y120.032 E32.96131
G1 X103.205 Y118.496 E33.05883
G1 X93.205 Y106.496 E33.73043
G1 X91.857 Y104.258 E33.84279
G1 X91.215 Y101.000 E33.98554
G1 X91.215 Y97.000 E34.15752
G1 X91.612 Y94.417 E34.26987
G1 X92.768 Y92.074 E34.38223
G1 X94.535 Y90.230 E34.49200
G1 X95.078 Y90.458 F9000.000
G1 F1800
G1 X97.339 Y89.316 E34.60089
G1 X99.800 Y88.932 E34.70798
G1 X115.200 Y88.932 E35.37011
G1 X117.701 Y89.329 E35.47901
G1 X119.956 Y90.483 E35.58790
G1 X121.742 Y92.278 E35.69680
G1 X122.884 Y94.539 E35.80569
G1 X123.268 Y97.000 E35.91278
G1 X123.268 Y113.000 E36.60071
G1 X122.871 Y115.501 E36.70960
G1 X121.717 Y117.756 E36.81850
G1 X119.922 Y119.542 E36.92739
G1 X117.661 Y120.684 E37.03629
G1 X115.200 Y121.068 E37.14338
G1 X109.800 Y121.068 E37.37555
G1 X107.299 Y120.671 E37.48445
G1 X105.044 Y119.517 E37.59334
G1 X103.602 Y118.165 E37.67834
G1 X93.602 Y106.165 E38.34995
G1 X92.306 Y103.989 E38.45884
G1 X91.732 Y101.000 E38.58971
G1 X91.732 Y97.000 E38.76170
G1 X92.129 Y94.499 E38.87059
G1 X93.283 Y92.244 E38.97949
G1 X95.036 Y90.500 E39.08580
G1 X95.578 Y90.739 F9000.000
G1 F1800
G1 X97.805 Y89.717 E39.19113
G1 X99.800 Y89.449 E39.27768
G1 X115.200 Y89.449 E39.93981
G1 X117.617 Y89.846 E40.04514
G1 X119.780 Y90.996 E40.15046
G1 X121.461 Y92.778 E40.25579
G1 X122.483 Y95.005 E40.36111
G1 X122.751 Y97.000 E40.44767
G1 X122.751 Y113.000 E41.13560
G1 X122.354 Y115.417 E41.24092
G1 X121.204 Y117.580 E41.34625
G1 X119.422 Y119.261 E41.45157
G1 X117.195 Y120.283 E41.55690
G1 X115.200 Y120.551 E41.64346
G1 X109.800 Y120.551 E41.87563
G1 X107.383 Y120.154 E41.98096
G1 X105.220 Y119.004 E42.08628
G1 X103.999 Y117.834 E42.15897
G1 X93.999 Y105.834 E42.83058
G1 X92.757 Y103.723 E42.93591
G1 X92.249 Y101.000 E43.05500
G1 X92.249 Y97.000 E43.22698
G1 X92.646 Y94.583 E43.33230
G1 X93.796 Y92.420 E43.43763
G1 X95.535 Y90.780 E43.54037
G1 X96.076 Y91.032 F9000.000
G1 F1800
G1 X98.263 Y90.136 E43.64200
G1 X99.800 Y89.966 E43.70848
G1 X115.200 Y89.966 E44.37060
G1 X117.530 Y90.363 E44.47223
G1 X119.597 Y91.510 E44.57386
G1 X121.168 Y93.276 E44.67549
G1 X122.064 Y95.463 E44.77713
G1 X122.234 Y97.000 E44.84360
G1 X122.234 Y113.000 E45.53152
G1 X121.837 Y115.330 E45.63315
G1 X120.690 Y117.397 E45.73478
G1 X118.924 Y118.968 E45.83641
G1 X116.737 Y119.864 E45.93804
G1 X115.200 Y120.034 E46.00452
G1 X109.800 Y120.034 E46.23669
G1 X107.470 Y119.637 E46.33832
G1 X105.403 Y118.490 E46.43995
G1 X104.396 Y117.503 E46.50057
G1 X94.396 Y105.503 E47.17218
G1 X93.210 Y103.459 E47.27381
G1 X92.766 Y101.000 E47.38124
G1 X92.766 Y97.000 E47.55322
G1 X93.163 Y94.670 E47.65485
G1 X94.310 Y92.603 E47.75648
G1 X96.031 Y91.072 E47.85553
G1 X96.571 Y91.339 F9000.000
G1 F1800
G1 X99.800 Y90.483 E47.99916
G1 X115.200 Y90.483 E48.66128
G1 X117.440 Y90.880 E48.75908
G1 X119.407 Y92.022 E48.85688
G1 X120.861 Y93.771 E48.95467
G1 X121.717 Y97.000 E49.09830
G1 X121.717 Y113.000 E49.78622
G1 X121.320 Y115.240 E49.88402
G1 X120.178 Y117.207 E49.98181
G1 X118.429 Y118.661 E50.07961
G1 X115.200 Y119.517 E50.22324
G1 X109.800 Y119.517 E50.45541
G1 X107.560 Y119.120 E50.55321
G1 X104.793 Y117.172 E50.69870
G1 X94.793 Y105.172 E51.37031
G1 X93.665 Y103.197 E51.46810
G1 X93.283 Y101.000 E51.56400
G1 X93.283 Y97.000 E51.73598
G1 X93.680 Y94.760 E51.83377
G1 X94.822 Y92.793 E51.93157
G1 X96.525 Y91.377 E52.02679
G1 E48.02679 F2400.00000
G92 E0
G1 X111.111 Y105.000 F9000.000
G1 E4.00000 F2400.00000
G1 F1800
G1 X114.006 Y107.895 E4.17601
G1 X114.006 Y111.806 E4.34417
G1 X110.994 Y111.806 E4.47366
G1 X110.994 Y98.194 E5.05890
G1 X114.006 Y98.194 E5.18839
G1 X114.006 Y102.105 E5.35655
G1 X111.154 Y104.958 E5.52998
G1 E1.52998 F2400.00000
G92 E0
G1 X101.606 Y99.806 F9000.000
G1 E4.00000 F2400.00000
G1 F1800
G1 X100.994 Y99.806 E4.02630
G1 X100.994 Y98.194 E4.09559
G1 X101.606 Y98.194 E4.12189
G1 X101.606 Y99.746 E4.18861
G1 X102.123 Y98.323 F9000.000
G1 F1800
G1 X102.123 Y100.323 E4.27460
G1 X100.477 Y100.323 E4.34536
G1 X100.477 Y97.677 E4.45912
G1 X114.523 Y97.677 E5.06303
G1 X114.523 Y102.320 E5.26263
G1 X111.842 Y105.000 E5.42562
G1 X114.523 Y107.680 E5.58860
G1 X114.523 Y112.323 E5.78821
G1 X110.477 Y112.323 E5.96216
G1 X110.477 Y98.323 E6.56409
G1 X102.183 Y98.323 E6.92070
G1 X102.580 Y98.780 F9000.000
G1 F1800
G1 X102.580 Y100.780 E6.98674
G1 X100.020 Y100.780 E7.07126
G1 X100.020 Y97.220 E7.18880
G1 X114.980 Y97.220 E7.68274
G1 X114.980 Y102.509 E7.85737
G1 X112.489 Y105.000 E7.97369
G1 X114.980 Y107.491 E8.09001
G1 X114.980 Y112.780 E8.26463
G1 X110.020 Y112.780 E8.42840
G1 X110.020 Y98.780 E8.89064
G1 X102.640 Y98.780 E9.13431
G1 X102.206 Y98.639 F9000.000
G1 X101.864 Y98.000 F9000.000
G1 F1800
G1 X110.736 Y98.000 E9.19763
G1 X111.457 Y98.766 F9000.000
G1 F1800
G1 X111.566 Y98.656 E9.20435
G1 X112.303 Y98.656 E9.23626
G1 X111.456 Y99.503 E9.28813
G1 X111.456 Y100.240 E9.32004
G1 X113.040 Y98.656 E9.41704
G1 X113.544 Y98.656 E9.43887
G1 X113.544 Y98.889 E9.44895
G1 X111.456 Y100.976 E9.57682
G1 X111.456 Y101.713 E9.60874
G1 X113.544 Y99.626 E9.73660
G1 X113.544 Y100.363 E9.76852
G1 X111.456 Y102.450 E9.89639
G1 X111.456 Y103.187 E9.92830
G1 X113.544 Y101.099 E10.05617
G1 X113.544 Y101.836 E10.08808
G1 X111.456 Y103.923 E10.21595
G1 X111.456 Y106.186 F9000.000
G1 F1800
G1 X111.566 Y106.076 E10.22318
G1 X111.963 Y106.473 E10.24931
G1 X111.456 Y106.979 E10.28267
G1 X111.456 Y107.772 E10.31963
G1 X112.359 Y106.869 E10.37912
G1 X112.755 Y107.266 E10.40525
G1 X111.456 Y108.565 E10.49087
G1 X111.456 Y109.357 E10.52782
G1 X113.152 Y107.662 E10.63957
G1 X113.544 Y108.054 E10.66541
G1 X111.456 Y110.150 E10.80329
G1 X111.456 Y110.943 E10.84024
G1 X113.544 Y108.856 E10.97783
G1 X113.544 Y109.648 E11.01478
G1 X111.848 Y111.344 E11.12653
G1 X112.641 Y111.344 E11.16348
G1 X113.544 Y110.441 E11.22298
G1 X113.544 Y111.234 E11.25993
G1 X113.434 Y111.344 E11.26717
G1 E7.26717 F2400.00000
G92 E0
G1 X101.300 Y99.547 F9000.000
G1 E4.00000 F2400.00000
G1 F1800
G1 X101.300 Y98.453 E4.00470
M106 S255
G1 Z0.400 F9000.000
G1 E0.00470 F2400.00000
G92 E0
G1 X111.111 Y105.000 F9000.000
G1 E4.00000 F2400.00000
G1 F1443.14
G1 X114.006 Y107.895 E4.17601
G1 X114.006 Y111.806 E4.34417
G1 X110.994 Y111.806 E4.47366
G1 X110.994 Y98.194 E5.05890
G1 X114.006 Y98.194 E5.18839
G1 X114.006 Y102.105 E5.35655
G1 X111.154 Y104.958 E5.52998
G1 E1.52998 F2400.00000
G92 E0
G1 X101.606 Y99.806 F9000.000
G1 E4.00000 F2400.00000
G1 F1443.14
G1 X100.994 Y99.806 E4.02630
G1 X100.994 Y98.194 E4.09559
G1 X101.606 Y98.194 E4.12189
G1 X101.606 Y99.746 E4.18861
G1 X102.123 Y98.323 F9000.000
G1 F2020.4
G1 X102.123 Y100.323 E4.27460
G1 X100.477 Y100.323 E4.34536
G1 X100.477 Y97.677 E4.45912
G1 X114.523 Y97.677 E5.06303
G1 X114.523 Y102.320 E5.26263
G1 X111.842 Y105.000 E5.42562
G1 X114.523 Y107.680 E5.58860
G1 X114.523 Y112.323 E5.78821
G1 X110.477 Y112.323 E5.96216
G1 X110.477 Y98.323 E6.56409
G1 X102.183 Y98.323 E6.92070
G1 X102.580 Y98.780 F9000.000
G1 F1800
G1 X102.580 Y100.780 E6.98674
G1 X100.020 Y100.780 E7.07126
G1 X100.020 Y97.220 E7.18880
G1 X114.980 Y97.220 E7.68274
G1 X114.980 Y102.509 E7.85737
G1 X112.489 Y105.000 E7.97369
G1 X114.980 Y107.491 E8.09001
G1 X114.980 Y112.780 E8.26463
G1 X110.020 Y112.780 E8.42840
G1 X110.020 Y98.780 E8.89064
G1 X102.640 Y98.780 E9.13431
G1 X102.206 Y98.639 F9000.000
G1 X101.864 Y98.000 F9000.000
G1 F1443.14
G1 X110.736 Y98.000 E9.19763
G1 X113.544 Y98.766 F9000.000
G1 F3463.54
G1 X113.434 Y98.656 E9.20487
G1 X112.641 Y98.656 E9.24182
G1 X113.544 Y99.559 E9.30132
G1 X113.544 Y100.352 E9.33827
G1 X111.848 Y98.656 E9.45002
G1 X111.456 Y98.656 E9.46829
G1 X111.456 Y99.057 E9.48698
G1 X113.544 Y101.144 E9.62456
G1 X113.544 Y101.937 E9.66151
G1 X111.456 Y99.850 E9.79910
G1 X111.456 Y100.643 E9.83605
G1 X113.152 Y102.338 E9.94780
G1 X112.755 Y102.734 E9.97393
G1 X111.456 Y101.435 E10.05955
G1 X111.456 Y102.228 E10.09650
G1 X112.359 Y103.131 E10.15600
G1 X111.963 Y103.527 E10.18213
G1 X111.456 Y103.021 E10.21549
G1 X111.456 Y103.814 E10.25244
G1 X111.566 Y103.923 E10.25967
G1 X113.544 Y108.164 F9000.000
G1 F3463.54
G1 X111.456 Y106.077 E10.38754
G1 X111.456 Y106.813 E10.41945
G1 X113.544 Y108.901 E10.54732
G1 X113.544 Y109.637 E10.57924
G1 X111.456 Y107.550 E10.70710
G1 X111.456 Y108.287 E10.73902
G1 X113.544 Y110.374 E10.86689
G1 X113.544 Y111.111 E10.89880
G1 X111.456 Y109.024 E11.02667
G1 X111.456 Y109.760 E11.05858
G1 X113.040 Y111.344 E11.15558
G1 X112.303 Y111.344 E11.18750
G1 X111.456 Y110.497 E11.23936
G1 X111.456 Y111.234 E11.27127
G1 X111.566 Y111.343 E11.27799
G1 E7.27799 F2400.00000
G92 E0
G1 X101.300 Y99.547 F9000.000
G1 E4.00000 F2400.00000
G1 F1443.14
G1 X101.300 Y98.453 E4.00470
G1 Z0.600 F9000.000
G1 E0.00470 F2400.00000
G92 E0
G1 X111.111 Y105.000 F9000.000
G1 E4.00000 F2400.00000
G1 F1441.92
G1 X114.006 Y107.895 E4.17601
G1 X114.006 Y111.806 E4.34417
G1 X110.994 Y111.806 E4.47366
G1 X110.994 Y98.194 E5.05890
G1 X114.006 Y98.194 E5.18839
G1 X114.006 Y102.105 E5.35655
G1 X111.154 Y104.958 E5.52998
G1 E1.52998 F2400.00000
G92 E0
G1 X101.606 Y99.806 F9000.000
G1 E4.00000 F2400.00000
G1 F1441.92
G1 X100.994 Y99.806 E4.02630
G1 X100.994 Y98.194 E4.09559
G1 X101.606 Y98.194 E4.12189
G1 X101.606 Y99.746 E4.18861
G1 X102.123 Y98.323 F9000.000
G1 F2018.69
G1 X102.123 Y100.323 E4.27460
G1 X100.477 Y100.323 E4.34536
G1 X100.477 Y97.677 E4.45912
G1 X114.523 Y97.677 E5.06303
G1 X114.523 Y102.320 E5.26263
G1 X111.842 Y105.000 E5.42562
G1 X114.523 Y107.680 E5.58860
G1 X114.523 Y112.323 E5.78821
G1 X110.477 Y112.323 E5.96216
G1 X110.477 Y98.323 E6.56409
G1 X102.183 Y98.323 E6.92070
G1 X102.580 Y98.780 F9000.000
G1 F1800
G1 X102.580 Y100.780 E6.98674
G1 X100.020 Y100.780 E7.07126
G1 X100.020 Y97.220 E7.18880
G1 X114.980 Y97.220 E7.68274
G1 X114.980 Y102.509 E7.85737
G1 X112.489 Y105.000 E7.97369
G1 X114.980 Y107.491 E8.09001
G1 X114.980 Y112.780 E8.26463
G1 X110.020 Y112.780 E8.42840
G1 X110.020 Y98.780 E8.89064
G1 X102.640 Y98.780 E9.13431
G1 X102.206 Y98.639 F9000.000
G1 X101.864 Y98.000 F9000.000
G1 F1441.92
G1 X110.736 Y98.000 E9.19763
G1 X111.457 Y98.766 F9000.000
G1 F3460.62
G1 X111.566 Y98.656 E9.20435
G1 X112.303 Y98.656 E9.23626
G1 X111.456 Y99.503 E9.28813
G1 X111.456 Y100.240 E9.32004
G1 X113.040 Y98.656 E9.41704
G1 X113.544 Y98.656 E9.43887
G1 X113.544 Y98.889 E9.44895
G1 X111.456 Y100.976 E9.57682
G1 X111.456 Y101.713 E9.60874
G1 X113.544 Y99.626 E9.73660
G1 X113.544 Y100.363 E9.76852
G1 X111.456 Y102.450 E9.89639
