; generated by Slic3r 1.3.0-dev on 2019-03-24 at 13:06:58

; external perimeters extrusion width = 0.44mm (2.38mm^3/s)
; perimeters extrusion width = 0.56mm (3.62mm^3/s)
; infill extrusion width = 0.50mm (5.48mm^3/s)
; solid infill extrusion width = 0.56mm (6.20mm^3/s)
; top infill extrusion width = 0.56mm (5.17mm^3/s)

M107
M104 S205 ; set temperature
; -- START GCODE --
	G90                     ;set to absolute positioning
G28                     ;move to Home
G92 E0                  ;zero the extruded length
G1 F7200                ;set feedrate to travel_speed value
; -- end of START GCODE --
; Filament gcode

M109 S205 ; set temperature and wait for it to be reached
G21 ; set units to millimeters
G90 ; use absolute coordinates
M82 ; use absolute distances for extrusion
G92 E0
G1 Z0.200 F9000.000
G1 E-4.00000 F2400.00000
G92 E0
G1 X82.361 Y89.428 F9000.000
G1 E4.00000 F2400.00000
G1 F1800
G1 X84.726 Y87.856 E4.12213
G1 X87.435 Y87.001 E4.24427
G1 X89.100 Y86.863 E4.31610
G1 X125.900 Y86.863 E5.89832
G1 X128.713 Y87.261 E6.02046
G1 X131.304 Y88.424 E6.14259
G1 X133.472 Y90.261 E6.26473
G1 X135.044 Y92.626 E6.38686
G1 X135.899 Y95.335 E6.50900
G1 X136.037 Y97.000 E6.58082
G1 X136.037 Y113.000 E7.26875
G1 X135.639 Y115.813 E7.39088
G1 X134.476 Y118.404 E7.51302
G1 X132.639 Y120.572 E7.63515
G1 X130.274 Y122.144 E7.75729
G1 X127.565 Y122.999 E7.87942
G1 X125.900 Y123.137 E7.95125
G1 X99.100 Y123.137 E9.10352
G1 X96.287 Y122.739 E9.22566
G1 X93.696 Y121.576 E9.34779
G1 X91.313 Y119.489 E9.48397
G1 X81.313 Y107.489 E10.15558
G1 X79.818 Y105.074 E10.27771
G1 X78.963 Y101.000 E10.45668
G1 X78.963 Y97.000 E10.62866
G1 X79.361 Y94.187 E10.75079
G1 X80.524 Y91.596 E10.87293
G1 X82.322 Y89.474 E10.99248
G1 X82.867 Y89.673 F9000.000
G1 F1800
G1 X85.210 Y88.202 E11.11145
G1 X89.100 Y87.380 E11.28237
G1 X125.900 Y87.380 E12.86460
G1 X128.638 Y87.778 E12.98357
G1 X131.150 Y88.939 E13.10253
G1 X133.227 Y90.767 E13.22149
G1 X134.698 Y93.110 E13.34046
G1 X135.520 Y97.000 E13.51138
G1 X135.520 Y113.000 E14.19931
G1 X135.122 Y115.738 E14.31827
G1 X133.961 Y118.250 E14.43723
G1 X132.133 Y120.327 E14.55620
G1 X129.790 Y121.798 E14.67516
G1 X125.900 Y122.620 E14.84609
G1 X99.100 Y122.620 E15.99836
G1 X96.362 Y122.222 E16.11733
G1 X93.850 Y121.061 E16.23629
G1 X91.710 Y119.158 E16.35941
G1 X81.710 Y107.158 E17.03102
G1 X80.263 Y104.800 E17.14998
G1 X79.480 Y101.000 E17.31679
G1 X79.480 Y97.000 E17.48878
G1 X79.878 Y94.262 E17.60774
G1 X81.039 Y91.750 E17.72670
G1 X82.827 Y89.718 E17.84309
G1 X83.372 Y89.926 F9000.000
G1 F1800
G1 X85.691 Y88.560 E17.95879
G1 X89.100 Y87.898 E18.10810
G1 X125.900 Y87.898 E19.69033
G1 X128.562 Y88.295 E19.80604
G1 X130.990 Y89.454 E19.92174
G1 X132.974 Y91.272 E20.03744
G1 X134.340 Y93.591 E20.15315
G1 X135.002 Y97.000 E20.30246
G1 X135.002 Y113.000 E20.99039
G1 X134.605 Y115.662 E21.10609
G1 X133.446 Y118.090 E21.22180
G1 X131.628 Y120.074 E21.33750
G1 X129.309 Y121.440 E21.45320
G1 X125.900 Y122.102 E21.60252
G1 X99.100 Y122.102 E22.75479
G1 X96.438 Y121.705 E22.87050
G1 X94.010 Y120.546 E22.98620
G1 X92.107 Y118.827 E23.09643
G1 X82.107 Y106.827 E23.76804
G1 X80.709 Y104.528 E23.88374
G1 X79.998 Y101.000 E24.03848
G1 X79.998 Y97.000 E24.21047
G1 X80.395 Y94.338 E24.32617
G1 X81.554 Y91.910 E24.44187
G1 X83.332 Y89.970 E24.55500
G1 X83.876 Y90.187 F9000.000
G1 F1800
G1 X86.168 Y88.931 E24.66735
G1 X89.100 Y88.415 E24.79537
G1 X125.900 Y88.415 E26.37760
G1 X128.483 Y88.812 E26.48995
G1 X130.826 Y89.968 E26.60230
G1 X132.713 Y91.776 E26.71466
G1 X133.969 Y94.068 E26.82701
G1 X134.485 Y97.000 E26.95503
G1 X134.485 Y113.000 E27.64296
G1 X134.088 Y115.583 E27.75531
G1 X132.932 Y117.926 E27.86766
G1 X131.124 Y119.813 E27.98001
G1 X128.832 Y121.069 E28.09236
G1 X125.900 Y121.585 E28.22038
G1 X99.100 Y121.585 E29.37266
G1 X96.517 Y121.188 E29.48501
G1 X94.174 Y120.032 E29.59736
G1 X92.505 Y118.496 E29.69488
G1 X82.505 Y106.496 E30.36649
G1 X81.157 Y104.258 E30.47884
G1 X80.515 Y101.000 E30.62159
G1 X80.515 Y97.000 E30.79357
G1 X80.912 Y94.417 E30.90593
G1 X82.068 Y92.074 E31.01828
G1 X83.835 Y90.230 E31.12805
G1 X84.378 Y90.458 F9000.000
G1 F1800
G1 X86.639 Y89.316 E31.23694
G1 X89.100 Y88.932 E31.34404
G1 X125.900 Y88.932 E32.92626
G1 X128.401 Y89.329 E33.03516
G1 X130.656 Y90.483 E33.14405
G1 X132.442 Y92.278 E33.25295
G1 X133.584 Y94.539 E33.36184
G1 X133.968 Y97.000 E33.46894
G1 X133.968 Y113.000 E34.15686
G1 X133.571 Y115.501 E34.26576
G1 X132.417 Y117.756 E34.37465
G1 X130.622 Y119.542 E34.48355
G1 X128.361 Y120.684 E34.59244
G1 X125.900 Y121.068 E34.69953
G1 X99.100 Y121.068 E35.85181
G1 X96.599 Y120.671 E35.96070
G1 X94.344 Y119.517 E36.06960
G1 X92.902 Y118.165 E36.15459
G1 X82.902 Y106.165 E36.82620
G1 X81.606 Y103.989 E36.93510
G1 X81.032 Y101.000 E37.06597
G1 X81.032 Y97.000 E37.23795
G1 X81.429 Y94.499 E37.34684
G1 X82.583 Y92.244 E37.45574
G1 X84.336 Y90.500 E37.56205
G1 X84.878 Y90.739 F9000.000
G1 F1800
G1 X87.105 Y89.717 E37.66738
G1 X89.100 Y89.449 E37.75394
G1 X125.900 Y89.449 E39.33616
G1 X128.317 Y89.846 E39.44149
G1 X130.480 Y90.996 E39.54682
G1 X132.161 Y92.778 E39.65214
G1 X133.183 Y95.005 E39.75747
G1 X133.451 Y97.000 E39.84402
G1 X133.451 Y113.000 E40.53195
G1 X133.054 Y115.417 E40.63728
G1 X131.904 Y117.580 E40.74260
G1 X130.122 Y119.261 E40.84793
G1 X127.895 Y120.283 E40.95325
G1 X125.900 Y120.551 E41.03981
G1 X99.100 Y120.551 E42.19208
G1 X96.683 Y120.154 E42.29741
G1 X94.520 Y119.004 E42.40274
G1 X93.299 Y117.834 E42.47543
G1 X83.299 Y105.834 E43.14703
G1 X82.057 Y103.723 E43.25236
G1 X81.549 Y101.000 E43.37145
G1 X81.549 Y97.000 E43.54343
G1 X81.946 Y94.583 E43.64875
G1 X83.096 Y92.420 E43.75408
G1 X84.835 Y90.780 E43.85683
G1 X85.376 Y91.032 F9000.000
G1 F1800
G1 X87.563 Y90.136 E43.95846
G1 X89.100 Y89.966 E44.02493
G1 X125.900 Y89.966 E45.60716
G1 X128.230 Y90.363 E45.70879
G1 X130.297 Y91.510 E45.81042
G1 X131.868 Y93.276 E45.91205
G1 X132.764 Y95.463 E46.01368
G1 X132.934 Y97.000 E46.08015
G1 X132.934 Y113.000 E46.76808
G1 X132.537 Y115.330 E46.86971
G1 X131.390 Y117.397 E46.97134
G1 X129.624 Y118.968 E47.07297
G1 X127.437 Y119.864 E47.17460
G1 X125.900 Y120.034 E47.24107
G1 X99.100 Y120.034 E48.39335
G1 X96.770 Y119.637 E48.49498
G1 X94.703 Y118.490 E48.59661
G1 X93.696 Y117.503 E48.65723
G1 X83.696 Y105.503 E49.32883
G1 X82.510 Y103.459 E49.43047
G1 X82.066 Y101.000 E49.53789
G1 X82.066 Y97.000 E49.70987
G1 X82.463 Y94.670 E49.81150
G1 X83.610 Y92.603 E49.91313
G1 X85.331 Y91.072 E50.01218
G1 X85.871 Y91.339 F9000.000
G1 F1800
G1 X89.100 Y90.483 E50.15581
G1 X125.900 Y90.483 E51.73804
G1 X128.140 Y90.880 E51.83583
G1 X130.107 Y92.022 E51.93363
G1 X131.561 Y93.771 E52.03143
G1 X132.417 Y97.000 E52.17505
G1 X132.417 Y113.000 E52.86298
G1 X132.020 Y115.240 E52.96077
G1 X130.878 Y117.207 E53.05857
G1 X129.129 Y118.661 E53.15636
G1 X125.900 Y119.517 E53.29999
G1 X99.100 Y119.517 E54.45227
G1 X96.860 Y119.120 E54.55006
G1 X94.093 Y117.172 E54.69555
G1 X84.093 Y105.172 E55.36716
G1 X82.965 Y103.197 E55.46496
G1 X82.583 Y101.000 E55.56085
G1 X82.583 Y97.000 E55.73283
G1 X82.980 Y94.760 E55.83063
G1 X84.122 Y92.793 E55.92842
G1 X85.825 Y91.377 E56.02364
G1 E52.02364 F2400.00000
G92 E0
G1 X100.411 Y105.000 F9000.000
G1 E4.00000 F2400.00000
G1 F1800
G1 X103.306 Y107.895 E4.17601
G1 X103.306 Y111.806 E4.34417
G1 X100.294 Y111.806 E4.47366
G1 X100.294 Y98.194 E5.05890
G1 X103.306 Y98.194 E5.18839
G1 X103.306 Y102.105 E5.35655
G1 X100.454 Y104.958 E5.52998
G1 E1.52998 F2400.00000
G92 E0
G1 X90.906 Y99.806 F9000.000
G1 E4.00000 F2400.00000
G1 F1800
G1 X90.294 Y99.806 E4.02630
G1 X90.294 Y98.194 E4.09559
G1 X90.906 Y98.194 E4.12189
G1 X90.906 Y99.746 E4.18861
G1 X91.423 Y98.323 F9000.000
G1 F1800
G1 X91.423 Y100.323 E4.27460
G1 X89.777 Y100.323 E4.34536
G1 X89.777 Y97.677 E4.45912
G1 X103.823 Y97.677 E5.06303
G1 X103.823 Y102.320 E5.26263
G1 X101.142 Y105.000 E5.42562
G1 X103.823 Y107.680 E5.58860
G1 X103.823 Y112.323 E5.78821
G1 X99.777 Y112.323 E5.96216
G1 X99.777 Y98.323 E6.56409
G1 X91.483 Y98.323 E6.92070
G1 X91.880 Y98.780 F9000.000
G1 F1800
G1 X91.880 Y100.780 E6.98674
G1 X89.320 Y100.780 E7.07126
G1 X89.320 Y97.220 E7.18880
G1 X104.280 Y97.220 E7.68274
G1 X104.280 Y102.509 E7.85737
G1 X101.789 Y105.000 E7.97369
G1 X104.280 Y107.491 E8.09001
G1 X104.280 Y112.780 E8.26463
G1 X99.320 Y112.780 E8.42840
G1 X99.320 Y98.780 E8.89064
G1 X91.940 Y98.780 E9.13431
G1 X91.506 Y98.639 F9000.000
G1 X91.164 Y98.000 F9000.000
G1 F1800
G1 X100.036 Y98.000 E9.19763
G1 X100.757 Y98.766 F9000.000
G1 F1800
G1 X100.866 Y98.656 E9.20435
G1 X101.603 Y98.656 E9.23626
G1 X100.756 Y99.503 E9.28813
G1 X100.756 Y100.240 E9.32004
G1 X102.340 Y98.656 E9.41704
G1 X102.844 Y98.656 E9.43887
G1 X102.844 Y98.889 E9.44895
G1 X100.756 Y100.976 E9.57682
G1 X100.756 Y101.713 E9.60874
G1 X102.844 Y99.626 E9.73660
G1 X102.844 Y100.363 E9.76852
G1 X100.756 Y102.450 E9.89639
G1 X100.756 Y103.187 E9.92830
G1 X102.844 Y101.099 E10.05617
G1 X102.844 Y101.836 E10.08808
G1 X100.756 Y103.923 E10.21595
G1 X100.756 Y106.186 F9000.000
G1 F1800
G1 X100.866 Y106.076 E10.22318
G1 X101.263 Y106.473 E10.24931
G1 X100.756 Y106.979 E10.28267
G1 X100.756 Y107.772 E10.31963
G1 X101.659 Y106.869 E10.37912
G1 X102.055 Y107.266 E10.40525
G1 X100.756 Y108.565 E10.49087
G1 X100.756 Y109.357 E10.52782
G1 X102.452 Y107.662 E10.63957
G1 X102.844 Y108.054 E10.66541
G1 X100.756 Y110.150 E10.80329
G1 X100.756 Y110.943 E10.84024
G1 X102.844 Y108.856 E10.97783
G1 X102.844 Y109.648 E11.01478
G1 X101.148 Y111.344 E11.12653
G1 X101.941 Y111.344 E11.16348
G1 X102.844 Y110.441 E11.22298
G1 X102.844 Y111.234 E11.25993
G1 X102.734 Y111.344 E11.26717
G1 E7.26717 F2400.00000
G92 E0
G1 X90.600 Y99.547 F9000.000
G1 E4.00000 F2400.00000
G1 F1800
G1 X90.600 Y98.453 E4.00470
G1 E0.00470 F2400.00000
G92 E0
G1 X121.811 Y105.000 F9000.000
G1 E4.00000 F2400.00000
G1 F1800
G1 X124.706 Y107.895 E4.17601
G1 X124.706 Y111.806 E4.34417
G1 X121.694 Y111.806 E4.47366
G1 X121.694 Y98.194 E5.05890
G1 X124.706 Y98.194 E5.18839
G1 X124.706 Y102.105 E5.35655
G1 X121.854 Y104.958 E5.52998
G1 E1.52998 F2400.00000
G92 E0
G1 X112.306 Y99.806 F9000.000
G1 E4.00000 F2400.00000
G1 F1800
G1 X111.694 Y99.806 E4.02630
G1 X111.694 Y98.194 E4.09559
G1 X112.306 Y98.194 E4.12189
G1 X112.306 Y99.746 E4.18861
G1 X112.823 Y98.323 F9000.000
G1 F1800
G1 X112.823 Y100.323 E4.27460
G1 X111.177 Y100.323 E4.34536
G1 X111.177 Y97.677 E4.45912
G1 X125.223 Y97.677 E5.06303
G1 X125.223 Y102.320 E5.26263
G1 X122.542 Y105.000 E5.42562
G1 X125.223 Y107.680 E5.58860
G1 X125.223 Y112.323 E5.78821
G1 X121.177 Y112.323 E5.96216
G1 X121.177 Y98.323 E6.56409
G1 X112.883 Y98.323 E6.92070
G1 X113.280 Y98.780 F9000.000
G1 F1800
G1 X113.280 Y100.780 E6.98674
G1 X110.720 Y100.780 E7.07126
G1 X110.720 Y97.220 E7.18880
G1 X125.680 Y97.220 E7.68274
G1 X125.680 Y102.509 E7.85737
G1 X123.189 Y105.000 E7.97369
G1 X125.680 Y107.491 E8.09001
G1 X125.680 Y112.780 E8.26463
G1 X120.720 Y112.780 E8.42840
G1 X120.720 Y98.780 E8.89064
G1 X113.340 Y98.780 E9.13431
G1 X112.906 Y98.639 F9000.000
G1 X112.564 Y98.000 F9000.000
G1 F1800
G1 X121.436 Y98.000 E9.19763
G1 X122.157 Y98.766 F9000.000
G1 F1800
G1 X122.266 Y98.656 E9.20435
G1 X123.003 Y98.656 E9.23626
G1 X122.156 Y99.503 E9.28813
G1 X122.156 Y100.240 E9.32004
G1 X123.740 Y98.656 E9.41704
G1 X124.244 Y98.656 E9.43887
G1 X124.244 Y98.889 E9.44895
G1 X122.156 Y100.976 E9.57682
G1 X122.156 Y101.713 E9.60874
G1 X124.244 Y99.626 E9.73660
G1 X124.244 Y100.363 E9.76852
G1 X122.156 Y102.450 E9.89639
G1 X122.156 Y103.187 E9.92830
G1 X124.244 Y101.099 E10.05617
G1 X124.244 Y101.836 E10.08808
G1 X122.156 Y103.923 E10.21595
G1 X122.156 Y106.186 F9000.000
G1 F1800
G1 X122.266 Y106.076 E10.22318
G1 X122.663 Y106.473 E10.24931
G1 X122.156 Y106.979 E10.28267
G1 X122.156 Y107.772 E10.31963
G1 X123.059 Y106.869 E10.37912
G1 X123.455 Y107.266 E10.40525
G1 X122.156 Y108.565 E10.49087
G1 X122.156 Y109.357 E10.52782
G1 X123.852 Y107.662 E10.63957
G1 X124.244 Y108.054 E10.66541
G1 X122.156 Y110.150 E10.80329
G1 X122.156 Y110.943 E10.84024
G1 X124.244 Y108.856 E10.97783
G1 X124.244 Y109.648 E11.01478
G1 X122.548 Y111.344 E11.12653
G1 X123.341 Y111.344 E11.16348
G1 X124.244 Y110.441 E11.22298
G1 X124.244 Y111.234 E11.25993
G1 X124.134 Y111.344 E11.26717
G1 E7.26717 F2400.00000
G92 E0
G1 X112.000 Y99.547 F9000.000
G1 E4.00000 F2400.00000
G1 F1800
G1 X112.000 Y98.453 E4.00470
M106 S226.95
G1 Z0.400 F9000.000
G1 E0.00470 F2400.00000
G92 E0
G1 X100.411 Y105.000 F9000.000
G1 E4.00000 F2400.00000
G1 F1500
G1 X103.306 Y107.895 E4.17601
G1 X103.306 Y111.806 E4.34417
G1 X100.294 Y111.806 E4.47366
G1 X100.294 Y98.194 E5.05890
G1 X103.306 Y98.194 E5.18839
G1 X103.306 Y102.105 E5.35655
G1 X100.454 Y104.958 E5.52998
G1 E1.52998 F2400.00000
G92 E0
G1 X90.906 Y99.806 F9000.000
G1 E4.00000 F2400.00000
G1 F1500
G1 X90.294 Y99.806 E4.02630
G1 X90.294 Y98.194 E4.09559
G1 X90.906 Y98.194 E4.12189
G1 X90.906 Y99.746 E4.18861
G1 X91.423 Y98.323 F9000.000
G1 F2100
G1 X91.423 Y100.323 E4.27460
G1 X89.777 Y100.323 E4.34536
G1 X89.777 Y97.677 E4.45912
G1 X103.823 Y97.677 E5.06303
G1 X103.823 Y102.320 E5.26263
G1 X101.142 Y105.000 E5.42562
G1 X103.823 Y107.680 E5.58860
G1 X103.823 Y112.323 E5.78821
G1 X99.777 Y112.323 E5.96216
G1 X99.777 Y98.323 E6.56409
G1 X91.483 Y98.323 E6.92070
G1 X91.880 Y98.780 F9000.000
G1 F1800
G1 X91.880 Y100.780 E6.98674
G1 X89.320 Y100.780 E7.07126
G1 X89.320 Y97.220 E7.18880
G1 X104.280 Y97.220 E7.68274
G1 X104.280 Y102.509 E7.85737
G1 X101.789 Y105.000 E7.97369
G1 X104.280 Y107.491 E8.09001
G1 X104.280 Y112.780 E8.26463
G1 X99.320 Y112.780 E8.42840
G1 X99.320 Y98.780 E8.89064
G1 X91.940 Y98.780 E9.13431
G1 X91.506 Y98.639 F9000.000
G1 X91.164 Y98.000 F9000.000
G1 F1500
G1 X100.036 Y98.000 E9.19763
G1 X102.844 Y98.766 F9000.000
G1 F3600
G1 X102.734 Y98.656 E9.20487
G1 X101.941 Y98.656 E9.24182
G1 X102.844 Y99.559 E9.30132
G1 X102.844 Y100.352 E9.33827
G1 X101.148 Y98.656 E9.45002
G1 X100.756 Y98.656 E9.46829
G1 X100.756 Y99.057 E9.48698
G1 X102.844 Y101.144 E9.62456
G1 X102.844 Y101.937 E9.66151
G1 X100.756 Y99.850 E9.79910
G1 X100.756 Y100.643 E9.83605
G1 X102.452 Y102.338 E9.94780
G1 X102.055 Y102.734 E9.97393
G1 X100.756 Y101.435 E10.05955
G1 X100.756 Y102.228 E10.09650
G1 X101.659 Y103.131 E10.15600
G1 X101.263 Y103.527 E10.18213
G1 X100.756 Y103.021 E10.21549
G1 X100.756 Y103.814 E10.25244
G1 X100.866 Y103.923 E10.25967
G1 X102.844 Y108.164 F9000.000
G1 F3600
G1 X100.756 Y106.077 E10.38754
G1 X100.756 Y106.813 E10.41945
G1 X102.844 Y108.901 E10.54732
G1 X102.844 Y109.637 E10.57924
G1 X100.756 Y107.550 E10.70710
G1 X100.756 Y108.287 E10.73902
G1 X102.844 Y110.374 E10.86689
G1 X102.844 Y111.111 E10.89880
G1 X100.756 Y109.024 E11.02667
G1 X100.756 Y109.760 E11.05858
G1 X102.340 Y111.344 E11.15558
G1 X101.603 Y111.344 E11.18750
G1 X100.756 Y110.497 E11.23936
G1 X100.756 Y111.234 E11.27127
G1 X100.866 Y111.343 E11.27799
G1 E7.27799 F2400.00000
G92 E0
G1 X90.600 Y99.547 F9000.000
G1 E4.00000 F2400.00000
G1 F1500
G1 X90.600 Y98.453 E4.00470
G1 E0.00470 F2400.00000
G92 E0
G1 X121.811 Y105.000 F9000.000
G1 E4.00000 F2400.00000
G1 F1500
G1 X124.706 Y107.895 E4.17601
G1 X124.706 Y111.806 E4.34417
G1 X121.694 Y111.806 E4.47366
G1 X121.694 Y98.194 E5.05890
G1 X124.706 Y98.194 E5.18839
G1 X124.706 Y102.105 E5.35655
G1 X121.854 Y104.958 E5.52998
G1 E1.52998 F2400.00000
G92 E0
G1 X112.306 Y99.806 F9000.000
G1 E4.00000 F2400.00000
G1 F1500
G1 X111.694 Y99.806 E4.02630
G1 X111.694 Y98.194 E4.09559
G1 X112.306 Y98.194 E4.12189
G1 X112.306 Y99.746 E4.18861
G1 X112.823 Y98.323 F9000.000
G1 F2100
G1 X112.823 Y100.323 E4.27460
G1 X111.177 Y100.323 E4.34536
G1 X111.177 Y97.677 E4.45912
G1 X125.223 Y97.677 E5.06303
G1 X125.223 Y102.320 E5.26263
G1 X122.542 Y105.000 E5.42562
G1 X125.223 Y107.680 E5.58860
G1 X125.223 Y112.323 E5.78821
G1 X121.177 Y112.323 E5.96216
G1 X121.177 Y98.323 E6.56409
G1 X112.883 Y98.323 E6.92070
G1 X113.280 Y98.780 F9000.000
G1 F1800
G1 X113.280 Y100.780 E6.98674
G1 X110.720 Y100.780 E7.07126
G1 X110.720 Y97.220 E7.18880
G1 X125.680 Y97.220 E7.68274
G1 X125.680 Y102.509 E7.85737
