; generated by PrusaSlicer 2.2.0+linux-x64 on 2020-12-20 at 10:11:28 UTC

; 

; external perimeters extrusion width = 0.45mm
; perimeters extrusion width = 0.45mm
; infill extrusion width = 0.45mm
; solid infill extrusion width = 0.45mm
; top infill extrusion width = 0.40mm
; first layer extrusion width = 0.42mm

M107
M104 S215 ; set temperature
G28 ; home all axes
G1 Z5 F5000 ; lift nozzle
M109 S215 ; set temperature and wait for it to be reached
G21 ; set units to millimeters
G90 ; use absolute coordinates
M82 ; use absolute distances for extrusion
G92 E0
; Filament gcode
G1 Z0.350 F7800.000
G1 E-2.00000 F2400.00000
G92 E0
G1 X71.377 Y84.291 F7800.000
G1 E2.00000 F2400.00000
G1 F1800.000
G1 X72.434 Y83.697 E2.06081
G1 X73.584 Y83.315 E2.12161
G1 X74.779 Y83.159 E2.18211
G1 X125.006 Y83.155 E4.70282
G1 X126.182 Y83.266 E4.76207
G1 X127.310 Y83.591 E4.82102
G1 X128.365 Y84.121 E4.88027
G1 X129.304 Y84.838 E4.93952
G1 X130.093 Y85.716 E4.99877
G1 X130.706 Y86.725 E5.05803
G1 X131.120 Y87.824 E5.11697
G1 X131.324 Y88.987 E5.17622
G1 X131.341 Y134.724 E7.47158
G1 X131.194 Y135.877 E7.52990
G1 X130.836 Y136.989 E7.58853
G1 X130.281 Y138.017 E7.64716
G1 X129.547 Y138.925 E7.70580
G1 X128.582 Y139.737 E7.76909
G1 X127.475 Y140.342 E7.83238
G1 X126.271 Y140.716 E7.89568
G1 X125.016 Y140.845 E7.95897
G1 X74.788 Y140.841 E10.47968
G1 X73.629 Y140.695 E10.53831
G1 X72.517 Y140.339 E10.59694
G1 X71.488 Y139.784 E10.65557
G1 X70.575 Y139.047 E10.71452
G1 X69.763 Y138.082 E10.77781
G1 X69.158 Y136.975 E10.84110
G1 X68.784 Y135.771 E10.90440
G1 X68.655 Y134.516 E10.96769
G1 X68.659 Y89.270 E13.23841
G1 X68.809 Y88.111 E13.29704
G1 X69.166 Y87.005 E13.35536
G1 X69.719 Y85.983 E13.41368
G1 X70.453 Y85.075 E13.47231
G1 X71.332 Y84.330 E13.53011
G1 E11.53011 F2400.00000
G92 E0
G1 X123.900 Y133.400 F7800.000
G1 E2.00000 F2400.00000
G1 F1800.000
G1 X76.100 Y133.400 E4.39891
G1 X76.100 Y121.600 E4.99113
G1 X112.100 Y121.600 E6.79782
G1 X112.100 Y101.400 E7.81155
G1 X76.100 Y101.400 E9.61824
G1 X76.100 Y90.600 E10.16027
G1 X123.900 Y90.600 E12.55918
G1 X123.900 Y133.340 E14.70415
G1 E12.70415 F2400.00000
G92 E0
G1 X111.755 Y121.255 F7800.000
G1 E2.00000 F2400.00000
G1 F1800.000
G1 X111.755 Y101.745 E2.97912
G1 X75.755 Y101.745 E4.78581
G1 X75.755 Y90.255 E5.36246
G1 X124.245 Y90.255 E7.79598
G1 X124.245 Y133.745 E9.97858
G1 X75.755 Y133.745 E12.41210
G1 X75.755 Y121.255 E13.03894
G1 X111.695 Y121.255 E14.84262
G1 X111.410 Y120.910 F7800.000
G1 F1800.000
G1 X111.410 Y102.090 E15.78712
G1 X75.410 Y102.090 E17.59381
G1 X75.410 Y89.910 E18.20508
G1 X124.590 Y89.910 E20.67322
G1 X124.590 Y134.090 E22.89043
G1 X75.410 Y134.090 E25.35858
G1 X75.410 Y120.910 E26.02003
G1 X111.350 Y120.910 E27.82371
G1 X111.807 Y120.863 F7800.000
G1 E25.82371 F2400.00000
G92 E0
G1 X123.797 Y113.355 F7800.000
G1 E2.00000 F2400.00000
G1 F1800.000
G1 X112.358 Y101.916 E2.81202
G1 X112.358 Y102.404 E2.83651
G1 X123.642 Y113.687 E3.63752
G1 X123.642 Y114.175 E3.66201
G1 X112.358 Y102.892 E4.46302
G1 X112.358 Y103.380 E4.48751
G1 X123.642 Y114.663 E5.28851
G1 X123.642 Y115.151 E5.31300
G1 X112.358 Y103.868 E6.11401
G1 X112.358 Y104.356 E6.13850
G1 X123.642 Y115.639 E6.93950
G1 X123.642 Y116.127 E6.96399
G1 X112.358 Y104.844 E7.76500
G1 X112.358 Y105.332 E7.78949
G1 X123.642 Y116.615 E8.59050
G1 X123.642 Y117.103 E8.61499
G1 X112.358 Y105.819 E9.41599
G1 X112.358 Y106.307 E9.44048
G1 X123.642 Y117.590 E10.24149
G1 X123.642 Y118.078 E10.26598
G1 X112.358 Y106.795 E11.06698
G1 X112.358 Y107.283 E11.09148
G1 X123.642 Y118.566 E11.89248
G1 X123.642 Y119.054 E11.91697
G1 X112.358 Y107.771 E12.71798
G1 X112.358 Y108.259 E12.74247
G1 X123.642 Y119.542 E13.54347
G1 X123.642 Y120.030 E13.56796
G1 X112.358 Y108.747 E14.36897
G1 X112.358 Y109.234 E14.39346
G1 X123.642 Y120.518 E15.19447
G1 X123.642 Y121.005 E15.21896
G1 X112.358 Y109.722 E16.01996
G1 X112.358 Y110.210 E16.04445
G1 X123.642 Y121.493 E16.84546
G1 X123.642 Y121.981 E16.86995
G1 X112.358 Y110.698 E17.67095
G1 X112.358 Y111.186 E17.69544
G1 X123.642 Y122.469 E18.49645
G1 X123.642 Y122.957 E18.52094
G1 X112.358 Y111.674 E19.32195
G1 X112.358 Y112.162 E19.34644
G1 X123.642 Y123.445 E20.14744
G1 X123.642 Y123.933 E20.17193
G1 X112.358 Y112.650 E20.97294
G1 X112.358 Y113.137 E20.99743
G1 X123.642 Y124.421 E21.79843
G1 X123.642 Y124.908 E21.82292
G1 X112.358 Y113.625 E22.62393
G1 X112.358 Y114.113 E22.64842
G1 X123.642 Y125.396 E23.44943
G1 X123.642 Y125.884 E23.47392
G1 X112.358 Y114.601 E24.27492
G1 X112.358 Y115.089 E24.29941
G1 X123.642 Y126.372 E25.10042
G1 X123.642 Y126.860 E25.12491
G1 X112.358 Y115.577 E25.92591
G1 X112.358 Y116.065 E25.95040
G1 X123.642 Y127.348 E26.75141
G1 X123.642 Y127.836 E26.77590
G1 X112.358 Y116.553 E27.57691
G1 X112.358 Y117.040 E27.60140
G1 X123.642 Y128.324 E28.40240
G1 X123.642 Y128.811 E28.42689
G1 X112.358 Y117.528 E29.22790
G1 X112.358 Y118.016 E29.25239
G1 X123.642 Y129.299 E30.05339
G1 X123.642 Y129.787 E30.07789
G1 X112.358 Y118.504 E30.87889
G1 X112.358 Y118.992 E30.90338
G1 X123.642 Y130.275 E31.70439
G1 X123.642 Y130.763 E31.72888
G1 X112.358 Y119.480 E32.52988
G1 X112.358 Y119.968 E32.55437
G1 X123.642 Y131.251 E33.35538
G1 X123.642 Y131.739 E33.37987
G1 X112.358 Y120.455 E34.18088
G1 X112.358 Y120.943 E34.20537
G1 X123.642 Y132.226 E35.00637
G1 X123.642 Y132.714 E35.03086
G1 X112.358 Y121.431 E35.83187
G1 X112.358 Y121.858 E35.85331
G1 X112.298 Y121.858 E35.85636
G1 X123.581 Y133.142 E36.65736
G1 X123.093 Y133.142 E36.68185
G1 X111.810 Y121.858 E37.48286
G1 X111.322 Y121.858 E37.50735
G1 X122.605 Y133.142 E38.30836
G1 X122.117 Y133.142 E38.33285
G1 X110.834 Y121.858 E39.13385
G1 X110.346 Y121.858 E39.15834
G1 X121.629 Y133.142 E39.95935
G1 X121.142 Y133.142 E39.98384
G1 X109.858 Y121.858 E40.78484
G1 X109.371 Y121.858 E40.80933
G1 X120.654 Y133.142 E41.61034
G1 X120.166 Y133.142 E41.63483
G1 X108.883 Y121.858 E42.43584
G1 X108.395 Y121.858 E42.46033
G1 X119.678 Y133.142 E43.26133
G1 X119.190 Y133.142 E43.28582
G1 X107.907 Y121.858 E44.08683
G1 X107.419 Y121.858 E44.11132
G1 X118.702 Y133.142 E44.91232
G1 X118.214 Y133.142 E44.93681
G1 X106.931 Y121.858 E45.73782
G1 X106.443 Y121.858 E45.76231
G1 X117.726 Y133.142 E46.56332
G1 X117.239 Y133.142 E46.58781
G1 X105.955 Y121.858 E47.38881
G1 X105.468 Y121.858 E47.41330
G1 X116.751 Y133.142 E48.21431
G1 X116.263 Y133.142 E48.23880
G1 X104.980 Y121.858 E49.03980
G1 X104.492 Y121.858 E49.06430
G1 X115.775 Y133.142 E49.86530
G1 X115.287 Y133.142 E49.88979
G1 X104.004 Y121.858 E50.69080
G1 X103.516 Y121.858 E50.71529
G1 X114.799 Y133.142 E51.51629
G1 X114.311 Y133.142 E51.54078
G1 X103.028 Y121.858 E52.34179
G1 X102.540 Y121.858 E52.36628
G1 X113.824 Y133.142 E53.16729
G1 X113.336 Y133.142 E53.19178
G1 X102.053 Y121.858 E53.99278
G1 X101.565 Y121.858 E54.01727
G1 X112.848 Y133.142 E54.81828
G1 X112.360 Y133.142 E54.84277
G1 X101.077 Y121.858 E55.64377
G1 X100.589 Y121.858 E55.66826
G1 X111.872 Y133.142 E56.46927
G1 X111.384 Y133.142 E56.49376
G1 X100.101 Y121.858 E57.29477
G1 X99.613 Y121.858 E57.31926
G1 X110.896 Y133.142 E58.12026
G1 X110.408 Y133.142 E58.14475
G1 X99.125 Y121.858 E58.94576
G1 X98.637 Y121.858 E58.97025
G1 X109.921 Y133.142 E59.77125
G1 X109.433 Y133.142 E59.79574
G1 X98.150 Y121.858 E60.59675
G1 X97.662 Y121.858 E60.62124
G1 X108.945 Y133.142 E61.42225
G1 X108.457 Y133.142 E61.44674
G1 X97.174 Y121.858 E62.24774
G1 X96.686 Y121.858 E62.27223
G1 X107.969 Y133.142 E63.07324
G1 X107.481 Y133.142 E63.09773
G1 X96.198 Y121.858 E63.89873
G1 X95.710 Y121.858 E63.92322
G1 X106.993 Y133.142 E64.72423
G1 X106.505 Y133.142 E64.74872
G1 X95.222 Y121.858 E65.54973
G1 X94.734 Y121.858 E65.57422
G1 X106.018 Y133.142 E66.37522
G1 X105.530 Y133.142 E66.39971
G1 X94.247 Y121.858 E67.20072
G1 X93.759 Y121.858 E67.22521
G1 X105.042 Y133.142 E68.02621
G1 X104.554 Y133.142 E68.05070
G1 X93.271 Y121.858 E68.85171
G1 X92.783 Y121.858 E68.87620
G1 X104.066 Y133.142 E69.67721
G1 X103.578 Y133.142 E69.70170
G1 X92.295 Y121.858 E70.50270
G1 X91.807 Y121.858 E70.52719
G1 X103.090 Y133.142 E71.32820
G1 X102.603 Y133.142 E71.35269
G1 X91.319 Y121.858 E72.15369
G1 X90.832 Y121.858 E72.17818
G1 X102.115 Y133.142 E72.97919
G1 X101.627 Y133.142 E73.00368
G1 X90.344 Y121.858 E73.80469
G1 X89.856 Y121.858 E73.82918
G1 X101.139 Y133.142 E74.63018
G1 X100.651 Y133.142 E74.65467
G1 X89.368 Y121.858 E75.45568
G1 X88.880 Y121.858 E75.48017
G1 X100.163 Y133.142 E76.28117
G1 X99.675 Y133.142 E76.30566
G1 X88.392 Y121.858 E77.10667
G1 X87.904 Y121.858 E77.13116
G1 X99.187 Y133.142 E77.93217
G1 X98.700 Y133.142 E77.95666
G1 X87.416 Y121.858 E78.75766
G1 X86.929 Y121.858 E78.78215
G1 X98.212 Y133.142 E79.58316
G1 X97.724 Y133.142 E79.60765
G1 X86.441 Y121.858 E80.40865
G1 X85.953 Y121.858 E80.43314
G1 X97.236 Y133.142 E81.23415
G1 X96.748 Y133.142 E81.25864
G1 X85.465 Y121.858 E82.05965
G1 X84.977 Y121.858 E82.08414
G1 X96.260 Y133.142 E82.88514
G1 X95.772 Y133.142 E82.90963
G1 X84.489 Y121.858 E83.71064
G1 X84.001 Y121.858 E83.73513
G1 X95.284 Y133.142 E84.53613
G1 X94.797 Y133.142 E84.56063
G1 X83.513 Y121.858 E85.36163
G1 X83.026 Y121.858 E85.38612
G1 X94.309 Y133.142 E86.18713
G1 X93.821 Y133.142 E86.21162
G1 X82.538 Y121.858 E87.01262
G1 X82.050 Y121.858 E87.03711
G1 X93.333 Y133.142 E87.83812
G1 X92.845 Y133.142 E87.86261
G1 X81.562 Y121.858 E88.66362
G1 X81.074 Y121.858 E88.68811
G1 X92.357 Y133.142 E89.48911
G1 X91.869 Y133.142 E89.51360
G1 X80.586 Y121.858 E90.31461
G1 X80.098 Y121.858 E90.33910
G1 X91.382 Y133.142 E91.14010
G1 X90.894 Y133.142 E91.16459
G1 X79.611 Y121.858 E91.96560
G1 X79.123 Y121.858 E91.99009
G1 X90.406 Y133.142 E92.79110
G1 X89.918 Y133.142 E92.81559
G1 X78.635 Y121.858 E93.61659
G1 X78.147 Y121.858 E93.64108
G1 X89.430 Y133.142 E94.44209
G1 X88.942 Y133.142 E94.46658
G1 X77.659 Y121.858 E95.26758
G1 X77.171 Y121.858 E95.29207
G1 X88.454 Y133.142 E96.09308
G1 X87.966 Y133.142 E96.11757
G1 X76.683 Y121.858 E96.91858
G1 X76.358 Y121.858 E96.93488
G1 X76.358 Y122.021 E96.94307
G1 X87.479 Y133.142 E97.73250
G1 X86.991 Y133.142 E97.75699
G1 X76.358 Y122.509 E98.51179
G1 X76.358 Y122.997 E98.53628
G1 X86.503 Y133.142 E99.25644
G1 X86.015 Y133.142 E99.28093
G1 X76.358 Y123.485 E99.96646
G1 X76.358 Y123.973 E99.99095
G1 X85.527 Y133.142 E100.64185
G1 X85.039 Y133.142 E100.66634
G1 X76.358 Y124.461 E101.28260
G1 X76.358 Y124.949 E101.30709
G1 X84.551 Y133.142 E101.88872
G1 X84.063 Y133.142 E101.91321
G1 X76.358 Y125.437 E102.46020
G1 X76.358 Y125.924 E102.48469
G1 X83.576 Y133.142 E102.99704
G1 X83.088 Y133.142 E103.02153
G1 X76.358 Y126.412 E103.49926
G1 X76.358 Y126.900 E103.52375
G1 X82.600 Y133.142 E103.96683
G1 X82.112 Y133.142 E103.99132
G1 X76.358 Y127.388 E104.39978
G1 X76.358 Y127.876 E104.42427
G1 X81.624 Y133.142 E104.79809
G1 X81.136 Y133.142 E104.82258
G1 X76.358 Y128.364 E105.16176
G1 X76.358 Y128.852 E105.18625
G1 X80.648 Y133.142 E105.49080
G1 X80.161 Y133.142 E105.51529
G1 X76.358 Y129.339 E105.78521
G1 X76.358 Y129.827 E105.80970
G1 X79.673 Y133.142 E106.04498
G1 X79.185 Y133.142 E106.06947
G1 X76.358 Y130.315 E106.27011
G1 X76.358 Y130.803 E106.29460
G1 X78.697 Y133.142 E106.46061
G1 X78.209 Y133.142 E106.48510
G1 X76.358 Y131.291 E106.61648
G1 X76.358 Y131.779 E106.64097
G1 X77.721 Y133.142 E106.73771
G1 X77.233 Y133.142 E106.76220
G1 X76.358 Y132.267 E106.82431
G1 X76.358 Y132.755 E106.84880
G1 X76.901 Y133.297 E106.88729
G1 E104.88729 F2400.00000
G92 E0
G1 X76.612 Y101.297 F7800.000
G1 E2.00000 F2400.00000
G1 F1800.000
G1 X76.358 Y101.043 E2.01801
G1 X76.358 Y100.555 E2.04250
G1 X76.945 Y101.142 E2.08413
G1 X77.433 Y101.142 E2.10862
G1 X76.358 Y100.067 E2.18488
G1 X76.358 Y99.579 E2.20937
G1 X77.921 Y101.142 E2.32027
G1 X78.408 Y101.142 E2.34476
G1 X76.358 Y99.092 E2.49029
G1 X76.358 Y98.604 E2.51479
G1 X78.896 Y101.142 E2.69495
G1 X79.384 Y101.142 E2.71944
G1 X76.358 Y98.116 E2.93424
G1 X76.358 Y97.628 E2.95873
G1 X79.872 Y101.142 E3.20817
G1 X80.360 Y101.142 E3.23266
G1 X76.358 Y97.140 E3.51673
G1 X76.358 Y96.652 E3.54122
G1 X80.848 Y101.142 E3.85993
G1 X81.336 Y101.142 E3.88442
G1 X76.358 Y96.164 E4.23776
G1 X76.358 Y95.676 E4.26225
G1 X81.824 Y101.142 E4.65022
G1 X82.311 Y101.142 E4.67471
G1 X76.358 Y95.189 E5.09732
G1 X76.358 Y94.701 E5.12181
G1 X82.799 Y101.142 E5.57905
G1 X83.287 Y101.142 E5.60354
G1 X76.358 Y94.213 E6.09542
G1 X76.358 Y93.725 E6.11991
G1 X83.775 Y101.142 E6.64642
G1 X84.263 Y101.142 E6.67092
G1 X76.358 Y93.237 E7.23206
G1 X76.358 Y92.749 E7.25655
G1 X84.751 Y101.142 E7.85233
G1 X85.239 Y101.142 E7.87682
G1 X76.358 Y92.261 E8.50724
G1 X76.358 Y91.774 E8.53173
G1 X85.726 Y101.142 E9.19678
G1 X86.214 Y101.142 E9.22127
G1 X76.358 Y91.286 E9.92096
G1 X76.358 Y90.858 E9.94240
G1 X76.419 Y90.858 E9.94545
G1 X86.702 Y101.142 E10.67546
G1 X87.190 Y101.142 E10.69995
G1 X76.907 Y90.858 E11.42997
G1 X77.395 Y90.858 E11.45446
G1 X87.678 Y101.142 E12.18447
G1 X88.166 Y101.142 E12.20896
G1 X77.883 Y90.858 E12.93898
G1 X78.371 Y90.858 E12.96347
G1 X88.654 Y101.142 E13.69348
G1 X89.142 Y101.142 E13.71797
G1 X78.858 Y90.858 E14.44799
G1 X79.346 Y90.858 E14.47248
G1 X89.629 Y101.142 E15.20249
G1 X90.117 Y101.142 E15.22698
G1 X79.834 Y90.858 E15.95699
G1 X80.322 Y90.858 E15.98149
G1 X90.605 Y101.142 E16.71150
G1 X91.093 Y101.142 E16.73599
G1 X80.810 Y90.858 E17.46600
G1 X81.298 Y90.858 E17.49049
G1 X91.581 Y101.142 E18.22051
G1 X92.069 Y101.142 E18.24500
G1 X81.786 Y90.858 E18.97501
G1 X82.274 Y90.858 E18.99950
G1 X92.557 Y101.142 E19.72952
G1 X93.045 Y101.142 E19.75401
G1 X82.761 Y90.858 E20.48402
G1 X83.249 Y90.858 E20.50851
G1 X93.532 Y101.142 E21.23853
G1 X94.020 Y101.142 E21.26302
G1 X83.737 Y90.858 E21.99303
G1 X84.225 Y90.858 E22.01752
G1 X94.508 Y101.142 E22.74754
G1 X94.996 Y101.142 E22.77203
G1 X84.713 Y90.858 E23.50204
G1 X85.201 Y90.858 E23.52653
G1 X95.484 Y101.142 E24.25655
G1 X95.972 Y101.142 E24.28104
G1 X85.689 Y90.858 E25.01105
G1 X86.176 Y90.858 E25.03554
G1 X96.460 Y101.142 E25.76556
G1 X96.947 Y101.142 E25.79005
G1 X86.664 Y90.858 E26.52006
G1 X87.152 Y90.858 E26.54455
G1 X97.435 Y101.142 E27.27457
G1 X97.923 Y101.142 E27.29906
G1 X87.640 Y90.858 E28.02907
G1 X88.128 Y90.858 E28.05356
G1 X98.411 Y101.142 E28.78357
G1 X98.899 Y101.142 E28.80806
G1 X88.616 Y90.858 E29.53808
G1 X89.104 Y90.858 E29.56257
G1 X99.387 Y101.142 E30.29258
G1 X99.875 Y101.142 E30.31707
G1 X89.592 Y90.858 E31.04709
G1 X90.079 Y90.858 E31.07158
G1 X100.363 Y101.142 E31.80159
G1 X100.850 Y101.142 E31.82608
G1 X90.567 Y90.858 E32.55610
G1 X91.055 Y90.858 E32.58059
G1 X101.338 Y101.142 E33.31060
G1 X101.826 Y101.142 E33.33509
G1 X91.543 Y90.858 E34.06511
G1 X92.031 Y90.858 E34.08960
G1 X102.314 Y101.142 E34.81961
G1 X102.802 Y101.142 E34.84410
G1 X92.519 Y90.858 E35.57412
G1 X93.007 Y90.858 E35.59861
G1 X103.290 Y101.142 E36.32862
G1 X103.778 Y101.142 E36.35311
G1 X93.495 Y90.858 E37.08313
G1 X93.982 Y90.858 E37.10762
G1 X104.266 Y101.142 E37.83763
G1 X104.753 Y101.142 E37.86212
G1 X94.470 Y90.858 E38.59214
G1 X94.958 Y90.858 E38.61663
G1 X105.241 Y101.142 E39.34664
G1 X105.729 Y101.142 E39.37113
G1 X95.446 Y90.858 E40.10114
G1 X95.934 Y90.858 E40.12563
G1 X106.217 Y101.142 E40.85565
G1 X106.705 Y101.142 E40.88014
G1 X96.422 Y90.858 E41.61015
G1 X96.910 Y90.858 E41.63464
G1 X107.193 Y101.142 E42.36466
G1 X107.681 Y101.142 E42.38915
G1 X97.397 Y90.858 E43.11916
G1 X97.885 Y90.858 E43.14365
G1 X108.168 Y101.142 E43.87367
G1 X108.656 Y101.142 E43.89816
G1 X98.373 Y90.858 E44.62817
G1 X98.861 Y90.858 E44.65266
G1 X109.144 Y101.142 E45.38268
G1 X109.632 Y101.142 E45.40717
G1 X99.349 Y90.858 E46.13718
G1 X99.837 Y90.858 E46.16167
G1 X110.120 Y101.142 E46.89169
G1 X110.608 Y101.142 E46.91618
G1 X100.325 Y90.858 E47.64619
G1 X100.813 Y90.858 E47.67068
G1 X111.096 Y101.142 E48.40070
G1 X111.584 Y101.142 E48.42519
G1 X101.300 Y90.858 E49.15520
G1 X101.788 Y90.858 E49.17969
G1 X123.642 Y112.712 E50.73109
G1 X123.642 Y112.224 E50.75558
G1 X102.276 Y90.858 E52.27233
G1 X102.764 Y90.858 E52.29683
G1 X123.642 Y111.736 E53.77895
G1 X123.642 Y111.248 E53.80344
G1 X103.252 Y90.858 E55.25093
