; generated by Slic3r 1.3.0-dev on 2019-02-20 at 22:32:32

; external perimeters extrusion width = 0.44mm (2.38mm^3/s)
; perimeters extrusion width = 0.56mm (3.62mm^3/s)
; infill extrusion width = 0.50mm (5.48mm^3/s)
; solid infill extrusion width = 0.56mm (6.20mm^3/s)
; top infill extrusion width = 0.56mm (5.17mm^3/s)

M107
M104 S210 ; set temperature
; -- START GCODE --
	G90                     ;set to absolute positioning
G28                     ;move to Home
G92 E0                  ;zero the extruded length
G1 F7200                ;set feedrate to travel_speed value
; -- end of START GCODE --
; Filament gcode

M109 S210 ; set temperature and wait for it to be reached
G21 ; set units to millimeters
G90 ; use absolute coordinates
M82 ; use absolute distances for extrusion
G92 E0
G1 Z0.200 F9000.000
G1 E-4.00000 F2400.00000
G92 E0
G1 X92.236 Y94.235 F9000.000
G1 E4.00000 F2400.00000
G1 F1800
G1 X94.657 Y92.378 E4.13119
G1 X97.476 Y91.210 E4.26238
G1 X100.500 Y90.812 E4.39354
G1 X114.500 Y90.812 E4.99547
G1 X117.525 Y91.210 E5.12666
G1 X120.344 Y92.378 E5.25786
G1 X122.765 Y94.236 E5.38905
G1 X124.622 Y96.657 E5.52024
G1 X125.790 Y99.476 E5.65143
G1 X126.188 Y102.500 E5.78258
G1 X126.188 Y107.500 E5.99756
G1 X125.790 Y110.525 E6.12875
G1 X124.622 Y113.344 E6.25994
G1 X122.764 Y115.765 E6.39113
G1 X120.343 Y117.622 E6.52232
G1 X117.524 Y118.790 E6.65352
G1 X114.500 Y119.188 E6.78467
G1 X100.500 Y119.188 E7.38661
G1 X97.475 Y118.790 E7.51780
G1 X94.656 Y117.622 E7.64899
G1 X92.235 Y115.764 E7.78018
G1 X90.378 Y113.343 E7.91137
G1 X89.210 Y110.524 E8.04256
G1 X88.812 Y107.500 E8.17372
G1 X88.812 Y102.500 E8.38869
G1 X89.210 Y99.475 E8.51989
G1 X90.378 Y96.656 E8.65108
G1 X92.199 Y94.283 E8.77969
G1 X92.745 Y94.460 F9000.000
G1 F1800
G1 X95.149 Y92.694 E8.90793
G1 X97.934 Y91.628 E9.03617
G1 X100.500 Y91.329 E9.14723
G1 X114.500 Y91.329 E9.74916
G1 X117.456 Y91.727 E9.87741
G1 X120.201 Y92.894 E10.00565
G1 X122.540 Y94.745 E10.13389
G1 X124.306 Y97.149 E10.26214
G1 X125.372 Y99.934 E10.39038
G1 X125.671 Y102.500 E10.50144
G1 X125.671 Y107.500 E10.71641
G1 X125.273 Y110.456 E10.84466
G1 X124.106 Y113.201 E10.97290
G1 X122.255 Y115.540 E11.10114
G1 X119.851 Y117.306 E11.22939
G1 X117.066 Y118.372 E11.35763
G1 X114.500 Y118.671 E11.46869
G1 X100.500 Y118.671 E12.07062
G1 X97.544 Y118.273 E12.19886
G1 X94.799 Y117.106 E12.32711
G1 X92.460 Y115.255 E12.45535
G1 X90.694 Y112.851 E12.58359
G1 X89.628 Y110.066 E12.71184
G1 X89.329 Y107.500 E12.82289
G1 X89.329 Y102.500 E13.03787
G1 X89.727 Y99.544 E13.16611
G1 X90.894 Y96.799 E13.29436
G1 X92.708 Y94.507 E13.42002
G1 X93.253 Y94.691 F9000.000
G1 F1800
G1 X95.639 Y93.020 E13.54525
G1 X98.388 Y92.058 E13.67047
G1 X100.500 Y91.846 E13.76174
G1 X114.500 Y91.846 E14.36368
G1 X117.385 Y92.244 E14.48890
G1 X120.055 Y93.409 E14.61413
G1 X122.309 Y95.253 E14.73936
G1 X123.980 Y97.639 E14.86458
G1 X124.942 Y100.388 E14.98981
G1 X125.154 Y102.500 E15.08108
G1 X125.154 Y107.500 E15.29606
G1 X124.756 Y110.385 E15.42128
G1 X123.591 Y113.055 E15.54651
G1 X121.747 Y115.309 E15.67173
G1 X119.361 Y116.980 E15.79696
G1 X116.612 Y117.942 E15.92219
G1 X114.500 Y118.154 E16.01346
G1 X100.500 Y118.154 E16.61539
G1 X97.615 Y117.756 E16.74062
G1 X94.945 Y116.591 E16.86584
G1 X92.691 Y114.747 E16.99107
G1 X91.020 Y112.361 E17.11630
G1 X90.058 Y109.612 E17.24152
G1 X89.846 Y107.500 E17.33279
G1 X89.846 Y102.500 E17.54777
G1 X90.244 Y99.615 E17.67300
G1 X91.409 Y96.945 E17.79822
G1 X93.215 Y94.737 E17.92087
G1 X93.761 Y94.928 F9000.000
G1 F1800
G1 X96.126 Y93.356 E18.04300
G1 X98.835 Y92.501 E18.16514
G1 X100.500 Y92.363 E18.23696
G1 X114.500 Y92.363 E18.83890
G1 X117.313 Y92.761 E18.96103
G1 X119.904 Y93.924 E19.08317
G1 X122.072 Y95.761 E19.20530
G1 X123.644 Y98.126 E19.32744
G1 X124.499 Y100.835 E19.44957
G1 X124.637 Y102.500 E19.52140
G1 X124.637 Y107.500 E19.73637
G1 X124.239 Y110.313 E19.85851
G1 X123.076 Y112.904 E19.98064
G1 X121.239 Y115.072 E20.10278
G1 X118.874 Y116.644 E20.22491
G1 X116.165 Y117.499 E20.34705
G1 X114.500 Y117.637 E20.41887
G1 X100.500 Y117.637 E21.02081
G1 X97.687 Y117.239 E21.14294
G1 X95.096 Y116.076 E21.26508
G1 X92.928 Y114.239 E21.38721
G1 X91.356 Y111.874 E21.50935
G1 X90.501 Y109.165 E21.63148
G1 X90.363 Y107.500 E21.70331
G1 X90.363 Y102.500 E21.91829
G1 X90.761 Y99.687 E22.04042
G1 X91.924 Y97.096 E22.16256
G1 X93.722 Y94.974 E22.28211
G1 X94.267 Y95.173 F9000.000
G1 F1800
G1 X96.610 Y93.702 E22.40107
G1 X100.500 Y92.880 E22.57200
G1 X114.500 Y92.880 E23.17394
G1 X117.238 Y93.278 E23.29290
G1 X119.750 Y94.439 E23.41186
G1 X121.827 Y96.267 E23.53082
G1 X123.298 Y98.610 E23.64979
G1 X124.120 Y102.500 E23.82071
G1 X124.120 Y107.500 E24.03569
G1 X123.722 Y110.238 E24.15465
G1 X122.561 Y112.750 E24.27362
G1 X120.733 Y114.827 E24.39258
G1 X118.390 Y116.298 E24.51154
G1 X114.500 Y117.120 E24.68247
G1 X100.500 Y117.120 E25.28441
G1 X97.762 Y116.722 E25.40337
G1 X95.250 Y115.561 E25.52233
G1 X93.173 Y113.733 E25.64130
G1 X91.702 Y111.390 E25.76026
G1 X90.880 Y107.500 E25.93119
G1 X90.880 Y102.500 E26.14616
G1 X91.278 Y99.762 E26.26512
G1 X92.439 Y97.250 E26.38409
G1 X94.227 Y95.218 E26.50047
G1 X94.772 Y95.426 F9000.000
G1 F1800
G1 X97.091 Y94.060 E26.61618
G1 X100.500 Y93.398 E26.76549
G1 X114.500 Y93.398 E27.36742
G1 X117.162 Y93.795 E27.48313
G1 X119.590 Y94.954 E27.59883
G1 X121.574 Y96.772 E27.71454
G1 X122.940 Y99.091 E27.83024
G1 X123.602 Y102.500 E27.97955
G1 X123.602 Y107.500 E28.19453
G1 X123.205 Y110.162 E28.31023
G1 X122.046 Y112.590 E28.42594
G1 X120.228 Y114.574 E28.54164
G1 X117.909 Y115.940 E28.65735
G1 X114.500 Y116.602 E28.80666
G1 X100.500 Y116.602 E29.40860
G1 X97.838 Y116.205 E29.52430
G1 X95.410 Y115.046 E29.64000
G1 X93.426 Y113.228 E29.75571
G1 X92.060 Y110.909 E29.87141
G1 X91.398 Y107.500 E30.02073
G1 X91.398 Y102.500 E30.23570
G1 X91.795 Y99.838 E30.35141
G1 X92.954 Y97.410 E30.46711
G1 X94.732 Y95.470 E30.58024
G1 X95.276 Y95.687 F9000.000
G1 F1800
G1 X97.568 Y94.431 E30.69259
G1 X100.500 Y93.915 E30.82061
G1 X114.500 Y93.915 E31.42255
G1 X117.083 Y94.312 E31.53490
G1 X119.426 Y95.468 E31.64725
G1 X121.313 Y97.276 E31.75960
G1 X122.569 Y99.568 E31.87195
G1 X123.085 Y102.500 E31.99997
G1 X123.085 Y107.500 E32.21495
G1 X122.688 Y110.083 E32.32730
G1 X121.532 Y112.426 E32.43965
G1 X119.724 Y114.313 E32.55200
G1 X117.432 Y115.569 E32.66436
G1 X114.500 Y116.085 E32.79238
G1 X100.500 Y116.085 E33.39431
G1 X97.917 Y115.688 E33.50666
G1 X95.574 Y114.532 E33.61902
G1 X93.687 Y112.724 E33.73137
G1 X92.431 Y110.432 E33.84372
G1 X91.915 Y107.500 E33.97174
G1 X91.915 Y102.500 E34.18672
G1 X92.312 Y99.917 E34.29907
G1 X93.468 Y97.574 E34.41142
G1 X95.235 Y95.730 E34.52119
G1 X95.778 Y95.958 F9000.000
G1 F1800
G1 X98.039 Y94.816 E34.63009
G1 X100.500 Y94.432 E34.73718
G1 X114.500 Y94.432 E35.33911
G1 X117.001 Y94.829 E35.44801
G1 X119.256 Y95.983 E35.55690
G1 X121.042 Y97.778 E35.66580
G1 X122.184 Y100.039 E35.77469
G1 X122.568 Y102.500 E35.88178
G1 X122.568 Y107.500 E36.09676
G1 X122.171 Y110.001 E36.20566
G1 X121.017 Y112.256 E36.31455
G1 X119.222 Y114.042 E36.42345
G1 X116.961 Y115.184 E36.53234
G1 X114.500 Y115.568 E36.63943
G1 X100.500 Y115.568 E37.24137
G1 X97.999 Y115.171 E37.35026
G1 X95.744 Y114.017 E37.45916
G1 X93.958 Y112.222 E37.56805
G1 X92.816 Y109.961 E37.67695
G1 X92.432 Y107.500 E37.78404
G1 X92.432 Y102.500 E37.99901
G1 X92.829 Y99.999 E38.10791
G1 X93.983 Y97.744 E38.21680
G1 X95.736 Y96.000 E38.32312
G1 X96.278 Y96.239 F9000.000
G1 F1800
G1 X98.505 Y95.217 E38.42845
G1 X100.500 Y94.949 E38.51500
G1 X114.500 Y94.949 E39.11694
G1 X116.917 Y95.346 E39.22226
G1 X119.080 Y96.496 E39.32759
G1 X120.761 Y98.278 E39.43291
G1 X121.783 Y100.505 E39.53824
G1 X122.051 Y102.500 E39.62480
G1 X122.051 Y107.500 E39.83977
G1 X121.654 Y109.917 E39.94510
G1 X120.504 Y112.080 E40.05043
G1 X118.722 Y113.761 E40.15575
G1 X116.495 Y114.783 E40.26108
G1 X114.500 Y115.051 E40.34763
G1 X100.500 Y115.051 E40.94957
G1 X98.083 Y114.654 E41.05489
G1 X95.920 Y113.504 E41.16022
G1 X94.239 Y111.722 E41.26554
G1 X93.217 Y109.495 E41.37087
G1 X92.949 Y107.500 E41.45743
G1 X92.949 Y102.500 E41.67240
G1 X93.346 Y100.083 E41.77773
G1 X94.496 Y97.920 E41.88306
G1 X96.235 Y96.280 E41.98580
G1 X96.776 Y96.532 F9000.000
G1 F1800
G1 X98.963 Y95.636 E42.08743
G1 X100.500 Y95.466 E42.15390
G1 X114.500 Y95.466 E42.75584
G1 X116.830 Y95.863 E42.85747
G1 X118.897 Y97.010 E42.95910
G1 X120.468 Y98.776 E43.06073
G1 X121.364 Y100.963 E43.16236
G1 X121.534 Y102.500 E43.22883
G1 X121.534 Y107.500 E43.44381
G1 X121.137 Y109.830 E43.54544
G1 X119.990 Y111.897 E43.64707
G1 X118.224 Y113.468 E43.74870
G1 X116.037 Y114.364 E43.85033
G1 X114.500 Y114.534 E43.91680
G1 X100.500 Y114.534 E44.51874
G1 X98.170 Y114.137 E44.62037
G1 X96.103 Y112.990 E44.72200
G1 X94.532 Y111.224 E44.82363
G1 X93.636 Y109.037 E44.92526
G1 X93.466 Y107.500 E44.99173
G1 X93.466 Y102.500 E45.20671
G1 X93.863 Y100.170 E45.30834
G1 X95.010 Y98.103 E45.40997
G1 X96.731 Y96.572 E45.50902
G1 X97.271 Y96.839 F9000.000
G1 F1800
G1 X100.500 Y95.983 E45.65264
G1 X114.500 Y95.983 E46.25458
G1 X116.740 Y96.380 E46.35238
G1 X118.707 Y97.522 E46.45017
G1 X120.161 Y99.271 E46.54797
G1 X121.017 Y102.500 E46.69159
G1 X121.017 Y107.500 E46.90657
G1 X120.620 Y109.740 E47.00436
G1 X119.478 Y111.707 E47.10216
G1 X117.729 Y113.161 E47.19996
G1 X114.500 Y114.017 E47.34358
G1 X100.500 Y114.017 E47.94552
G1 X98.260 Y113.620 E48.04331
G1 X96.293 Y112.478 E48.14111
G1 X94.839 Y110.729 E48.23890
G1 X93.983 Y107.500 E48.38253
G1 X93.983 Y102.500 E48.59751
G1 X94.380 Y100.260 E48.69530
G1 X95.522 Y98.293 E48.79310
G1 X97.225 Y96.877 E48.88831
G1 E44.88831 F2400.00000
G92 E0
G1 X113.306 Y106.306 F9000.000
G1 E4.00000 F2400.00000
G1 F1800
G1 X110.459 Y106.306 E4.12240
G1 X110.270 Y105.901 E4.14162
G1 X109.950 Y105.444 E4.16559
G1 X109.556 Y105.050 E4.18956
G1 X109.099 Y104.730 E4.21354
G1 X108.594 Y104.494 E4.23751
G1 X108.055 Y104.350 E4.26148
G1 X107.500 Y104.301 E4.28546
G1 X106.945 Y104.350 E4.30943
G1 X106.406 Y104.494 E4.33340
G1 X105.901 Y104.730 E4.35738
G1 X105.444 Y105.050 E4.38135
G1 X105.050 Y105.444 E4.40532
G1 X104.730 Y105.901 E4.42930
G1 X104.541 Y106.306 E4.44852
G1 X101.694 Y106.306 E4.57091
G1 X101.694 Y103.694 E4.68320
G1 X113.306 Y103.694 E5.18245
G1 X113.306 Y106.246 E5.29216
G1 X113.823 Y106.823 F9000.000
G1 F1800
G1 X110.082 Y106.823 E5.45300
G1 X110.018 Y106.583 E5.46365
G1 X109.821 Y106.160 E5.48374
G1 X109.553 Y105.778 E5.50382
G1 X109.222 Y105.447 E5.52390
G1 X108.840 Y105.179 E5.54399
G1 X108.416 Y104.982 E5.56407
G1 X107.965 Y104.861 E5.58415
G1 X107.500 Y104.820 E5.60423
G1 X107.035 Y104.861 E5.62432
G1 X106.584 Y104.982 E5.64440
G1 X106.160 Y105.179 E5.66448
G1 X105.778 Y105.447 E5.68457
G1 X105.447 Y105.778 E5.70465
G1 X105.179 Y106.160 E5.72473
G1 X104.982 Y106.584 E5.74482
G1 X104.918 Y106.823 E5.75547
G1 X101.177 Y106.823 E5.91631
G1 X101.177 Y103.177 E6.07306
G1 X113.823 Y103.177 E6.61677
G1 X113.823 Y106.763 E6.77095
G1 X114.280 Y107.280 F9000.000
G1 F1800
G1 X109.702 Y107.280 E6.92211
G1 X109.687 Y107.114 E6.92760
G1 X109.587 Y106.740 E6.94039
G1 X109.423 Y106.390 E6.95317
G1 X109.201 Y106.072 E6.96595
G1 X108.928 Y105.799 E6.97873
G1 X108.610 Y105.577 E6.99151
G1 X108.260 Y105.413 E7.00429
G1 X107.886 Y105.313 E7.01708
G1 X107.500 Y105.279 E7.02986
G1 X107.114 Y105.313 E7.04264
G1 X106.740 Y105.413 E7.05542
G1 X106.390 Y105.577 E7.06820
G1 X106.072 Y105.799 E7.08098
G1 X105.799 Y106.072 E7.09376
G1 X105.577 Y106.390 E7.10655
G1 X105.413 Y106.740 E7.11933
G1 X105.313 Y107.114 E7.13211
G1 X105.298 Y107.280 E7.13760
G1 X100.720 Y107.280 E7.28877
G1 X100.720 Y102.720 E7.43933
G1 X114.280 Y102.720 E7.88704
G1 X114.280 Y107.220 E8.03562
G1 X113.882 Y107.237 F9000.000
G1 X112.734 Y105.844 F9000.000
G1 F1800
G1 X112.844 Y105.734 E8.04243
G1 X112.844 Y104.988 E8.07513
G1 X111.988 Y105.844 E8.12818
G1 X111.242 Y105.844 E8.16088
G1 X112.844 Y104.242 E8.26018
G1 X112.844 Y104.156 E8.26395
G1 X112.184 Y104.156 E8.29288
G1 X110.656 Y105.684 E8.38760
G1 X110.349 Y105.245 E8.41108
G1 X111.438 Y104.156 E8.47860
G1 X110.692 Y104.156 E8.51129
G1 X109.988 Y104.860 E8.55495
G1 X109.767 Y104.659 E8.56805
G1 X109.837 Y104.266 E8.58556
G1 X109.947 Y104.156 E8.59237
G1 X109.365 Y104.218 F9000.000
G1 F1800
G1 X108.421 Y104.064 E8.61380
G1 F1800
G1 X108.119 Y104.025 E8.61837
G1 F1800
G1 X107.504 Y103.997 E8.62354
G1 F1800
G1 X107.195 Y104.010 E8.62474
G1 F1800
G1 X106.730 Y104.045 E8.62857
G1 F1800
G1 X106.429 Y104.084 E8.63313
G1 F1800
G1 X105.635 Y104.218 E8.65053
G1 X104.266 Y105.734 F9000.000
G1 F1800
G1 X104.156 Y105.844 E8.65853
G1 X103.279 Y105.844 F9000.000
G1 F1800
G1 X104.966 Y104.156 E8.78164
G1 X104.089 Y104.156 E8.82692
G1 X102.401 Y105.844 E8.95003
G1 X102.156 Y105.844 E8.96267
G1 X102.156 Y105.211 E8.99530
G1 X103.211 Y104.156 E9.07227
G1 X102.334 Y104.156 E9.11755
G1 X102.156 Y104.334 E9.13048
G1 X102.156 Y104.266 E9.13397
G1 X102.224 Y104.266 E9.13746
M106 S255
M104 S220 ; set temperature
G1 Z0.400 F9000.000
G1 X113.306 Y106.306 F9000.000
G1 F852.928
G1 X110.459 Y106.306 E9.25986
G1 X110.270 Y105.901 E9.27908
G1 X109.950 Y105.444 E9.30305
G1 X109.556 Y105.050 E9.32703
G1 X109.099 Y104.730 E9.35100
G1 X108.618 Y104.506 E9.37382
G1 X108.061 Y104.350 E9.39868
G1 X107.500 Y104.301 E9.42291
G1 X106.945 Y104.350 E9.44688
G1 X106.406 Y104.494 E9.47085
G1 X105.901 Y104.730 E9.49483
G1 X105.444 Y105.050 E9.51880
G1 X105.050 Y105.444 E9.54277
G1 X104.730 Y105.901 E9.56675
G1 X104.541 Y106.306 E9.58597
G1 X101.694 Y106.306 E9.70836
G1 X101.694 Y103.694 E9.82066
G1 X113.306 Y103.694 E10.31990
G1 X113.306 Y106.246 E10.42961
G1 X113.823 Y106.823 F9000.000
G1 F852.928
G1 X110.082 Y106.823 E10.59045
G1 X110.018 Y106.583 E10.60110
G1 X109.821 Y106.160 E10.62119
G1 X109.553 Y105.778 E10.64127
G1 X109.222 Y105.447 E10.66135
G1 X108.840 Y105.179 E10.68144
G1 X108.438 Y104.992 E10.70048
G1 X107.969 Y104.861 E10.72145
G1 X107.500 Y104.820 E10.74167
G1 X107.035 Y104.861 E10.76176
G1 X106.583 Y104.982 E10.78184
G1 X106.160 Y105.179 E10.80192
G1 X105.778 Y105.447 E10.82200
G1 X105.447 Y105.778 E10.84209
G1 X105.179 Y106.160 E10.86217
G1 X104.992 Y106.561 E10.88121
G1 X104.919 Y106.823 E10.89288
G1 X101.177 Y106.823 E11.05378
G1 X101.177 Y103.177 E11.21053
G1 X113.823 Y103.177 E11.75425
G1 X113.823 Y106.763 E11.90842
G1 X114.280 Y107.280 F9000.000
G1 F1500
G1 X109.702 Y107.280 E12.05959
G1 X109.687 Y107.114 E12.06508
G1 X109.587 Y106.740 E12.07786
G1 X109.423 Y106.390 E12.09064
G1 X109.201 Y106.072 E12.10342
G1 X108.928 Y105.799 E12.11620
G1 X108.610 Y105.577 E12.12899
G1 X108.280 Y105.422 E12.14104
G1 X107.887 Y105.313 E12.15450
G1 X107.500 Y105.279 E12.16732
G1 X107.114 Y105.313 E12.18010
G1 X106.740 Y105.413 E12.19288
G1 X106.390 Y105.577 E12.20566
G1 X106.072 Y105.799 E12.21845
G1 X105.799 Y106.072 E12.23123
G1 X105.577 Y106.390 E12.24401
G1 X105.422 Y106.720 E12.25606
G1 X105.313 Y107.113 E12.26953
G1 X105.298 Y107.280 E12.27505
G1 X100.720 Y107.280 E12.42622
G1 X100.720 Y102.720 E12.57678
G1 X114.280 Y102.720 E13.02449
G1 X114.280 Y107.220 E13.17307
G1 X113.882 Y107.237 F9000.000
G1 X112.844 Y104.266 F9000.000
G1 F2047.03
G1 X112.734 Y104.156 E13.18109
G1 X111.856 Y104.156 E13.22636
G1 X112.844 Y105.144 E13.29840
G1 X112.844 Y105.844 E13.33451
G1 X112.666 Y105.844 E13.34368
G1 X110.979 Y104.156 E13.46679
G1 X110.101 Y104.156 E13.51206
G1 X111.789 Y105.844 E13.63518
G1 X110.911 Y105.844 E13.68045
G1 X110.675 Y105.607 E13.69771
G1 X109.365 Y104.220 F9000.000
G1 F852.928
G1 X108.595 Y104.089 E13.71600
G1 F852.928
G1 X108.283 Y104.046 E13.72201
G1 F852.928
G1 X107.809 Y104.011 E13.72773
G1 F852.928
G1 X107.496 Y103.997 E13.72963
G1 X106.881 Y104.025 E13.73336
G1 F852.928
G1 X106.579 Y104.064 E13.73692
G1 F852.928
G1 X105.635 Y104.218 E13.75444
G1 X105.163 Y104.266 F9000.000
G1 F2047.03
G1 X105.053 Y104.156 E13.76126
G1 X104.308 Y104.156 E13.79396
G1 X105.012 Y104.860 E13.83761
G1 X104.707 Y105.165 E13.85651
G1 X104.651 Y105.245 E13.86080
G1 X103.562 Y104.156 E13.92832
G1 X102.816 Y104.156 E13.96102
