; generated by Slic3r 1.3.0-dev on 2018-05-13 at 10:23:14

; external perimeters extrusion width = 0.44mm (2.38mm^3/s)
; perimeters extrusion width = 0.56mm (3.62mm^3/s)
; infill extrusion width = 0.50mm (5.48mm^3/s)
; solid infill extrusion width = 0.56mm (6.20mm^3/s)
; top infill extrusion width = 0.56mm (5.17mm^3/s)

M107
M104 S210 ; set temperature
; -- START GCODE --
	G90                     ;set to absolute positioning
G28                     ;move to Home
G92 E0                  ;zero the extruded length
G1 F7200                ;set feedrate to travel_speed value
; -- end of START GCODE --
; Filament gcode

M109 S210 ; set temperature and wait for it to be reached
G21 ; set units to millimeters
G90 ; use absolute coordinates
M82 ; use absolute distances for extrusion
G92 E0
G1 Z0.200 F9000.000
G1 E-4.00000 F2400.00000
G92 E0
G1 X95.590 Y92.867 F9000.000
G1 E4.00000 F2400.00000
G1 F1800
G1 X96.133 Y92.353 E4.03212
G1 X96.662 Y91.900 E4.06209
G1 X97.376 Y91.337 E4.10115
G1 X98.148 Y90.802 E4.14155
G1 X98.709 Y90.444 E4.17015
G1 X99.386 Y90.059 E4.20364
G1 X100.119 Y89.682 E4.23909
G1 X100.683 Y89.425 E4.26573
G1 X101.595 Y89.056 E4.30804
G1 X102.029 Y88.903 E4.32782
G1 X103.019 Y88.599 E4.37236
G1 X103.526 Y88.468 E4.39485
G1 X104.427 Y88.278 E4.43445
G1 X105.101 Y88.166 E4.46382
G1 X106.259 Y88.043 E4.51390
G1 X107.298 Y87.999 E4.55861
G1 X108.296 Y88.014 E4.60154
G1 X109.144 Y88.078 E4.63808
G1 X109.899 Y88.166 E4.67079
G1 X110.573 Y88.278 E4.70016
G1 X111.477 Y88.469 E4.73986
G1 X111.981 Y88.599 E4.76225
G1 X112.971 Y88.903 E4.80680
G1 X113.403 Y89.055 E4.82649
G1 X114.317 Y89.425 E4.86888
G1 X114.883 Y89.682 E4.89559
G1 X115.614 Y90.059 E4.93097
G1 X116.293 Y90.445 E4.96456
G1 X117.187 Y91.028 E5.01043
G1 X118.023 Y91.646 E5.05514
G1 X118.867 Y92.353 E5.10247
G1 X119.410 Y92.867 E5.13460
G1 X120.009 Y93.483 E5.17155
G1 X120.396 Y93.921 E5.19669
G1 X121.038 Y94.715 E5.24058
G1 X121.290 Y95.055 E5.25877
G1 X121.870 Y95.913 E5.30332
G1 X122.160 Y96.385 E5.32713
G1 X122.589 Y97.165 E5.36540
G1 X122.908 Y97.807 E5.39624
G1 X123.199 Y98.473 E5.42749
G1 X123.517 Y99.288 E5.46507
G1 X123.815 Y100.215 E5.50695
G1 X123.985 Y100.827 E5.53425
G1 X124.162 Y101.616 E5.56905
G1 X124.305 Y102.403 E5.60343
G1 X124.389 Y103.042 E5.63114
G1 X124.473 Y103.992 E5.67214
G1 X124.494 Y104.482 E5.69322
G1 X124.494 Y105.518 E5.73776
G1 X124.473 Y106.008 E5.75884
G1 X124.337 Y107.359 E5.81721
G1 X124.162 Y108.384 E5.86192
G1 X123.984 Y109.175 E5.89681
G1 X123.815 Y109.785 E5.92401
G1 X123.517 Y110.711 E5.96582
G1 X123.199 Y111.527 E6.00348
G1 X122.908 Y112.193 E6.03473
G1 X122.589 Y112.835 E6.06557
G1 X122.159 Y113.616 E6.10388
G1 X121.870 Y114.087 E6.12765
G1 X121.290 Y114.945 E6.17220
G1 X121.038 Y115.285 E6.19039
G1 X120.129 Y116.383 E6.25164
G1 X119.410 Y117.133 E6.29635
G1 X118.869 Y117.645 E6.32838
G1 X118.338 Y118.100 E6.35845
G1 X117.622 Y118.664 E6.39761
G1 X116.852 Y119.198 E6.43791
G1 X116.293 Y119.555 E6.46641
G1 X115.614 Y119.941 E6.50000
G1 X114.880 Y120.319 E6.53550
G1 X114.317 Y120.575 E6.56209
G1 X113.401 Y120.946 E6.60460
G1 X112.971 Y121.097 E6.62417
G1 X111.981 Y121.401 E6.66872
G1 X111.477 Y121.531 E6.69108
G1 X110.573 Y121.722 E6.73080
G1 X109.899 Y121.834 E6.76017
G1 X108.741 Y121.957 E6.81026
G1 X107.702 Y122.001 E6.85497
G1 X106.698 Y121.986 E6.89815
G1 X105.856 Y121.922 E6.93443
G1 X105.103 Y121.834 E6.96703
G1 X104.427 Y121.722 E6.99652
G1 X103.526 Y121.532 E7.03611
G1 X103.019 Y121.401 E7.05861
G1 X102.029 Y121.097 E7.10315
G1 X101.599 Y120.946 E7.12272
G1 X100.683 Y120.575 E7.16523
G1 X100.120 Y120.319 E7.19182
G1 X99.386 Y119.941 E7.22732
G1 X98.709 Y119.556 E7.26082
G1 X97.813 Y118.972 E7.30678
G1 X96.977 Y118.354 E7.35149
G1 X96.128 Y117.642 E7.39912
G1 X95.590 Y117.133 E7.43095
G1 X94.991 Y116.517 E7.46790
G1 X94.604 Y116.079 E7.49304
G1 X93.962 Y115.286 E7.53691
G1 X93.710 Y114.945 E7.55513
G1 X93.130 Y114.087 E7.59967
G1 X92.841 Y113.616 E7.62344
G1 X92.411 Y112.835 E7.66176
G1 X92.092 Y112.193 E7.69259
G1 X91.801 Y111.527 E7.72385
G1 X91.483 Y110.711 E7.76150
G1 X91.185 Y109.785 E7.80331
G1 X91.016 Y109.175 E7.83051
G1 X90.838 Y108.384 E7.86540
G1 X90.695 Y107.597 E7.89979
G1 X90.611 Y106.958 E7.92749
G1 X90.527 Y106.011 E7.96836
G1 X90.506 Y105.518 E7.98958
G1 X90.506 Y104.482 E8.03412
G1 X90.527 Y103.989 E8.05533
G1 X90.611 Y103.042 E8.09620
G1 X90.696 Y102.399 E8.12408
G1 X90.838 Y101.616 E8.15829
G1 X91.017 Y100.820 E8.19339
G1 X91.304 Y99.829 E8.23775
G1 X91.650 Y98.848 E8.28246
G1 X92.092 Y97.807 E8.33109
G1 X92.411 Y97.165 E8.36192
G1 X92.840 Y96.385 E8.40019
G1 X93.130 Y95.913 E8.42401
G1 X93.710 Y95.055 E8.46855
G1 X93.962 Y94.714 E8.48677
G1 X94.604 Y93.921 E8.53064
G1 X94.991 Y93.483 E8.55578
G1 X95.548 Y92.910 E8.59015
G1 X95.948 Y93.240 F9000.000
G1 F1800
G1 X96.480 Y92.736 E8.62165
G1 X96.987 Y92.302 E8.65035
G1 X97.684 Y91.753 E8.68850
G1 X98.437 Y91.230 E8.72792
G1 X98.978 Y90.886 E8.75548
G1 X99.638 Y90.511 E8.78813
G1 X100.340 Y90.149 E8.82208
G1 X100.896 Y89.896 E8.84833
G1 X101.769 Y89.543 E8.88884
G1 X102.201 Y89.390 E8.90853
G1 X103.149 Y89.100 E8.95118
G1 X103.651 Y88.970 E8.97347
G1 X104.514 Y88.788 E9.01138
G1 X105.176 Y88.677 E9.04025
G1 X106.303 Y88.559 E9.08895
G1 X107.298 Y88.516 E9.13178
G1 X108.271 Y88.530 E9.17362
G1 X109.100 Y88.593 E9.20935
G1 X109.824 Y88.677 E9.24068
G1 X110.486 Y88.788 E9.26955
G1 X111.351 Y88.970 E9.30756
G1 X111.851 Y89.100 E9.32975
G1 X112.799 Y89.390 E9.37241
G1 X113.229 Y89.542 E9.39201
G1 X114.104 Y89.896 E9.43260
G1 X114.661 Y90.150 E9.45893
G1 X115.362 Y90.511 E9.49281
G1 X116.027 Y90.889 E9.52571
G1 X116.898 Y91.456 E9.57038
G1 X117.698 Y92.048 E9.61320
G1 X118.520 Y92.736 E9.65927
G1 X119.052 Y93.240 E9.69078
G1 X119.626 Y93.830 E9.72616
G1 X120.008 Y94.262 E9.75098
G1 X120.623 Y95.023 E9.79301
G1 X120.874 Y95.362 E9.81117
G1 X121.430 Y96.184 E9.85383
G1 X121.716 Y96.651 E9.87738
G1 X122.127 Y97.398 E9.91403
G1 X122.441 Y98.028 E9.94430
G1 X122.719 Y98.666 E9.97423
G1 X123.030 Y99.462 E10.01096
G1 X123.320 Y100.366 E10.05181
G1 X123.483 Y100.952 E10.07795
G1 X123.656 Y101.725 E10.11201
G1 X123.793 Y102.479 E10.14495
G1 X123.876 Y103.108 E10.17221
G1 X123.956 Y104.018 E10.21148
G1 X123.977 Y104.504 E10.23241
G1 X123.977 Y105.496 E10.27507
G1 X123.956 Y105.982 E10.29599
G1 X123.825 Y107.293 E10.35263
G1 X123.656 Y108.275 E10.39545
G1 X123.483 Y109.050 E10.42960
G1 X123.320 Y109.633 E10.45566
G1 X123.031 Y110.536 E10.49642
G1 X122.719 Y111.334 E10.53323
G1 X122.441 Y111.972 E10.56316
G1 X122.127 Y112.602 E10.59343
G1 X121.715 Y113.350 E10.63013
G1 X121.430 Y113.816 E10.65363
G1 X120.874 Y114.638 E10.69629
G1 X120.623 Y114.977 E10.71445
G1 X119.741 Y116.041 E10.77385
G1 X119.052 Y116.760 E10.81667
G1 X118.521 Y117.262 E10.84808
G1 X118.013 Y117.698 E10.87688
G1 X117.314 Y118.249 E10.91512
G1 X116.563 Y118.770 E10.95445
G1 X116.024 Y119.113 E10.98191
G1 X115.362 Y119.489 E11.01465
G1 X114.659 Y119.851 E11.04865
G1 X114.104 Y120.104 E11.07485
G1 X113.226 Y120.459 E11.11557
G1 X112.799 Y120.610 E11.13505
G1 X111.851 Y120.900 E11.17771
G1 X111.352 Y121.030 E11.19987
G1 X110.486 Y121.212 E11.23791
G1 X109.824 Y121.323 E11.26678
G1 X108.697 Y121.441 E11.31548
G1 X107.702 Y121.484 E11.35830
G1 X106.723 Y121.469 E11.40039
G1 X105.900 Y121.407 E11.43587
G1 X105.179 Y121.323 E11.46710
G1 X104.514 Y121.212 E11.49608
G1 X103.651 Y121.030 E11.53399
G1 X103.149 Y120.900 E11.55628
G1 X102.201 Y120.610 E11.59893
G1 X101.774 Y120.459 E11.61842
G1 X100.896 Y120.104 E11.65913
G1 X100.341 Y119.851 E11.68533
G1 X99.638 Y119.489 E11.71933
G1 X98.974 Y119.112 E11.75215
G1 X98.102 Y118.544 E11.79690
G1 X97.302 Y117.952 E11.83973
G1 X96.475 Y117.259 E11.88607
G1 X95.948 Y116.760 E11.91730
G1 X95.374 Y116.170 E11.95268
G1 X94.992 Y115.738 E11.97750
G1 X94.378 Y114.978 E12.01951
G1 X94.126 Y114.638 E12.03770
G1 X93.570 Y113.816 E12.08035
G1 X93.285 Y113.350 E12.10386
G1 X92.873 Y112.602 E12.14055
G1 X92.559 Y111.972 E12.17082
G1 X92.281 Y111.334 E12.20076
G1 X91.969 Y110.536 E12.23756
G1 X91.680 Y109.633 E12.27833
G1 X91.517 Y109.050 E12.30439
G1 X91.344 Y108.275 E12.33853
G1 X91.207 Y107.521 E12.37147
G1 X91.124 Y106.892 E12.39874
G1 X91.044 Y105.985 E12.43788
G1 X91.023 Y105.496 E12.45894
G1 X91.023 Y104.504 E12.50159
G1 X91.044 Y104.015 E12.52265
G1 X91.124 Y103.108 E12.56179
G1 X91.207 Y102.475 E12.58922
G1 X91.344 Y101.725 E12.62199
G1 X91.519 Y100.946 E12.65634
G1 X91.798 Y99.980 E12.69956
G1 X92.130 Y99.041 E12.74239
G1 X92.559 Y98.028 E12.78969
G1 X92.873 Y97.398 E12.81996
G1 X93.284 Y96.651 E12.85661
G1 X93.570 Y96.184 E12.88016
G1 X94.126 Y95.362 E12.92282
G1 X94.378 Y95.022 E12.94101
G1 X94.992 Y94.262 E12.98301
G1 X95.374 Y93.830 E13.00783
G1 X95.906 Y93.283 E13.04063
G1 X96.306 Y93.613 F9000.000
G1 F1800
G1 X96.827 Y93.119 E13.07152
G1 X97.626 Y92.451 E13.11632
G1 X98.392 Y91.885 E13.15726
G1 X99.240 Y91.331 E13.20080
G1 X99.890 Y90.962 E13.23294
G1 X100.561 Y90.617 E13.26539
G1 X101.109 Y90.367 E13.29126
G1 X101.944 Y90.030 E13.32998
G1 X102.373 Y89.878 E13.34957
G1 X103.280 Y89.600 E13.39033
G1 X103.777 Y89.471 E13.41241
G1 X104.601 Y89.297 E13.44865
G1 X105.252 Y89.189 E13.47702
G1 X105.944 Y89.108 E13.50696
G1 X106.754 Y89.047 E13.54190
G1 X107.702 Y89.033 E13.58265
G1 X108.653 Y89.074 E13.62359
G1 X109.748 Y89.189 E13.67090
G1 X110.398 Y89.297 E13.69927
G1 X111.225 Y89.472 E13.73560
G1 X111.720 Y89.600 E13.75758
G1 X112.627 Y89.878 E13.79835
G1 X113.055 Y90.029 E13.81786
G1 X113.891 Y90.367 E13.85666
G1 X114.440 Y90.617 E13.88259
G1 X115.110 Y90.962 E13.91497
G1 X115.758 Y91.330 E13.94703
G1 X116.273 Y91.658 E13.97329
G1 X117.009 Y92.168 E14.01177
G1 X117.688 Y92.705 E14.04897
G1 X118.173 Y93.119 E14.07640
G1 X118.694 Y93.613 E14.10729
G1 X119.353 Y94.301 E14.14823
G1 X120.207 Y95.331 E14.20576
G1 X120.989 Y96.455 E14.26466
G1 X121.272 Y96.917 E14.28794
G1 X121.665 Y97.631 E14.32297
G1 X121.973 Y98.249 E14.35268
G1 X122.240 Y98.859 E14.38129
G1 X122.543 Y99.636 E14.41716
G1 X122.826 Y100.518 E14.45697
G1 X122.982 Y101.078 E14.48197
G1 X123.151 Y101.834 E14.51529
G1 X123.281 Y102.551 E14.54661
G1 X123.363 Y103.174 E14.57360
G1 X123.440 Y104.043 E14.61114
G1 X123.461 Y104.526 E14.63191
G1 X123.461 Y105.474 E14.67268
G1 X123.440 Y105.957 E14.69346
G1 X123.312 Y107.227 E14.74836
G1 X123.151 Y108.166 E14.78929
G1 X122.981 Y108.924 E14.82270
G1 X122.826 Y109.482 E14.84761
G1 X122.544 Y110.362 E14.88734
G1 X122.240 Y111.141 E14.92330
G1 X121.973 Y111.751 E14.95191
G1 X121.666 Y112.369 E14.98161
G1 X121.272 Y113.084 E15.01668
G1 X120.989 Y113.545 E15.03993
G1 X120.207 Y114.669 E15.09882
G1 X119.353 Y115.699 E15.15635
G1 X118.694 Y116.387 E15.19729
G1 X118.174 Y116.879 E15.22809
G1 X117.688 Y117.295 E15.25561
G1 X117.006 Y117.833 E15.29294
G1 X116.273 Y118.342 E15.33129
G1 X115.758 Y118.670 E15.35755
G1 X115.110 Y119.038 E15.38961
G1 X114.438 Y119.384 E15.42210
G1 X113.891 Y119.633 E15.44792
G1 X113.052 Y119.972 E15.48683
G1 X112.627 Y120.122 E15.50623
G1 X111.720 Y120.400 E15.54700
G1 X111.226 Y120.528 E15.56896
G1 X110.399 Y120.703 E15.60532
G1 X109.748 Y120.811 E15.63369
G1 X108.653 Y120.926 E15.68100
G1 X107.702 Y120.967 E15.72193
G1 X106.749 Y120.953 E15.76293
G1 X105.944 Y120.892 E15.79762
G1 X105.255 Y120.811 E15.82746
G1 X104.601 Y120.702 E15.85594
G1 X103.777 Y120.529 E15.89218
G1 X103.280 Y120.400 E15.91425
G1 X102.373 Y120.122 E15.95502
G1 X101.948 Y119.972 E15.97442
G1 X101.109 Y119.633 E16.01333
G1 X100.562 Y119.384 E16.03914
G1 X99.890 Y119.038 E16.07164
G1 X99.240 Y118.669 E16.10378
G1 X98.392 Y118.115 E16.14733
G1 X97.626 Y117.549 E16.18826
G1 X96.823 Y116.877 E16.23332
G1 X96.306 Y116.387 E16.26395
G1 X95.647 Y115.699 E16.30488
G1 X94.793 Y114.670 E16.36239
G1 X94.011 Y113.545 E16.42131
G1 X93.728 Y113.084 E16.44456
G1 X93.334 Y112.369 E16.47963
G1 X93.027 Y111.751 E16.50933
G1 X92.760 Y111.141 E16.53794
G1 X92.456 Y110.362 E16.57389
G1 X92.174 Y109.482 E16.61363
G1 X92.019 Y108.924 E16.63854
G1 X91.849 Y108.166 E16.67194
G1 X91.719 Y107.449 E16.70326
G1 X91.637 Y106.826 E16.73026
G1 X91.560 Y105.960 E16.76767
G1 X91.539 Y105.474 E16.78857
G1 X91.539 Y104.526 E16.82934
G1 X91.560 Y104.040 E16.85024
G1 X91.637 Y103.174 E16.88765
G1 X91.719 Y102.551 E16.91465
G1 X91.849 Y101.834 E16.94597
G1 X92.020 Y101.072 E16.97957
G1 X92.292 Y100.132 E17.02165
G1 X92.610 Y99.234 E17.06259
G1 X93.027 Y98.249 E17.10856
G1 X93.334 Y97.631 E17.13827
G1 X93.728 Y96.917 E17.17330
G1 X94.011 Y96.455 E17.19658
G1 X94.793 Y95.330 E17.25550
G1 X95.380 Y94.604 E17.29565
G1 X95.757 Y94.177 E17.32015
G1 X96.264 Y93.656 E17.35139
G1 X96.663 Y93.987 F9000.000
G1 F1800
G1 X97.175 Y93.503 E17.38165
G1 X97.637 Y93.107 E17.40781
G1 X98.300 Y92.583 E17.44414
G1 X99.016 Y92.087 E17.48161
G1 X99.509 Y91.773 E17.50674
G1 X100.142 Y91.414 E17.53804
G1 X100.782 Y91.084 E17.56899
G1 X101.322 Y90.838 E17.59447
G1 X102.118 Y90.516 E17.63140
G1 X102.545 Y90.365 E17.65089
G1 X103.410 Y90.100 E17.68977
G1 X103.902 Y89.973 E17.71164
G1 X104.689 Y89.807 E17.74620
G1 X105.328 Y89.700 E17.77407
G1 X106.391 Y89.589 E17.81999
G1 X107.298 Y89.551 E17.85904
G1 X108.221 Y89.563 E17.89872
G1 X109.012 Y89.623 E17.93284
G1 X109.672 Y89.700 E17.96140
G1 X110.311 Y89.807 E17.98927
G1 X111.100 Y89.973 E18.02392
G1 X111.590 Y90.100 E18.04570
G1 X112.455 Y90.365 E18.08458
G1 X112.881 Y90.516 E18.10400
G1 X113.678 Y90.838 E18.14100
G1 X114.219 Y91.085 E18.16654
G1 X114.858 Y91.414 E18.19743
G1 X115.496 Y91.776 E18.22897
G1 X116.318 Y92.313 E18.27122
G1 X117.049 Y92.853 E18.31027
G1 X117.825 Y93.502 E18.35380
G1 X118.337 Y93.987 E18.38407
G1 X118.965 Y94.642 E18.42312
G1 X119.792 Y95.639 E18.47880
G1 X120.549 Y96.726 E18.53578
G1 X120.829 Y97.183 E18.55880
G1 X121.204 Y97.863 E18.59220
G1 X121.506 Y98.470 E18.62135
G1 X121.760 Y99.052 E18.64863
G1 X122.056 Y99.811 E18.68366
G1 X122.331 Y100.669 E18.72243
G1 X122.480 Y101.204 E18.74628
G1 X122.645 Y101.943 E18.77886
G1 X122.770 Y102.627 E18.80873
G1 X122.850 Y103.239 E18.83529
G1 X122.923 Y104.069 E18.87108
G1 X122.944 Y104.548 E18.89171
G1 X122.944 Y105.452 E18.93059
G1 X122.923 Y105.931 E18.95122
G1 X122.799 Y107.162 E19.00438
G1 X122.645 Y108.057 E19.04343
G1 X122.480 Y108.798 E19.07609
G1 X122.331 Y109.331 E19.09986
G1 X122.057 Y110.188 E19.13855
G1 X121.760 Y110.948 E19.17366
G1 X121.506 Y111.530 E19.20094
G1 X121.204 Y112.137 E19.23008
G1 X120.828 Y112.818 E19.26353
G1 X120.549 Y113.274 E19.28651
G1 X119.792 Y114.361 E19.34349
G1 X118.965 Y115.358 E19.39916
G1 X118.337 Y116.013 E19.43821
G1 X117.827 Y116.496 E19.46840
G1 X117.363 Y116.893 E19.49464
G1 X116.698 Y117.418 E19.53106
G1 X115.984 Y117.913 E19.56844
G1 X115.492 Y118.226 E19.59349
G1 X114.858 Y118.586 E19.62487
G1 X114.217 Y118.916 E19.65586
G1 X113.678 Y119.162 E19.68130
G1 X112.878 Y119.485 E19.71841
G1 X112.455 Y119.635 E19.73772
G1 X111.590 Y119.900 E19.77660
G1 X111.100 Y120.027 E19.79835
G1 X110.311 Y120.193 E19.83303
G1 X109.672 Y120.300 E19.86090
G1 X108.609 Y120.411 E19.90682
G1 X107.702 Y120.449 E19.94587
G1 X106.774 Y120.437 E19.98577
G1 X105.988 Y120.377 E20.01967
G1 X105.330 Y120.300 E20.04813
G1 X104.689 Y120.193 E20.07610
G1 X103.902 Y120.027 E20.11066
G1 X103.410 Y119.900 E20.13252
G1 X102.545 Y119.635 E20.17140
G1 X102.122 Y119.485 E20.19072
G1 X101.322 Y119.162 E20.22783
G1 X100.783 Y118.917 E20.25326
G1 X100.142 Y118.586 E20.28426
G1 X99.506 Y118.225 E20.31572
G1 X98.682 Y117.687 E20.35805
G1 X97.951 Y117.147 E20.39710
G1 X97.170 Y116.494 E20.44088
G1 X96.664 Y116.013 E20.47090
G1 X96.035 Y115.358 E20.50995
G1 X95.208 Y114.362 E20.56560
G1 X94.451 Y113.274 E20.62260
G1 X94.172 Y112.818 E20.64558
G1 X93.796 Y112.137 E20.67903
G1 X93.494 Y111.530 E20.70817
G1 X93.240 Y110.948 E20.73546
G1 X92.943 Y110.188 E20.77056
G1 X92.669 Y109.331 E20.80926
G1 X92.520 Y108.798 E20.83302
G1 X92.355 Y108.057 E20.86568
G1 X92.230 Y107.373 E20.89555
G1 X92.150 Y106.761 E20.92211
G1 X92.077 Y105.934 E20.95779
G1 X92.056 Y105.452 E20.97854
G1 X92.056 Y104.548 E21.01742
G1 X92.077 Y104.066 E21.03816
G1 X92.150 Y103.239 E21.07384
G1 X92.230 Y102.627 E21.10040
