; generated by Slic3r 1.3.0-dev on 2018-05-13 at 17:03:25

; external perimeters extrusion width = 0.44mm (2.38mm^3/s)
; perimeters extrusion width = 0.56mm (3.62mm^3/s)
; infill extrusion width = 0.50mm (5.48mm^3/s)
; solid infill extrusion width = 0.56mm (6.20mm^3/s)
; top infill extrusion width = 0.56mm (5.17mm^3/s)

M107
M104 S210 ; set temperature
; -- START GCODE --
	G90                     ;set to absolute positioning
G28                     ;move to Home
G92 E0                  ;zero the extruded length
G1 F7200                ;set feedrate to travel_speed value
; -- end of START GCODE --
; Filament gcode

M109 S210 ; set temperature and wait for it to be reached
G21 ; set units to millimeters
G90 ; use absolute coordinates
M82 ; use absolute distances for extrusion
G92 E0
G1 Z0.200 F9000.000
G1 E-4.00000 F2400.00000
G92 E0
G1 X95.133 Y93.480 F9000.000
G1 E4.00000 F2400.00000
G1 F1800
G1 X95.980 Y92.633 E4.05150
G1 X96.322 Y92.324 E4.07133
G1 X97.248 Y91.564 E4.12282
G1 X97.618 Y91.289 E4.14266
G1 X98.614 Y90.624 E4.19415
G1 X99.011 Y90.386 E4.21405
G1 X100.066 Y89.822 E4.26548
G1 X100.483 Y89.625 E4.28531
G1 X101.590 Y89.166 E4.33681
G1 X102.024 Y89.011 E4.35664
G1 X103.170 Y88.663 E4.40814
G1 X103.618 Y88.551 E4.42797
G1 X104.792 Y88.317 E4.47946
G1 X105.252 Y88.249 E4.49943
G1 X106.440 Y88.132 E4.55079
G1 X106.903 Y88.110 E4.57071
G1 X108.099 Y88.110 E4.62212
G1 X108.560 Y88.132 E4.64195
G1 X109.752 Y88.250 E4.69345
G1 X110.208 Y88.317 E4.71328
G1 X111.382 Y88.551 E4.76478
G1 X111.830 Y88.663 E4.78461
G1 X112.976 Y89.011 E4.83611
G1 X113.410 Y89.166 E4.85594
G1 X114.517 Y89.625 E4.90743
G1 X114.934 Y89.822 E4.92726
G1 X115.990 Y90.386 E4.97876
G1 X116.386 Y90.624 E4.99862
G1 X117.382 Y91.289 E5.05009
G1 X117.752 Y91.564 E5.06992
G1 X118.678 Y92.324 E5.12142
G1 X119.021 Y92.635 E5.14133
G1 X119.867 Y93.480 E5.19275
G1 X120.177 Y93.822 E5.21260
G1 X120.936 Y94.748 E5.26408
G1 X121.211 Y95.118 E5.28391
G1 X121.876 Y96.114 E5.33540
G1 X122.114 Y96.510 E5.35523
G1 X122.678 Y97.566 E5.40673
G1 X122.875 Y97.983 E5.42656
G1 X123.334 Y99.090 E5.47806
G1 X123.489 Y99.524 E5.49789
G1 X123.837 Y100.670 E5.54939
G1 X123.949 Y101.118 E5.56922
G1 X124.182 Y102.290 E5.62060
G1 X124.250 Y102.748 E5.64055
G1 X124.368 Y103.940 E5.69204
G1 X124.390 Y104.401 E5.71188
G1 X124.390 Y105.599 E5.76337
G1 X124.368 Y106.060 E5.78320
G1 X124.250 Y107.252 E5.83470
G1 X124.183 Y107.708 E5.85453
G1 X123.949 Y108.880 E5.90592
G1 X123.837 Y109.330 E5.92586
G1 X123.490 Y110.475 E5.97729
G1 X123.334 Y110.910 E5.99719
G1 X122.876 Y112.015 E6.04862
G1 X122.678 Y112.434 E6.06852
G1 X122.114 Y113.490 E6.12001
G1 X121.876 Y113.886 E6.13985
G1 X121.211 Y114.882 E6.19134
G1 X120.936 Y115.252 E6.21117
G1 X120.176 Y116.178 E6.26267
G1 X119.867 Y116.520 E6.28250
G1 X119.020 Y117.367 E6.33400
G1 X118.678 Y117.677 E6.35386
G1 X117.754 Y118.435 E6.40524
G1 X117.382 Y118.711 E6.42516
G1 X116.386 Y119.376 E6.47665
G1 X115.990 Y119.614 E6.49650
G1 X114.934 Y120.178 E6.54798
G1 X114.517 Y120.375 E6.56782
G1 X113.410 Y120.834 E6.61931
G1 X112.976 Y120.989 E6.63914
G1 X111.830 Y121.337 E6.69064
G1 X111.380 Y121.449 E6.71058
G1 X110.208 Y121.683 E6.76197
G1 X109.749 Y121.751 E6.78191
G1 X108.560 Y121.868 E6.83329
G1 X108.099 Y121.890 E6.85313
G1 X106.901 Y121.890 E6.90462
G1 X106.440 Y121.868 E6.92445
G1 X105.248 Y121.750 E6.97595
G1 X104.792 Y121.683 E6.99578
G1 X103.617 Y121.449 E7.04728
G1 X103.170 Y121.337 E7.06714
G1 X102.024 Y120.989 E7.11861
G1 X101.590 Y120.834 E7.13844
G1 X100.483 Y120.375 E7.18994
G1 X100.066 Y120.178 E7.20977
G1 X99.010 Y119.614 E7.26126
G1 X98.614 Y119.376 E7.28110
G1 X97.618 Y118.711 E7.33259
G1 X97.246 Y118.435 E7.35251
G1 X96.322 Y117.676 E7.40392
G1 X95.980 Y117.367 E7.42375
G1 X95.133 Y116.520 E7.47525
G1 X94.824 Y116.178 E7.49508
G1 X94.064 Y115.252 E7.54658
G1 X93.789 Y114.882 E7.56641
G1 X93.124 Y113.886 E7.61791
G1 X92.886 Y113.490 E7.63774
G1 X92.322 Y112.434 E7.68923
G1 X92.124 Y112.015 E7.70913
G1 X91.666 Y110.910 E7.76056
G1 X91.510 Y110.475 E7.78046
G1 X91.163 Y109.330 E7.83187
G1 X91.051 Y108.882 E7.85172
G1 X90.817 Y107.708 E7.90322
G1 X90.749 Y107.249 E7.92316
G1 X90.632 Y106.060 E7.97455
G1 X90.610 Y105.594 E7.99459
G1 X90.610 Y104.401 E8.04587
G1 X90.632 Y103.940 E8.06570
G1 X90.750 Y102.748 E8.11720
G1 X90.817 Y102.292 E8.13704
G1 X91.051 Y101.118 E8.18853
G1 X91.163 Y100.670 E8.20836
G1 X91.511 Y99.524 E8.25986
G1 X91.666 Y99.090 E8.27969
G1 X92.125 Y97.983 E8.33119
G1 X92.322 Y97.565 E8.35107
G1 X92.886 Y96.510 E8.40251
G1 X93.124 Y96.114 E8.42238
G1 X93.789 Y95.118 E8.47384
G1 X94.064 Y94.748 E8.49367
G1 X94.824 Y93.822 E8.54517
G1 X95.093 Y93.525 E8.56242
G1 X95.516 Y93.827 F9000.000
G1 F1800
G1 X96.327 Y93.016 E8.61174
G1 X96.669 Y92.707 E8.63157
G1 X97.556 Y91.979 E8.68089
G1 X97.926 Y91.704 E8.70072
G1 X98.880 Y91.067 E8.75003
G1 X99.277 Y90.829 E8.76992
G1 X100.287 Y90.289 E8.81918
G1 X100.704 Y90.092 E8.83901
G1 X101.764 Y89.653 E8.88832
G1 X102.198 Y89.498 E8.90816
G1 X103.296 Y89.165 E8.95747
G1 X103.743 Y89.053 E8.97730
G1 X104.868 Y88.829 E9.02662
G1 X105.327 Y88.761 E9.04657
G1 X106.466 Y88.649 E9.09576
G1 X106.928 Y88.626 E9.11568
G1 X108.073 Y88.626 E9.16491
G1 X108.534 Y88.649 E9.18474
G1 X109.676 Y88.761 E9.23406
G1 X110.132 Y88.829 E9.25389
G1 X111.257 Y89.053 E9.30320
G1 X111.704 Y89.165 E9.32303
G1 X112.802 Y89.498 E9.37235
G1 X113.236 Y89.653 E9.39218
G1 X114.296 Y90.092 E9.44150
G1 X114.713 Y90.289 E9.46133
G1 X115.724 Y90.830 E9.51064
G1 X116.121 Y91.067 E9.53050
G1 X117.074 Y91.704 E9.57979
G1 X117.444 Y91.979 E9.59962
G1 X118.331 Y92.707 E9.64893
G1 X118.674 Y93.018 E9.66885
G1 X119.484 Y93.827 E9.71808
G1 X119.794 Y94.170 E9.73793
G1 X120.521 Y95.056 E9.78723
G1 X120.796 Y95.426 E9.80706
G1 X121.433 Y96.380 E9.85637
G1 X121.670 Y96.776 E9.87621
G1 X122.211 Y97.787 E9.92552
G1 X122.408 Y98.204 E9.94535
G1 X122.847 Y99.264 E9.99467
G1 X123.002 Y99.698 E10.01450
G1 X123.335 Y100.796 E10.06381
G1 X123.447 Y101.243 E10.08365
G1 X123.671 Y102.365 E10.13285
G1 X123.739 Y102.824 E10.15279
G1 X123.851 Y103.966 E10.20211
G1 X123.874 Y104.426 E10.22194
G1 X123.874 Y105.574 E10.27125
G1 X123.851 Y106.034 E10.29108
G1 X123.739 Y107.176 E10.34040
G1 X123.671 Y107.632 E10.36023
G1 X123.448 Y108.755 E10.40944
G1 X123.335 Y109.204 E10.42938
G1 X123.003 Y110.300 E10.47863
G1 X122.847 Y110.736 E10.49852
G1 X122.409 Y111.794 E10.54777
G1 X122.211 Y112.213 E10.56767
G1 X121.670 Y113.224 E10.61699
G1 X121.433 Y113.620 E10.63682
G1 X120.796 Y114.574 E10.68613
G1 X120.521 Y114.944 E10.70596
G1 X119.793 Y115.831 E10.75528
G1 X119.484 Y116.172 E10.77511
G1 X118.672 Y116.984 E10.82442
G1 X118.330 Y117.294 E10.84428
G1 X117.446 Y118.020 E10.89349
G1 X117.074 Y118.296 E10.91340
G1 X116.120 Y118.933 E10.96272
G1 X115.724 Y119.170 E10.98256
G1 X114.713 Y119.711 E11.03186
G1 X114.296 Y119.908 E11.05170
G1 X113.236 Y120.347 E11.10101
G1 X112.802 Y120.502 E11.12084
G1 X111.704 Y120.835 E11.17016
G1 X111.255 Y120.948 E11.19009
G1 X110.132 Y121.171 E11.23930
G1 X109.673 Y121.239 E11.25924
G1 X108.534 Y121.351 E11.30845
G1 X108.074 Y121.374 E11.32828
G1 X106.926 Y121.374 E11.37760
G1 X106.466 Y121.351 E11.39743
G1 X105.324 Y121.239 E11.44674
G1 X104.868 Y121.171 E11.46657
G1 X103.743 Y120.947 E11.51589
G1 X103.295 Y120.835 E11.53574
G1 X102.198 Y120.502 E11.58504
G1 X101.764 Y120.347 E11.60487
G1 X100.704 Y119.908 E11.65418
G1 X100.287 Y119.711 E11.67401
G1 X99.276 Y119.170 E11.72333
G1 X98.880 Y118.933 E11.74316
G1 X97.926 Y118.296 E11.79247
G1 X97.554 Y118.020 E11.81239
G1 X96.669 Y117.293 E11.86162
G1 X96.327 Y116.984 E11.88145
G1 X95.516 Y116.173 E11.93077
G1 X95.207 Y115.831 E11.95060
G1 X94.479 Y114.944 E11.99991
G1 X94.204 Y114.574 E12.01974
G1 X93.567 Y113.620 E12.06906
G1 X93.330 Y113.224 E12.08889
G1 X92.789 Y112.213 E12.13821
G1 X92.591 Y111.794 E12.15810
G1 X92.153 Y110.736 E12.20735
G1 X91.997 Y110.300 E12.22725
G1 X91.665 Y109.205 E12.27648
G1 X91.553 Y108.757 E12.29633
G1 X91.329 Y107.632 E12.34564
G1 X91.261 Y107.173 E12.36558
G1 X91.149 Y106.034 E12.41479
G1 X91.126 Y105.569 E12.43483
G1 X91.126 Y104.427 E12.48394
G1 X91.149 Y103.966 E12.50377
G1 X91.261 Y102.824 E12.55309
G1 X91.329 Y102.368 E12.57292
G1 X91.553 Y101.243 E12.62223
G1 X91.665 Y100.796 E12.64206
G1 X91.998 Y99.698 E12.69138
G1 X92.153 Y99.264 E12.71121
G1 X92.592 Y98.204 E12.76052
G1 X92.790 Y97.786 E12.78040
G1 X93.330 Y96.776 E12.82967
G1 X93.567 Y96.379 E12.84953
G1 X94.204 Y95.426 E12.89882
G1 X94.479 Y95.056 E12.91865
G1 X95.207 Y94.169 E12.96797
G1 X95.476 Y93.872 E12.98522
G1 X95.900 Y94.175 F9000.000
G1 F1800
G1 X96.675 Y93.400 E13.03235
G1 X97.016 Y93.090 E13.05218
G1 X97.864 Y92.394 E13.09931
G1 X98.234 Y92.120 E13.11914
G1 X99.146 Y91.511 E13.16628
G1 X99.543 Y91.273 E13.18617
G1 X100.508 Y90.757 E13.23324
G1 X100.925 Y90.559 E13.25307
G1 X101.938 Y90.140 E13.30021
G1 X102.372 Y89.985 E13.32004
G1 X103.421 Y89.666 E13.36717
G1 X103.869 Y89.554 E13.38700
G1 X104.944 Y89.340 E13.43414
G1 X105.403 Y89.272 E13.45409
G1 X106.491 Y89.165 E13.50110
G1 X106.954 Y89.143 E13.52101
G1 X108.048 Y89.143 E13.56807
G1 X108.509 Y89.165 E13.58790
G1 X109.600 Y89.273 E13.63503
G1 X110.056 Y89.340 E13.65487
G1 X111.131 Y89.554 E13.70200
G1 X111.579 Y89.666 E13.72183
G1 X112.628 Y89.985 E13.76896
G1 X113.062 Y90.140 E13.78879
G1 X114.075 Y90.559 E13.83593
G1 X114.492 Y90.757 E13.85576
G1 X115.459 Y91.273 E13.90289
G1 X115.855 Y91.511 E13.92275
G1 X116.766 Y92.120 E13.96986
G1 X117.136 Y92.394 E13.98969
G1 X117.983 Y93.090 E14.03682
G1 X118.327 Y93.401 E14.05673
G1 X119.100 Y94.175 E14.10378
G1 X119.410 Y94.517 E14.12363
G1 X120.106 Y95.364 E14.17075
G1 X120.380 Y95.734 E14.19058
G1 X120.989 Y96.646 E14.23771
G1 X121.227 Y97.041 E14.25754
G1 X121.743 Y98.008 E14.30468
G1 X121.941 Y98.425 E14.32451
G1 X122.360 Y99.438 E14.37164
G1 X122.515 Y99.872 E14.39147
G1 X122.834 Y100.921 E14.43861
G1 X122.946 Y101.369 E14.45844
G1 X123.159 Y102.441 E14.50546
G1 X123.227 Y102.900 E14.52540
G1 X123.335 Y103.991 E14.57254
G1 X123.357 Y104.452 E14.59237
G1 X123.357 Y105.548 E14.63950
G1 X123.335 Y106.009 E14.65933
G1 X123.227 Y107.100 E14.70647
G1 X123.160 Y107.556 E14.72630
G1 X122.946 Y108.629 E14.77333
G1 X122.834 Y109.079 E14.79326
G1 X122.516 Y110.126 E14.84033
G1 X122.360 Y110.562 E14.86023
G1 X121.941 Y111.573 E14.90730
G1 X121.743 Y111.992 E14.92719
G1 X121.227 Y112.959 E14.97433
G1 X120.989 Y113.354 E14.99416
G1 X120.380 Y114.266 E15.04129
G1 X120.106 Y114.636 E15.06112
G1 X119.410 Y115.483 E15.10825
G1 X119.100 Y115.825 E15.12808
G1 X118.325 Y116.600 E15.17522
G1 X117.983 Y116.911 E15.19508
G1 X117.138 Y117.605 E15.24211
G1 X116.766 Y117.880 E15.26202
G1 X115.854 Y118.489 E15.30915
G1 X115.458 Y118.727 E15.32900
G1 X114.492 Y119.243 E15.37611
G1 X114.075 Y119.441 E15.39595
G1 X113.062 Y119.860 E15.44308
G1 X112.628 Y120.015 E15.46291
G1 X111.579 Y120.334 E15.51004
G1 X111.129 Y120.446 E15.52997
G1 X110.056 Y120.660 E15.57701
G1 X109.597 Y120.728 E15.59694
G1 X108.509 Y120.835 E15.64397
G1 X108.048 Y120.857 E15.66380
G1 X106.952 Y120.857 E15.71094
G1 X106.491 Y120.835 E15.73077
G1 X105.400 Y120.727 E15.77790
G1 X104.944 Y120.660 E15.79773
G1 X103.869 Y120.446 E15.84487
G1 X103.421 Y120.334 E15.86472
G1 X102.372 Y120.015 E15.91183
G1 X101.938 Y119.860 E15.93166
G1 X100.925 Y119.441 E15.97880
G1 X100.508 Y119.243 E15.99863
G1 X99.541 Y118.727 E16.04576
G1 X99.146 Y118.489 E16.06559
G1 X98.234 Y117.880 E16.11272
G1 X97.862 Y117.605 E16.13263
G1 X97.016 Y116.910 E16.17969
G1 X96.675 Y116.600 E16.19952
G1 X95.900 Y115.825 E16.24665
G1 X95.590 Y115.483 E16.26649
G1 X94.894 Y114.636 E16.31362
G1 X94.620 Y114.266 E16.33345
G1 X94.011 Y113.354 E16.38058
G1 X93.773 Y112.958 E16.40042
G1 X93.257 Y111.992 E16.44755
G1 X93.059 Y111.573 E16.46744
G1 X92.640 Y110.562 E16.51451
G1 X92.484 Y110.126 E16.53441
G1 X92.166 Y109.079 E16.58146
G1 X92.054 Y108.631 E16.60131
G1 X91.840 Y107.556 E16.64844
G1 X91.772 Y107.097 E16.66838
G1 X91.665 Y106.009 E16.71541
G1 X91.642 Y105.544 E16.73543
G1 X91.643 Y104.452 E16.78237
G1 X91.665 Y103.991 E16.80220
G1 X91.773 Y102.900 E16.84934
G1 X91.840 Y102.444 E16.86917
G1 X92.054 Y101.369 E16.91630
G1 X92.166 Y100.921 E16.93613
G1 X92.485 Y99.872 E16.98327
G1 X92.640 Y99.438 E17.00310
G1 X93.059 Y98.425 E17.05023
G1 X93.257 Y98.007 E17.07011
G1 X93.773 Y97.042 E17.11719
G1 X94.011 Y96.645 E17.13705
G1 X94.620 Y95.734 E17.18416
G1 X94.894 Y95.364 E17.20399
G1 X95.590 Y94.516 E17.25113
G1 X95.859 Y94.219 E17.26838
G1 X96.283 Y94.522 F9000.000
G1 F1800
G1 X97.022 Y93.783 E17.31333
G1 X97.364 Y93.473 E17.33316
G1 X98.172 Y92.810 E17.37811
G1 X98.542 Y92.535 E17.39794
G1 X99.412 Y91.954 E17.44289
G1 X99.808 Y91.716 E17.46278
G1 X100.729 Y91.224 E17.50768
G1 X101.146 Y91.027 E17.52751
G1 X102.112 Y90.627 E17.57246
G1 X102.547 Y90.471 E17.59229
G1 X103.547 Y90.168 E17.63724
G1 X103.994 Y90.056 E17.65707
G1 X105.020 Y89.852 E17.70202
G1 X105.479 Y89.784 E17.72197
G1 X106.517 Y89.682 E17.76681
G1 X106.979 Y89.659 E17.78672
G1 X108.023 Y89.659 E17.83159
G1 X108.483 Y89.682 E17.85142
G1 X109.524 Y89.784 E17.89638
G1 X109.980 Y89.852 E17.91621
G1 X111.006 Y90.056 E17.96116
G1 X111.453 Y90.168 E17.98099
G1 X112.453 Y90.471 E18.02594
G1 X112.888 Y90.627 E18.04577
G1 X113.854 Y91.027 E18.09072
G1 X114.271 Y91.224 E18.11055
G1 X115.193 Y91.717 E18.15551
G1 X115.589 Y91.954 E18.17536
G1 X116.458 Y92.535 E18.22029
G1 X116.828 Y92.810 E18.24012
G1 X117.636 Y93.473 E18.28507
G1 X117.979 Y93.784 E18.30498
G1 X118.717 Y94.522 E18.34985
G1 X119.027 Y94.864 E18.36970
G1 X119.690 Y95.672 E18.41464
G1 X119.965 Y96.042 E18.43447
G1 X120.546 Y96.912 E18.47942
G1 X120.783 Y97.307 E18.49925
G1 X121.276 Y98.229 E18.54420
G1 X121.473 Y98.646 E18.56403
G1 X121.873 Y99.612 E18.60899
G1 X122.029 Y100.047 E18.62882
G1 X122.332 Y101.047 E18.67377
G1 X122.444 Y101.494 E18.69360
G1 X122.648 Y102.517 E18.73845
G1 X122.716 Y102.976 E18.75838
G1 X122.818 Y104.017 E18.80334
G1 X122.841 Y104.477 E18.82317
G1 X122.841 Y105.523 E18.86812
G1 X122.818 Y105.983 E18.88795
G1 X122.716 Y107.024 E18.93290
G1 X122.648 Y107.480 E18.95273
G1 X122.445 Y108.503 E18.99759
G1 X122.332 Y108.953 E19.01752
G1 X122.029 Y109.952 E19.06241
G1 X121.873 Y110.388 E19.08230
G1 X121.474 Y111.352 E19.12719
G1 X121.276 Y111.771 E19.14708
G1 X120.783 Y112.693 E19.19203
G1 X120.546 Y113.088 E19.21187
G1 X119.965 Y113.958 E19.25682
G1 X119.690 Y114.328 E19.27665
G1 X119.027 Y115.136 E19.32160
G1 X118.717 Y115.478 E19.34143
G1 X117.978 Y116.217 E19.38638
G1 X117.636 Y116.527 E19.40624
G1 X116.829 Y117.189 E19.45109
G1 X116.458 Y117.465 E19.47100
G1 X115.588 Y118.046 E19.51595
G1 X115.192 Y118.283 E19.53579
G1 X114.271 Y118.776 E19.58073
G1 X113.854 Y118.973 E19.60056
G1 X112.888 Y119.373 E19.64551
G1 X112.453 Y119.529 E19.66535
G1 X111.453 Y119.832 E19.71030
G1 X111.003 Y119.945 E19.73022
G1 X109.980 Y120.148 E19.77508
G1 X109.522 Y120.216 E19.79501
G1 X108.483 Y120.318 E19.83986
G1 X108.023 Y120.341 E19.85969
G1 X106.977 Y120.341 E19.90465
G1 X106.517 Y120.318 E19.92448
G1 X105.476 Y120.216 E19.96943
G1 X105.020 Y120.148 E19.98926
G1 X103.994 Y119.944 E20.03421
G1 X103.547 Y119.832 E20.05406
G1 X102.547 Y119.529 E20.09899
G1 X102.112 Y119.373 E20.11883
G1 X101.146 Y118.973 E20.16378
G1 X100.729 Y118.776 E20.18361
G1 X99.807 Y118.283 E20.22856
G1 X99.412 Y118.046 E20.24839
G1 X98.542 Y117.465 E20.29334
G1 X98.171 Y117.189 E20.31325
G1 X97.364 Y116.527 E20.35813
G1 X97.022 Y116.217 E20.37796
G1 X96.283 Y115.478 E20.42291
G1 X95.973 Y115.136 E20.44274
G1 X95.310 Y114.328 E20.48769
G1 X95.035 Y113.958 E20.50752
G1 X94.454 Y113.088 E20.55248
G1 X94.217 Y112.693 E20.57231
G1 X93.724 Y111.771 E20.61726
G1 X93.526 Y111.352 E20.63715
G1 X93.127 Y110.388 E20.68204
G1 X92.971 Y109.952 E20.70193
G1 X92.668 Y108.953 E20.74680
G1 X92.556 Y108.506 E20.76666
G1 X92.352 Y107.480 E20.81161
G1 X92.284 Y107.022 E20.83154
G1 X92.182 Y105.983 E20.87639
G1 X92.159 Y105.518 E20.89641
G1 X92.159 Y104.477 E20.94117
G1 X92.182 Y104.017 E20.96100
G1 X92.284 Y102.976 E21.00596
G1 X92.352 Y102.520 E21.02579
