; generated by Slic3r 1.3.0-dev on 2018-10-07 at 17:39:30

; external perimeters extrusion width = 0.44mm (2.38mm^3/s)
; perimeters extrusion width = 0.56mm (3.62mm^3/s)
; infill extrusion width = 0.50mm (5.48mm^3/s)
; solid infill extrusion width = 0.56mm (6.20mm^3/s)
; top infill extrusion width = 0.56mm (5.17mm^3/s)

M107
M104 S210 ; set temperature
; -- START GCODE --
	G90                     ;set to absolute positioning
G28                     ;move to Home
G92 E0                  ;zero the extruded length
G1 F7200                ;set feedrate to travel_speed value
; -- end of START GCODE --
; Filament gcode

M109 S210 ; set temperature and wait for it to be reached
G21 ; set units to millimeters
G90 ; use absolute coordinates
M82 ; use absolute distances for extrusion
G92 E0
G1 Z0.200 F9000.000
G1 E-4.00000 F2400.00000
G92 E0
G1 X83.261 Y88.428 F9000.000
G1 E4.00000 F2400.00000
G1 F1800
G1 X85.626 Y86.856 E4.12213
G1 X88.335 Y86.001 E4.24427
G1 X90.000 Y85.863 E4.31610
G1 X125.000 Y85.863 E5.82093
G1 X127.813 Y86.261 E5.94307
G1 X130.404 Y87.424 E6.06520
G1 X132.572 Y89.261 E6.18734
G1 X134.144 Y91.626 E6.30947
G1 X134.999 Y94.335 E6.43161
G1 X135.137 Y96.000 E6.50343
G1 X135.137 Y114.000 E7.27735
G1 X134.739 Y116.813 E7.39948
G1 X133.576 Y119.404 E7.52162
G1 X131.739 Y121.572 E7.64375
G1 X129.374 Y123.144 E7.76589
G1 X126.665 Y123.999 E7.88802
G1 X125.000 Y124.137 E7.95985
G1 X90.000 Y124.137 E9.46469
G1 X87.187 Y123.739 E9.58682
G1 X84.596 Y122.576 E9.70895
G1 X82.428 Y120.739 E9.83109
G1 X80.856 Y118.374 E9.95322
G1 X80.001 Y115.665 E10.07536
G1 X79.863 Y114.000 E10.14718
G1 X79.863 Y96.000 E10.92110
G1 X80.261 Y93.187 E11.04324
G1 X81.424 Y90.596 E11.16537
G1 X83.222 Y88.474 E11.28493
G1 X83.767 Y88.673 F9000.000
G1 F1800
G1 X86.110 Y87.202 E11.40389
G1 X90.000 Y86.380 E11.57482
G1 X125.000 Y86.380 E13.07965
G1 X127.738 Y86.778 E13.19862
G1 X130.250 Y87.939 E13.31758
G1 X132.327 Y89.767 E13.43654
G1 X133.798 Y92.110 E13.55551
G1 X134.620 Y96.000 E13.72643
G1 X134.620 Y114.000 E14.50035
G1 X134.222 Y116.738 E14.61931
G1 X133.061 Y119.250 E14.73827
G1 X131.233 Y121.327 E14.85724
G1 X128.890 Y122.798 E14.97620
G1 X125.000 Y123.620 E15.14713
G1 X90.000 Y123.620 E16.65197
G1 X87.262 Y123.222 E16.77093
G1 X84.750 Y122.061 E16.88989
G1 X82.673 Y120.233 E17.00885
G1 X81.202 Y117.890 E17.12782
G1 X80.380 Y114.000 E17.29874
G1 X80.380 Y96.000 E18.07266
G1 X80.778 Y93.262 E18.19162
G1 X81.939 Y90.750 E18.31059
G1 X83.727 Y88.718 E18.42697
G1 X84.272 Y88.926 F9000.000
G1 F1800
G1 X86.591 Y87.560 E18.54267
G1 X90.000 Y86.898 E18.69199
G1 X125.000 Y86.898 E20.19682
G1 X127.662 Y87.295 E20.31253
G1 X130.090 Y88.454 E20.42823
G1 X132.074 Y90.272 E20.54394
G1 X133.440 Y92.591 E20.65964
G1 X134.102 Y96.000 E20.80895
G1 X134.102 Y114.000 E21.58287
G1 X133.705 Y116.662 E21.69858
G1 X132.546 Y119.090 E21.81428
G1 X130.728 Y121.074 E21.92998
G1 X128.409 Y122.440 E22.04569
G1 X125.000 Y123.102 E22.19500
G1 X90.000 Y123.102 E23.69984
G1 X87.338 Y122.705 E23.81554
G1 X84.910 Y121.546 E23.93125
G1 X82.926 Y119.728 E24.04695
G1 X81.560 Y117.409 E24.16266
G1 X80.898 Y114.000 E24.31197
G1 X80.898 Y96.000 E25.08589
G1 X81.295 Y93.338 E25.20159
G1 X82.454 Y90.910 E25.31729
G1 X84.232 Y88.970 E25.43042
G1 X84.776 Y89.187 F9000.000
G1 F1800
G1 X87.068 Y87.931 E25.54277
G1 X90.000 Y87.415 E25.67079
G1 X125.000 Y87.415 E27.17563
G1 X127.583 Y87.812 E27.28798
G1 X129.926 Y88.968 E27.40033
G1 X131.813 Y90.776 E27.51268
G1 X133.069 Y93.068 E27.62504
G1 X133.585 Y96.000 E27.75306
G1 X133.585 Y114.000 E28.52697
G1 X133.188 Y116.583 E28.63933
G1 X132.032 Y118.926 E28.75168
G1 X130.224 Y120.813 E28.86403
G1 X127.932 Y122.069 E28.97638
G1 X125.000 Y122.585 E29.10440
G1 X90.000 Y122.585 E30.60924
G1 X87.417 Y122.188 E30.72159
G1 X85.074 Y121.032 E30.83394
G1 X83.187 Y119.224 E30.94629
G1 X81.931 Y116.932 E31.05864
G1 X81.415 Y114.000 E31.18667
G1 X81.415 Y96.000 E31.96058
G1 X81.812 Y93.417 E32.07294
G1 X82.968 Y91.074 E32.18529
G1 X84.735 Y89.230 E32.29506
G1 X85.278 Y89.458 F9000.000
G1 F1800
G1 X87.539 Y88.316 E32.40395
G1 X90.000 Y87.932 E32.51104
G1 X125.000 Y87.932 E34.01588
G1 X127.501 Y88.329 E34.12478
G1 X129.756 Y89.483 E34.23367
G1 X131.542 Y91.278 E34.34257
G1 X132.684 Y93.539 E34.45146
G1 X133.068 Y96.000 E34.55855
G1 X133.068 Y114.000 E35.33247
G1 X132.671 Y116.501 E35.44136
G1 X131.517 Y118.756 E35.55026
G1 X129.722 Y120.542 E35.65915
G1 X127.461 Y121.684 E35.76805
G1 X125.000 Y122.068 E35.87514
G1 X90.000 Y122.068 E37.37998
G1 X87.499 Y121.671 E37.48887
G1 X85.244 Y120.517 E37.59777
G1 X83.458 Y118.722 E37.70666
G1 X82.316 Y116.461 E37.81556
G1 X81.932 Y114.000 E37.92265
G1 X81.932 Y96.000 E38.69656
G1 X82.329 Y93.499 E38.80546
G1 X83.483 Y91.244 E38.91435
G1 X85.236 Y89.500 E39.02067
G1 X85.778 Y89.739 F9000.000
G1 F1800
G1 X88.005 Y88.717 E39.12599
G1 X90.000 Y88.449 E39.21255
G1 X125.000 Y88.449 E40.71739
G1 X127.417 Y88.846 E40.82272
G1 X129.580 Y89.996 E40.92804
G1 X131.261 Y91.778 E41.03337
G1 X132.283 Y94.005 E41.13869
G1 X132.551 Y96.000 E41.22525
G1 X132.551 Y114.000 E41.99917
G1 X132.154 Y116.417 E42.10449
G1 X131.004 Y118.580 E42.20982
G1 X129.222 Y120.261 E42.31514
G1 X126.995 Y121.283 E42.42047
G1 X125.000 Y121.551 E42.50703
G1 X90.000 Y121.551 E44.01186
G1 X87.583 Y121.154 E44.11719
G1 X85.420 Y120.004 E44.22251
G1 X83.739 Y118.222 E44.32784
G1 X82.717 Y115.995 E44.43316
G1 X82.449 Y114.000 E44.51972
G1 X82.449 Y96.000 E45.29364
G1 X82.846 Y93.583 E45.39896
G1 X83.996 Y91.420 E45.50429
G1 X85.735 Y89.780 E45.60703
G1 X86.276 Y90.032 F9000.000
G1 F1800
G1 X88.463 Y89.136 E45.70866
G1 X90.000 Y88.966 E45.77514
G1 X125.000 Y88.966 E47.27997
G1 X127.330 Y89.363 E47.38160
G1 X129.397 Y90.510 E47.48323
G1 X130.968 Y92.276 E47.58487
G1 X131.864 Y94.463 E47.68650
G1 X132.034 Y96.000 E47.75297
G1 X132.034 Y114.000 E48.52688
G1 X131.637 Y116.330 E48.62851
G1 X130.490 Y118.397 E48.73014
G1 X128.724 Y119.968 E48.83178
G1 X126.537 Y120.864 E48.93341
G1 X125.000 Y121.034 E48.99988
G1 X90.000 Y121.034 E50.50471
G1 X87.670 Y120.637 E50.60635
G1 X85.603 Y119.490 E50.70798
G1 X84.032 Y117.724 E50.80961
G1 X83.136 Y115.537 E50.91124
G1 X82.966 Y114.000 E50.97771
G1 X82.966 Y96.000 E51.75162
G1 X83.363 Y93.670 E51.85325
G1 X84.510 Y91.603 E51.95489
G1 X86.231 Y90.072 E52.05394
G1 X86.771 Y90.339 F9000.000
G1 F1800
G1 X90.000 Y89.483 E52.19756
G1 X125.000 Y89.483 E53.70240
G1 X127.240 Y89.880 E53.80019
G1 X129.207 Y91.022 E53.89799
G1 X130.661 Y92.771 E53.99579
G1 X131.517 Y96.000 E54.13941
G1 X131.517 Y114.000 E54.91333
G1 X131.120 Y116.240 E55.01112
G1 X129.978 Y118.207 E55.10892
G1 X128.229 Y119.661 E55.20672
G1 X125.000 Y120.517 E55.35034
G1 X90.000 Y120.517 E56.85518
G1 X87.760 Y120.120 E56.95297
G1 X85.793 Y118.978 E57.05077
G1 X84.339 Y117.229 E57.14857
G1 X83.483 Y114.000 E57.29219
G1 X83.483 Y96.000 E58.06611
G1 X83.880 Y93.760 E58.16390
G1 X85.022 Y91.793 E58.26170
G1 X86.725 Y90.377 E58.35692
G1 E54.35692 F2400.00000
G92 E0
G1 X123.806 Y112.806 F9000.000
G1 E4.00000 F2400.00000
G1 F1800
G1 X91.194 Y112.806 E5.40215
G1 X91.194 Y97.194 E6.07338
G1 X123.806 Y97.194 E7.47553
G1 X123.806 Y112.746 E8.14418
G1 X124.323 Y113.323 F9000.000
G1 F1800
G1 X90.677 Y113.323 E9.59080
G1 X90.677 Y96.677 E10.30649
G1 X124.323 Y96.677 E11.75310
G1 X124.323 Y113.263 E12.46622
G1 X124.780 Y113.780 F9000.000
G1 F1800
G1 X90.220 Y113.780 E13.60730
G1 X90.220 Y96.220 E14.18708
G1 X124.780 Y96.220 E15.32816
G1 X124.780 Y113.720 E15.90596
G1 X124.385 Y113.718 F9000.000
G1 X123.234 Y112.344 F9000.000
G1 F1800
G1 X123.344 Y112.234 E15.91265
G1 X123.344 Y111.501 E15.94421
G1 X122.501 Y112.344 E15.99553
G1 X121.769 Y112.344 E16.02709
G1 X123.344 Y110.769 E16.12304
G1 X123.344 Y110.036 E16.15459
G1 X121.036 Y112.344 E16.29517
G1 X120.303 Y112.344 E16.32673
G1 X123.344 Y109.303 E16.51193
G1 X123.344 Y108.571 E16.54349
G1 X119.571 Y112.344 E16.77333
G1 X118.838 Y112.344 E16.80489
G1 X123.344 Y107.838 E17.07935
G1 X123.344 Y107.105 E17.11091
G1 X118.105 Y112.344 E17.43000
G1 X117.373 Y112.344 E17.46156
G1 X123.344 Y106.373 E17.82528
G1 X123.344 Y105.640 E17.85684
G1 X116.640 Y112.344 E18.26519
G1 X115.908 Y112.344 E18.29675
G1 X123.344 Y104.908 E18.74973
G1 X123.344 Y104.175 E18.78129
G1 X115.175 Y112.344 E19.27890
G1 X114.442 Y112.344 E19.31045
G1 X123.344 Y103.442 E19.85269
G1 X123.344 Y102.710 E19.88425
G1 X113.710 Y112.344 E20.47112
G1 X112.977 Y112.344 E20.50267
G1 X123.344 Y101.977 E21.13417
G1 X123.344 Y101.245 E21.16573
G1 X112.245 Y112.344 E21.84185
G1 X111.512 Y112.344 E21.87341
G1 X123.344 Y100.512 E22.59417
G1 X123.344 Y99.779 E22.62572
G1 X110.779 Y112.344 E23.39111
G1 X110.047 Y112.344 E23.42267
G1 X123.344 Y99.047 E24.23268
G1 X123.344 Y98.314 E24.26424
G1 X109.314 Y112.344 E25.11888
G1 X108.581 Y112.344 E25.15043
G1 X123.269 Y97.656 E26.04514
G1 X122.536 Y97.656 E26.07670
G1 X107.849 Y112.344 E26.97141
G1 X107.116 Y112.344 E27.00297
G1 X121.803 Y97.656 E27.89767
G1 X121.071 Y97.656 E27.92923
G1 X106.384 Y112.344 E28.82394
G1 X105.651 Y112.344 E28.85550
G1 X120.338 Y97.656 E29.75021
G1 X119.606 Y97.656 E29.78176
G1 X104.918 Y112.344 E30.67647
G1 X104.186 Y112.344 E30.70803
G1 X118.873 Y97.656 E31.60274
G1 X118.140 Y97.656 E31.63429
G1 X103.453 Y112.344 E32.52900
G1 X102.721 Y112.344 E32.56056
G1 X117.408 Y97.656 E33.45527
G1 X116.675 Y97.656 E33.48683
G1 X101.988 Y112.344 E34.38153
G1 X101.255 Y112.344 E34.41309
G1 X115.943 Y97.656 E35.30780
G1 X115.210 Y97.656 E35.33936
G1 X100.523 Y112.344 E36.23406
G1 X99.790 Y112.344 E36.26562
G1 X114.477 Y97.656 E37.16033
G1 X113.745 Y97.656 E37.19189
G1 X99.057 Y112.344 E38.08660
G1 X98.325 Y112.344 E38.11815
G1 X113.012 Y97.656 E39.01286
G1 X112.279 Y97.656 E39.04442
G1 X97.592 Y112.344 E39.93913
G1 X96.860 Y112.344 E39.97068
G1 X111.547 Y97.656 E40.86539
G1 X110.814 Y97.656 E40.89695
G1 X96.127 Y112.344 E41.79166
G1 X95.394 Y112.344 E41.82322
G1 X110.082 Y97.656 E42.71792
G1 X109.349 Y97.656 E42.74948
G1 X94.662 Y112.344 E43.64419
G1 X93.929 Y112.344 E43.67575
G1 X108.616 Y97.656 E44.57046
G1 X107.884 Y97.656 E44.60201
G1 X93.197 Y112.344 E45.49672
G1 X92.464 Y112.344 E45.52828
G1 X107.151 Y97.656 E46.42299
G1 X106.419 Y97.656 E46.45454
G1 X91.731 Y112.344 E47.34925
G1 X91.656 Y112.344 E47.35248
G1 X91.656 Y111.686 E47.38081
G1 X105.686 Y97.656 E48.23545
G1 X104.953 Y97.656 E48.26701
G1 X91.656 Y110.953 E49.07702
G1 X91.656 Y110.221 E49.10858
G1 X104.221 Y97.656 E49.87397
G1 X103.488 Y97.656 E49.90552
G1 X91.656 Y109.488 E50.62628
G1 X91.656 Y108.755 E50.65784
G1 X102.755 Y97.656 E51.33397
G1 X102.023 Y97.656 E51.36552
G1 X91.656 Y108.023 E51.99702
G1 X91.656 Y107.290 E52.02858
G1 X101.290 Y97.656 E52.61545
G1 X100.558 Y97.656 E52.64700
G1 X91.656 Y106.558 E53.18924
G1 X91.656 Y105.825 E53.22080
G1 X99.825 Y97.656 E53.71841
G1 X99.092 Y97.656 E53.74997
G1 X91.656 Y105.092 E54.20295
G1 X91.656 Y104.360 E54.23451
G1 X98.360 Y97.656 E54.64286
G1 X97.627 Y97.656 E54.67442
G1 X91.656 Y103.627 E55.03814
G1 X91.656 Y102.895 E55.06970
G1 X96.895 Y97.656 E55.38880
G1 X96.162 Y97.656 E55.42035
G1 X91.656 Y102.162 E55.69482
G1 X91.656 Y101.429 E55.72638
G1 X95.429 Y97.656 E55.95622
G1 X94.697 Y97.656 E55.98777
G1 X91.656 Y100.697 E56.17298
G1 X91.656 Y99.964 E56.20454
G1 X93.964 Y97.656 E56.34512
G1 X93.231 Y97.656 E56.37667
G1 X91.656 Y99.231 E56.47262
G1 X91.656 Y98.499 E56.50418
G1 X92.499 Y97.656 E56.55550
G1 X91.766 Y97.656 E56.58706
G1 X91.657 Y97.766 E56.59374
M106 S186.15
M104 S220 ; set temperature
G1 Z0.400 F9000.000
G1 X123.806 Y112.806 F9000.000
G1 F2100
G1 X91.194 Y112.806 E57.99589
G1 X91.194 Y97.194 E58.66712
G1 X123.806 Y97.194 E60.06927
G1 X123.806 Y112.746 E60.73792
G1 X124.323 Y113.323 F9000.000
G1 F2100
G1 X90.677 Y113.323 E62.18454
G1 X90.677 Y96.677 E62.90023
G1 X124.323 Y96.677 E64.34685
G1 X124.323 Y113.263 E65.05996
G1 X124.780 Y113.780 F9000.000
G1 F1800
G1 X90.220 Y113.780 E66.20104
G1 X90.220 Y96.220 E66.78082
G1 X124.780 Y96.220 E67.92190
G1 X124.780 Y113.720 E68.49970
G1 X124.385 Y113.718 F9000.000
G1 X123.344 Y97.766 F9000.000
G1 F3600
G1 X123.234 Y97.656 E68.50639
G1 X122.501 Y97.656 E68.53795
G1 X123.344 Y98.499 E68.58927
G1 X123.344 Y99.231 E68.62083
G1 X121.769 Y97.656 E68.71678
G1 X121.036 Y97.656 E68.74834
G1 X123.344 Y99.964 E68.88891
G1 X123.344 Y100.697 E68.92047
G1 X120.303 Y97.656 E69.10568
G1 X119.571 Y97.656 E69.13723
G1 X123.344 Y101.429 E69.36707
G1 X123.344 Y102.162 E69.39863
G1 X118.838 Y97.656 E69.67309
G1 X118.105 Y97.656 E69.70465
G1 X123.344 Y102.895 E70.02374
G1 X123.344 Y103.627 E70.05530
G1 X117.373 Y97.656 E70.41902
G1 X116.640 Y97.656 E70.45058
G1 X123.344 Y104.360 E70.85893
G1 X123.344 Y105.092 E70.89049
G1 X115.908 Y97.656 E71.34347
G1 X115.175 Y97.656 E71.37503
G1 X123.344 Y105.825 E71.87264
G1 X123.344 Y106.558 E71.90419
G1 X114.442 Y97.656 E72.44643
G1 X113.710 Y97.656 E72.47799
G1 X123.344 Y107.290 E73.06486
G1 X123.344 Y108.023 E73.09642
G1 X112.977 Y97.656 E73.72791
G1 X112.245 Y97.656 E73.75947
G1 X123.344 Y108.755 E74.43560
G1 X123.344 Y109.488 E74.46715
G1 X111.512 Y97.656 E75.18791
G1 X110.779 Y97.656 E75.21947
G1 X123.344 Y110.221 E75.98485
G1 X123.344 Y110.953 E76.01641
G1 X110.047 Y97.656 E76.82642
G1 X109.314 Y97.656 E76.85798
G1 X123.344 Y111.686 E77.71262
G1 X123.344 Y112.344 E77.74095
G1 X123.269 Y112.344 E77.74418
G1 X108.581 Y97.656 E78.63888
G1 X107.849 Y97.656 E78.67044
G1 X122.536 Y112.344 E79.56515
G1 X121.803 Y112.344 E79.59671
G1 X107.116 Y97.656 E80.49141
G1 X106.384 Y97.656 E80.52297
G1 X121.071 Y112.344 E81.41768
G1 X120.338 Y112.344 E81.44924
G1 X105.651 Y97.656 E82.34395
G1 X104.918 Y97.656 E82.37550
G1 X119.606 Y112.344 E83.27021
G1 X118.873 Y112.344 E83.30177
G1 X104.186 Y97.656 E84.19648
G1 X103.453 Y97.656 E84.22803
G1 X118.140 Y112.344 E85.12274
G1 X117.408 Y112.344 E85.15430
G1 X102.721 Y97.656 E86.04901
G1 X101.988 Y97.656 E86.08057
G1 X116.675 Y112.344 E86.97527
G1 X115.943 Y112.344 E87.00683
G1 X101.255 Y97.656 E87.90154
G1 X100.523 Y97.656 E87.93310
G1 X115.210 Y112.344 E88.82781
G1 X114.477 Y112.344 E88.85936
G1 X99.790 Y97.656 E89.75407
G1 X99.057 Y97.656 E89.78563
G1 X113.745 Y112.344 E90.68034
G1 X113.012 Y112.344 E90.71189
G1 X98.325 Y97.656 E91.60660
G1 X97.592 Y97.656 E91.63816
G1 X112.279 Y112.344 E92.53287
G1 X111.547 Y112.344 E92.56442
G1 X96.860 Y97.656 E93.45913
G1 X96.127 Y97.656 E93.49069
G1 X110.814 Y112.344 E94.38540
G1 X110.082 Y112.344 E94.41696
G1 X95.394 Y97.656 E95.31166
G1 X94.662 Y97.656 E95.34322
G1 X109.349 Y112.344 E96.23793
G1 X108.616 Y112.344 E96.26949
G1 X93.929 Y97.656 E97.16420
G1 X93.197 Y97.656 E97.19575
G1 X107.884 Y112.344 E98.09046
G1 X107.151 Y112.344 E98.12202
G1 X92.464 Y97.656 E99.01673
G1 X91.731 Y97.656 E99.04828
G1 X106.419 Y112.344 E99.94299
G1 X105.686 Y112.344 E99.97455
G1 X91.656 Y98.314 E100.82919
G1 X91.656 Y99.047 E100.86075
G1 X104.953 Y112.344 E101.67076
G1 X104.221 Y112.344 E101.70232
G1 X91.656 Y99.779 E102.46771
G1 X91.656 Y100.512 E102.49926
G1 X103.488 Y112.344 E103.22002
G1 X102.755 Y112.344 E103.25158
G1 X91.656 Y101.245 E103.92771
G1 X91.656 Y101.977 E103.95926
G1 X102.023 Y112.344 E104.59076
G1 X101.290 Y112.344 E104.62232
G1 X91.656 Y102.710 E105.20919
G1 X91.656 Y103.442 E105.24075
G1 X100.558 Y112.344 E105.78299
G1 X99.825 Y112.344 E105.81454
G1 X91.656 Y104.175 E106.31216
G1 X91.656 Y104.908 E106.34371
G1 X99.092 Y112.344 E106.79669
G1 X98.360 Y112.344 E106.82825
G1 X91.656 Y105.640 E107.23661
G1 X91.656 Y106.373 E107.26816
G1 X97.627 Y112.344 E107.63189
G1 X96.895 Y112.344 E107.66344
G1 X91.656 Y107.105 E107.98254
G1 X91.656 Y107.838 E108.01410
G1 X96.162 Y112.344 E108.28856
G1 X95.429 Y112.344 E108.32012
G1 X91.656 Y108.571 E108.54996
G1 X91.656 Y109.303 E108.58152
G1 X94.697 Y112.344 E108.76672
G1 X93.964 Y112.344 E108.79828
G1 X91.656 Y110.036 E108.93886
G1 X91.656 Y110.769 E108.97042
G1 X93.231 Y112.344 E109.06637
G1 X92.499 Y112.344 E109.09793
G1 X91.656 Y111.501 E109.14925
G1 X91.656 Y112.234 E109.18080
G1 X91.766 Y112.343 E109.18749
G1 Z0.600 F9000.000
G1 X123.806 Y112.806 F9000.000
G1 F2100
G1 X91.194 Y112.806 E110.58964
