; generated by Slic3r 1.3.0-dev on 2018-10-08 at 10:54:59

; external perimeters extrusion width = 0.44mm (2.38mm^3/s)
; perimeters extrusion width = 0.56mm (3.62mm^3/s)
; infill extrusion width = 0.50mm (5.48mm^3/s)
; solid infill extrusion width = 0.56mm (6.20mm^3/s)
; top infill extrusion width = 0.56mm (5.17mm^3/s)

M107
M104 S210 ; set temperature
; -- START GCODE --
	G90                     ;set to absolute positioning
G28                     ;move to Home
G92 E0                  ;zero the extruded length
G1 F7200                ;set feedrate to travel_speed value
; -- end of START GCODE --
; Filament gcode

M109 S210 ; set temperature and wait for it to be reached
G21 ; set units to millimeters
G90 ; use absolute coordinates
M82 ; use absolute distances for extrusion
G92 E0
G1 Z0.200 F9000.000
G1 E-4.00000 F2400.00000
G92 E0
G1 X81.761 Y87.928 F9000.000
G1 E4.00000 F2400.00000
G1 F1800
G1 X84.126 Y86.356 E4.12213
G1 X86.835 Y85.501 E4.24427
G1 X88.500 Y85.363 E4.31610
G1 X126.500 Y85.363 E5.94992
G1 X129.313 Y85.761 E6.07205
G1 X131.904 Y86.924 E6.19419
G1 X134.072 Y88.761 E6.31632
G1 X135.644 Y91.126 E6.43846
G1 X136.499 Y93.835 E6.56059
G1 X136.637 Y95.500 E6.63242
G1 X136.637 Y114.500 E7.44933
G1 X136.239 Y117.313 E7.57146
G1 X135.076 Y119.904 E7.69360
G1 X133.239 Y122.072 E7.81573
G1 X130.874 Y123.644 E7.93787
G1 X128.165 Y124.499 E8.06000
G1 X126.500 Y124.637 E8.13183
G1 X88.500 Y124.637 E9.76565
G1 X85.687 Y124.239 E9.88779
G1 X83.096 Y123.076 E10.00992
G1 X80.928 Y121.239 E10.13206
G1 X79.356 Y118.874 E10.25419
G1 X78.501 Y116.165 E10.37633
G1 X78.363 Y114.500 E10.44815
G1 X78.363 Y95.500 E11.26506
G1 X78.761 Y92.687 E11.38720
G1 X79.924 Y90.096 E11.50933
G1 X81.722 Y87.974 E11.62889
G1 X82.267 Y88.173 F9000.000
G1 F1800
G1 X84.610 Y86.702 E11.74785
G1 X88.500 Y85.880 E11.91878
G1 X126.500 Y85.880 E13.55260
G1 X129.238 Y86.278 E13.67157
G1 X131.750 Y87.439 E13.79053
G1 X133.827 Y89.267 E13.90949
G1 X135.298 Y91.610 E14.02845
G1 X136.120 Y95.500 E14.19938
G1 X136.120 Y114.500 E15.01629
G1 X135.722 Y117.238 E15.13526
G1 X134.561 Y119.750 E15.25422
G1 X132.733 Y121.827 E15.37318
G1 X130.390 Y123.298 E15.49215
G1 X126.500 Y124.120 E15.66307
G1 X88.500 Y124.120 E17.29690
G1 X85.762 Y123.722 E17.41586
G1 X83.250 Y122.561 E17.53482
G1 X81.173 Y120.733 E17.65379
G1 X79.702 Y118.390 E17.77275
G1 X78.880 Y114.500 E17.94367
G1 X78.880 Y95.500 E18.76059
G1 X79.278 Y92.762 E18.87955
G1 X80.439 Y90.250 E18.99851
G1 X82.227 Y88.218 E19.11490
G1 X82.772 Y88.426 F9000.000
G1 F1800
G1 X85.091 Y87.060 E19.23060
G1 X88.500 Y86.398 E19.37991
G1 X126.500 Y86.398 E21.01374
G1 X129.162 Y86.795 E21.12944
G1 X131.590 Y87.954 E21.24515
G1 X133.574 Y89.772 E21.36085
G1 X134.940 Y92.091 E21.47655
G1 X135.602 Y95.500 E21.62587
G1 X135.602 Y114.500 E22.44278
G1 X135.205 Y117.162 E22.55848
G1 X134.046 Y119.590 E22.67419
G1 X132.228 Y121.574 E22.78989
G1 X129.909 Y122.940 E22.90560
G1 X126.500 Y123.602 E23.05491
G1 X88.500 Y123.602 E24.68873
G1 X85.838 Y123.205 E24.80444
G1 X83.410 Y122.046 E24.92014
G1 X81.426 Y120.228 E25.03585
G1 X80.060 Y117.909 E25.15155
G1 X79.398 Y114.500 E25.30086
G1 X79.398 Y95.500 E26.11777
G1 X79.795 Y92.838 E26.23348
G1 X80.954 Y90.410 E26.34918
G1 X82.732 Y88.470 E26.46231
G1 X83.276 Y88.687 F9000.000
G1 F1800
G1 X85.568 Y87.431 E26.57466
G1 X88.500 Y86.915 E26.70268
G1 X126.500 Y86.915 E28.33651
G1 X129.083 Y87.312 E28.44886
G1 X131.426 Y88.468 E28.56121
G1 X133.313 Y90.276 E28.67356
G1 X134.569 Y92.568 E28.78591
G1 X135.085 Y95.500 E28.91393
G1 X135.085 Y114.500 E29.73085
G1 X134.688 Y117.083 E29.84320
G1 X133.532 Y119.426 E29.95555
G1 X131.724 Y121.313 E30.06790
G1 X129.432 Y122.569 E30.18025
G1 X126.500 Y123.085 E30.30827
G1 X88.500 Y123.085 E31.94210
G1 X85.917 Y122.688 E32.05445
G1 X83.574 Y121.532 E32.16680
G1 X81.687 Y119.724 E32.27915
G1 X80.431 Y117.432 E32.39150
G1 X79.915 Y114.500 E32.51952
G1 X79.915 Y95.500 E33.33644
G1 X80.312 Y92.917 E33.44879
G1 X81.468 Y90.574 E33.56114
G1 X83.235 Y88.730 E33.67091
G1 X83.778 Y88.958 F9000.000
G1 F1800
G1 X86.039 Y87.816 E33.77981
G1 X88.500 Y87.432 E33.88690
G1 X126.500 Y87.432 E35.52072
G1 X129.001 Y87.829 E35.62961
G1 X131.256 Y88.983 E35.73851
G1 X133.042 Y90.778 E35.84740
G1 X134.184 Y93.039 E35.95630
G1 X134.568 Y95.500 E36.06339
G1 X134.568 Y114.500 E36.88030
G1 X134.171 Y117.001 E36.98920
G1 X133.017 Y119.256 E37.09809
G1 X131.222 Y121.042 E37.20699
G1 X128.961 Y122.184 E37.31588
G1 X126.500 Y122.568 E37.42297
G1 X88.500 Y122.568 E39.05680
G1 X85.999 Y122.171 E39.16569
G1 X83.744 Y121.017 E39.27459
G1 X81.958 Y119.222 E39.38348
G1 X80.816 Y116.961 E39.49238
G1 X80.432 Y114.500 E39.59947
G1 X80.432 Y95.500 E40.41638
G1 X80.829 Y92.999 E40.52527
G1 X81.983 Y90.744 E40.63417
G1 X83.736 Y89.000 E40.74048
G1 X84.278 Y89.239 F9000.000
G1 F1800
G1 X86.505 Y88.217 E40.84581
G1 X88.500 Y87.949 E40.93237
G1 X126.500 Y87.949 E42.56619
G1 X128.917 Y88.346 E42.67152
G1 X131.080 Y89.496 E42.77684
G1 X132.761 Y91.278 E42.88217
G1 X133.783 Y93.505 E42.98749
G1 X134.051 Y95.500 E43.07405
G1 X134.051 Y114.500 E43.89096
G1 X133.654 Y116.917 E43.99629
G1 X132.504 Y119.080 E44.10161
G1 X130.722 Y120.761 E44.20694
G1 X128.495 Y121.783 E44.31226
G1 X126.500 Y122.051 E44.39882
G1 X88.500 Y122.051 E46.03264
G1 X86.083 Y121.654 E46.13797
G1 X83.920 Y120.504 E46.24330
G1 X82.239 Y118.722 E46.34862
G1 X81.217 Y116.495 E46.45395
G1 X80.949 Y114.500 E46.54050
G1 X80.949 Y95.500 E47.35742
G1 X81.346 Y93.083 E47.46274
G1 X82.496 Y90.920 E47.56807
G1 X84.235 Y89.280 E47.67081
G1 X84.776 Y89.532 F9000.000
G1 F1800
G1 X86.963 Y88.636 E47.77244
G1 X88.500 Y88.466 E47.83891
G1 X126.500 Y88.466 E49.47274
G1 X128.830 Y88.863 E49.57437
G1 X130.897 Y90.010 E49.67600
G1 X132.468 Y91.776 E49.77763
G1 X133.364 Y93.963 E49.87926
G1 X133.534 Y95.500 E49.94573
G1 X133.534 Y114.500 E50.76264
G1 X133.137 Y116.830 E50.86427
G1 X131.990 Y118.897 E50.96590
G1 X130.224 Y120.468 E51.06753
G1 X128.037 Y121.364 E51.16917
G1 X126.500 Y121.534 E51.23564
G1 X88.500 Y121.534 E52.86946
G1 X86.170 Y121.137 E52.97109
G1 X84.103 Y119.990 E53.07272
G1 X82.532 Y118.224 E53.17435
G1 X81.636 Y116.037 E53.27598
G1 X81.466 Y114.500 E53.34245
G1 X81.466 Y95.500 E54.15937
G1 X81.863 Y93.170 E54.26100
G1 X83.010 Y91.103 E54.36263
G1 X84.731 Y89.572 E54.46168
G1 X85.271 Y89.839 F9000.000
G1 F1800
G1 X88.500 Y88.983 E54.60530
G1 X126.500 Y88.983 E56.23913
G1 X128.740 Y89.380 E56.33692
G1 X130.707 Y90.522 E56.43472
G1 X132.161 Y92.271 E56.53251
G1 X133.017 Y95.500 E56.67614
G1 X133.017 Y114.500 E57.49305
G1 X132.620 Y116.740 E57.59085
G1 X131.478 Y118.707 E57.68864
G1 X129.729 Y120.161 E57.78644
G1 X126.500 Y121.017 E57.93006
G1 X88.500 Y121.017 E59.56389
G1 X86.260 Y120.620 E59.66168
G1 X84.293 Y119.478 E59.75948
G1 X82.839 Y117.729 E59.85727
G1 X81.983 Y114.500 E60.00090
G1 X81.983 Y95.500 E60.81781
G1 X82.380 Y93.260 E60.91561
G1 X83.522 Y91.293 E61.01340
G1 X85.225 Y89.877 E61.10862
G1 E57.10862 F2400.00000
G92 E0
G1 X125.306 Y113.306 F9000.000
G1 E4.00000 F2400.00000
G1 F1800
G1 X89.694 Y113.306 E5.53114
G1 X89.694 Y96.694 E6.24536
G1 X125.306 Y96.694 E7.77650
G1 X125.306 Y113.246 E8.48814
G1 X125.823 Y113.823 F9000.000
G1 F1800
G1 X89.177 Y113.823 E10.06375
G1 X89.177 Y96.177 E10.82243
G1 X125.823 Y96.177 E12.39804
G1 X125.823 Y113.763 E13.15414
G1 X126.280 Y114.280 F9000.000
G1 F1800
G1 X88.720 Y114.280 E14.39428
G1 X88.720 Y95.720 E15.00708
G1 X126.280 Y95.720 E16.24721
G1 X126.280 Y114.220 E16.85803
G1 X125.885 Y114.219 F9000.000
G1 X124.734 Y112.844 F9000.000
G1 F1800
G1 X124.844 Y112.734 E16.86476
G1 X124.844 Y111.996 E16.89675
G1 X123.996 Y112.844 E16.94872
G1 X123.259 Y112.844 E16.98070
G1 X124.844 Y111.259 E17.07791
G1 X124.844 Y110.521 E17.10990
G1 X122.521 Y112.844 E17.25233
G1 X121.784 Y112.844 E17.28432
G1 X124.844 Y109.784 E17.47199
G1 X124.844 Y109.046 E17.50398
G1 X121.046 Y112.844 E17.73689
G1 X120.308 Y112.844 E17.76888
G1 X124.844 Y108.308 E18.04702
G1 X124.844 Y107.571 E18.07900
G1 X119.571 Y112.844 E18.40238
G1 X118.833 Y112.844 E18.43437
G1 X124.844 Y106.833 E18.80298
G1 X124.844 Y106.096 E18.83497
G1 X118.096 Y112.844 E19.24881
G1 X117.358 Y112.844 E19.28080
G1 X124.844 Y105.358 E19.73988
G1 X124.844 Y104.621 E19.77187
G1 X116.621 Y112.844 E20.27618
G1 X115.883 Y112.844 E20.30817
G1 X124.844 Y103.883 E20.85772
G1 X124.844 Y103.145 E20.88971
G1 X115.145 Y112.844 E21.48449
G1 X114.408 Y112.844 E21.51648
G1 X124.844 Y102.408 E22.15650
G1 X124.844 Y101.670 E22.18849
G1 X113.670 Y112.844 E22.87374
G1 X112.933 Y112.844 E22.90573
G1 X124.844 Y100.933 E23.63622
G1 X124.844 Y100.195 E23.66820
G1 X112.195 Y112.844 E24.44393
G1 X111.458 Y112.844 E24.47591
G1 X124.844 Y99.458 E25.29687
G1 X124.844 Y98.720 E25.32886
G1 X110.720 Y112.844 E26.19505
G1 X109.982 Y112.844 E26.22704
G1 X124.844 Y97.982 E27.13846
G1 X124.844 Y97.245 E27.17045
G1 X109.245 Y112.844 E28.12711
G1 X108.507 Y112.844 E28.15910
G1 X124.195 Y97.156 E29.12119
G1 X123.457 Y97.156 E29.15317
G1 X107.770 Y112.844 E30.11526
G1 X107.032 Y112.844 E30.14724
G1 X122.719 Y97.156 E31.10933
G1 X121.982 Y97.156 E31.14132
G1 X106.295 Y112.844 E32.10341
G1 X105.557 Y112.844 E32.13539
G1 X121.244 Y97.156 E33.09748
G1 X120.507 Y97.156 E33.12946
G1 X104.819 Y112.844 E34.09155
G1 X104.082 Y112.844 E34.12354
G1 X119.769 Y97.156 E35.08563
G1 X119.032 Y97.156 E35.11761
G1 X103.344 Y112.844 E36.07970
G1 X102.607 Y112.844 E36.11168
G1 X118.294 Y97.156 E37.07377
G1 X117.556 Y97.156 E37.10576
G1 X101.869 Y112.844 E38.06784
G1 X101.132 Y112.844 E38.09983
G1 X116.819 Y97.156 E39.06192
G1 X116.081 Y97.156 E39.09390
G1 X100.394 Y112.844 E40.05599
G1 X99.656 Y112.844 E40.08798
G1 X115.344 Y97.156 E41.05006
G1 X114.606 Y97.156 E41.08205
G1 X98.919 Y112.844 E42.04414
G1 X98.181 Y112.844 E42.07612
G1 X113.869 Y97.156 E43.03821
G1 X113.131 Y97.156 E43.07020
G1 X97.444 Y112.844 E44.03228
G1 X96.706 Y112.844 E44.06427
G1 X112.393 Y97.156 E45.02636
G1 X111.656 Y97.156 E45.05834
G1 X95.969 Y112.844 E46.02043
G1 X95.231 Y112.844 E46.05242
G1 X110.918 Y97.156 E47.01450
G1 X110.181 Y97.156 E47.04649
G1 X94.493 Y112.844 E48.00858
G1 X93.756 Y112.844 E48.04056
G1 X109.443 Y97.156 E49.00265
G1 X108.706 Y97.156 E49.03464
G1 X93.018 Y112.844 E49.99672
G1 X92.281 Y112.844 E50.02871
G1 X107.968 Y97.156 E50.99080
G1 X107.230 Y97.156 E51.02278
G1 X91.543 Y112.844 E51.98487
G1 X90.806 Y112.844 E52.01686
G1 X106.493 Y97.156 E52.97894
G1 X105.755 Y97.156 E53.01093
G1 X90.156 Y112.755 E53.96760
G1 X90.156 Y112.018 E53.99958
G1 X105.018 Y97.156 E54.91101
G1 X104.280 Y97.156 E54.94300
G1 X90.156 Y111.280 E55.80920
G1 X90.156 Y110.543 E55.84118
G1 X103.543 Y97.156 E56.66215
G1 X102.805 Y97.156 E56.69413
G1 X90.156 Y109.805 E57.46986
G1 X90.156 Y109.067 E57.50185
G1 X102.067 Y97.156 E58.23234
G1 X101.330 Y97.156 E58.26433
G1 X90.156 Y108.330 E58.94959
G1 X90.156 Y107.592 E58.98157
G1 X100.592 Y97.156 E59.62160
G1 X99.855 Y97.156 E59.65358
G1 X90.156 Y106.855 E60.24837
G1 X90.156 Y106.117 E60.28036
G1 X99.117 Y97.156 E60.82991
G1 X98.380 Y97.156 E60.86190
G1 X90.156 Y105.380 E61.36622
G1 X90.156 Y104.642 E61.39821
G1 X97.642 Y97.156 E61.85729
G1 X96.904 Y97.156 E61.88928
G1 X90.156 Y103.904 E62.30313
G1 X90.156 Y103.167 E62.33512
G1 X96.167 Y97.156 E62.70373
G1 X95.429 Y97.156 E62.73572
G1 X90.156 Y102.429 E63.05910
G1 X90.156 Y101.692 E63.09109
G1 X94.692 Y97.156 E63.36924
G1 X93.954 Y97.156 E63.40122
G1 X90.156 Y100.954 E63.63413
G1 X90.156 Y100.217 E63.66612
G1 X93.217 Y97.156 E63.85380
G1 X92.479 Y97.156 E63.88578
G1 X90.156 Y99.479 E64.02823
G1 X90.156 Y98.741 E64.06021
G1 X91.741 Y97.156 E64.15742
G1 X91.004 Y97.156 E64.18941
G1 X90.156 Y98.004 E64.24138
G1 X90.156 Y97.266 E64.27337
G1 X90.266 Y97.156 E64.28011
M106 S173.4
M104 S220 ; set temperature
G1 Z0.400 F9000.000
G1 X125.306 Y113.306 F9000.000
G1 F2100
G1 X89.694 Y113.306 E65.81125
G1 X89.694 Y96.694 E66.52547
G1 X125.306 Y96.694 E68.05661
G1 X125.306 Y113.246 E68.76825
G1 X125.823 Y113.823 F9000.000
G1 F2100
G1 X89.177 Y113.823 E70.34386
G1 X89.177 Y96.177 E71.10254
G1 X125.823 Y96.177 E72.67815
G1 X125.823 Y113.763 E73.43425
G1 X126.280 Y114.280 F9000.000
G1 F1800
G1 X88.720 Y114.280 E74.67438
G1 X88.720 Y95.720 E75.28719
G1 X126.280 Y95.720 E76.52732
G1 X126.280 Y114.220 E77.13814
G1 X125.885 Y114.219 F9000.000
G1 X124.844 Y97.266 F9000.000
G1 F3600
G1 X124.734 Y97.156 E77.14487
G1 X123.996 Y97.156 E77.17686
G1 X124.844 Y98.004 E77.22883
G1 X124.844 Y98.741 E77.26081
G1 X123.259 Y97.156 E77.35802
G1 X122.521 Y97.156 E77.39000
G1 X124.844 Y99.479 E77.53244
G1 X124.844 Y100.216 E77.56443
G1 X121.784 Y97.156 E77.75210
G1 X121.046 Y97.156 E77.78409
G1 X124.844 Y100.954 E78.01700
G1 X124.844 Y101.692 E78.04898
G1 X120.308 Y97.156 E78.32713
G1 X119.571 Y97.156 E78.35911
G1 X124.844 Y102.429 E78.68249
G1 X124.844 Y103.167 E78.71448
G1 X118.833 Y97.156 E79.08309
G1 X118.096 Y97.156 E79.11508
G1 X124.844 Y103.904 E79.52892
G1 X124.844 Y104.642 E79.56091
G1 X117.358 Y97.156 E80.01999
G1 X116.621 Y97.156 E80.05198
G1 X124.844 Y105.379 E80.55629
G1 X124.844 Y106.117 E80.58828
G1 X115.883 Y97.156 E81.13783
G1 X115.145 Y97.156 E81.16982
G1 X124.844 Y106.855 E81.76460
G1 X124.844 Y107.592 E81.79659
G1 X114.408 Y97.156 E82.43661
G1 X113.670 Y97.156 E82.46859
G1 X124.844 Y108.330 E83.15385
G1 X124.844 Y109.067 E83.18583
G1 X112.933 Y97.156 E83.91632
G1 X112.195 Y97.156 E83.94831
G1 X124.844 Y109.805 E84.72403
G1 X124.844 Y110.542 E84.75602
G1 X111.458 Y97.156 E85.57698
G1 X110.720 Y97.156 E85.60896
G1 X124.844 Y111.280 E86.47516
G1 X124.844 Y112.018 E86.50714
G1 X109.982 Y97.156 E87.41857
G1 X109.245 Y97.156 E87.45056
G1 X124.844 Y112.755 E88.40722
G1 X124.844 Y112.844 E88.41105
G1 X124.195 Y112.844 E88.43920
G1 X108.507 Y97.156 E89.40129
G1 X107.770 Y97.156 E89.43328
G1 X123.457 Y112.844 E90.39536
G1 X122.719 Y112.844 E90.42735
G1 X107.032 Y97.156 E91.38944
G1 X106.295 Y97.156 E91.42142
G1 X121.982 Y112.844 E92.38351
G1 X121.244 Y112.844 E92.41550
G1 X105.557 Y97.156 E93.37758
G1 X104.819 Y97.156 E93.40957
G1 X120.507 Y112.844 E94.37166
G1 X119.769 Y112.844 E94.40364
G1 X104.082 Y97.156 E95.36573
G1 X103.344 Y97.156 E95.39772
G1 X119.032 Y112.844 E96.35980
G1 X118.294 Y112.844 E96.39179
G1 X102.607 Y97.156 E97.35388
G1 X101.869 Y97.156 E97.38586
G1 X117.556 Y112.844 E98.34795
G1 X116.819 Y112.844 E98.37994
G1 X101.132 Y97.156 E99.34202
G1 X100.394 Y97.156 E99.37401
G1 X116.081 Y112.844 E100.33610
G1 X115.344 Y112.844 E100.36808
G1 X99.656 Y97.156 E101.33017
G1 X98.919 Y97.156 E101.36216
G1 X114.606 Y112.844 E102.32424
G1 X113.869 Y112.844 E102.35623
G1 X98.181 Y97.156 E103.31832
G1 X97.444 Y97.156 E103.35030
G1 X113.131 Y112.844 E104.31239
G1 X112.393 Y112.844 E104.34438
G1 X96.706 Y97.156 E105.30646
G1 X95.969 Y97.156 E105.33845
G1 X111.656 Y112.844 E106.30054
G1 X110.918 Y112.844 E106.33252
G1 X95.231 Y97.156 E107.29461
G1 X94.493 Y97.156 E107.32659
G1 X110.181 Y112.844 E108.28868
G1 X109.443 Y112.844 E108.32067
G1 X93.756 Y97.156 E109.28276
G1 X93.018 Y97.156 E109.31474
G1 X108.706 Y112.844 E110.27683
G1 X107.968 Y112.844 E110.30881
G1 X92.281 Y97.156 E111.27090
G1 X91.543 Y97.156 E111.30289
G1 X107.230 Y112.844 E112.26498
G1 X106.493 Y112.844 E112.29696
G1 X90.806 Y97.156 E113.25905
G1 X90.156 Y97.156 E113.28720
G1 X90.156 Y97.245 E113.29103
G1 X105.755 Y112.844 E114.24770
G1 X105.018 Y112.844 E114.27969
G1 X90.156 Y97.982 E115.19112
G1 X90.156 Y98.720 E115.22311
G1 X104.280 Y112.844 E116.08931
G1 X103.543 Y112.844 E116.12129
G1 X90.156 Y99.457 E116.94225
G1 X90.156 Y100.195 E116.97424
G1 X102.805 Y112.844 E117.74997
G1 X102.067 Y112.844 E117.78196
G1 X90.156 Y100.933 E118.51245
G1 X90.156 Y101.670 E118.54444
G1 X101.330 Y112.844 E119.22970
G1 X100.592 Y112.844 E119.26168
G1 X90.156 Y102.408 E119.90171
G1 X90.156 Y103.145 E119.93369
G1 X99.855 Y112.844 E120.52849
G1 X99.117 Y112.844 E120.56047
G1 X90.156 Y103.883 E121.11003
G1 X90.156 Y104.620 E121.14201
G1 X98.380 Y112.844 E121.64633
G1 X97.642 Y112.844 E121.67832
G1 X90.156 Y105.358 E122.13741
G1 X90.156 Y106.096 E122.16939
G1 X96.904 Y112.844 E122.58325
